FS-tar/marl-mpe-learning/outputs/qmix_mpe/simple_spread/run011/train_log.csv
update,episode,total_steps,train_team_return,td_loss,grad_norm,q_tot_mean,q_tot_std,q_tot_max,target_q_tot_mean,target_q_tot_std,target_q_tot_max,epsilon,eval_team_return,eval_mean_agent_return
1,4,200,-50.39197368911529,19.477039337158203,76.10964965820312,-2.229208469390869,9.845666885375977,28.2825927734375,17.589557647705078,6.842626571655273,32.31536102294922,0.94,,
2,5,210,-11.229343561678137,16.73849105834961,79.41712951660156,0.004896074533462524,8.64109992980957,22.320714950561523,16.900110244750977,7.575778961181641,33.264408111572266,0.9369999999999999,,
3,5,220,-22.72508867436242,17.50250244140625,77.50881958007812,2.1012957096099854,9.384230613708496,19.08761978149414,19.57577896118164,7.100991249084473,32.73080062866211,0.9339999999999999,,
4,5,230,-35.26659268214178,18.339405059814453,75.79765319824219,0.43112435936927795,9.996292114257812,20.69536590576172,18.522472381591797,6.340139389038086,33.277587890625,0.931,,
5,5,240,-44.94266213789322,16.82634925842285,81.13320922851562,1.6180872917175293,9.345108985900879,20.431482315063477,18.9356689453125,5.321828365325928,30.219987869262695,0.9279999999999999,,
6,5,250,-53.857910491038446,17.05345344543457,75.09957885742188,1.8462066650390625,8.28311538696289,17.50511360168457,18.691640853881836,5.810152053833008,29.663639068603516,0.925,,
7,6,260,-9.425919088942623,14.295953750610352,71.4681167602539,4.756026268005371,9.375042915344238,22.04531478881836,19.084630966186523,6.75673246383667,33.32155990600586,0.922,,
8,6,270,-16.91079402765149,13.206974983215332,68.530029296875,5.008376121520996,9.160467147827148,22.75868797302246,17.463544845581055,5.765815258026123,32.80878829956055,0.919,,
9,6,280,-25.66675534268492,15.71725845336914,72.71025085449219,3.138699531555176,9.628316879272461,25.865421295166016,18.402347564697266,6.234048366546631,32.42580795288086,0.916,,
10,6,290,-35.15394841770002,12.439512252807617,77.04205322265625,5.364077568054199,8.611381530761719,26.51632308959961,18.035430908203125,5.718499660491943,32.78239440917969,0.913,,
11,6,300,-46.822451332466756,12.202132225036621,68.51250457763672,5.814931392669678,9.228278160095215,24.629379272460938,16.976573944091797,6.89927864074707,30.350603103637695,0.91,,
12,7,310,-11.90282838831776,13.133844375610352,74.43795013427734,4.768463134765625,9.025609970092773,23.765974044799805,17.4947452545166,6.18597412109375,32.92705535888672,0.907,,
13,7,320,-20.739945727655883,13.339072227478027,72.4779281616211,6.218445777893066,10.483927726745605,34.42313003540039,19.308666229248047,6.479494571685791,32.96404266357422,0.904,,
14,7,330,-30.239018230995256,9.559900283813477,55.766578674316406,8.88010311126709,8.043603897094727,29.609336853027344,17.32451057434082,6.315484523773193,32.659950256347656,0.901,,
15,7,340,-39.68165836280568,10.854547500610352,63.15811538696289,8.619600296020508,9.715766906738281,38.90608215332031,18.177053451538086,6.121592998504639,32.26365280151367,0.898,,
16,7,350,-46.02797847807829,10.890670776367188,65.34757232666016,10.450027465820312,8.618393898010254,28.936866760253906,19.23476219177246,7.356379508972168,33.613548278808594,0.895,,
17,8,360,-12.39467056539706,8.410494804382324,57.03755187988281,11.324736595153809,8.545035362243652,25.36185646057129,17.50035858154297,7.174691200256348,33.05568313598633,0.892,,
18,8,370,-26.627141974456965,7.980228900909424,45.80130386352539,12.926841735839844,10.550222396850586,40.656227111816406,17.578149795532227,6.343679428100586,33.18536376953125,0.889,,
19,8,380,-41.855342318397526,7.511566162109375,58.47085189819336,13.422511100769043,7.972005367279053,31.427629470825195,20.090961456298828,6.396990776062012,33.75749206542969,0.886,,
20,8,390,-55.87640966703235,6.166744232177734,50.33723449707031,14.73002815246582,9.261752128601074,32.44047164916992,19.494760513305664,6.9426116943359375,33.8093376159668,0.883,,
21,8,400,-71.43806853839197,8.846384048461914,53.2947883605957,11.078720092773438,8.520092964172363,26.497621536254883,17.59854507446289,6.931015491485596,30.927356719970703,0.88,,
22,9,410,-17.12023379355788,7.50039529800415,46.54587936401367,13.392852783203125,9.368619918823242,34.2658576965332,17.981287002563477,5.643355846405029,32.53004455566406,0.877,,
23,9,420,-28.726335832534144,7.2141032218933105,43.71213912963867,15.630424499511719,9.612117767333984,36.98800277709961,18.898067474365234,7.054788112640381,33.049156188964844,0.874,,
24,9,430,-40.624788566269885,7.124685287475586,48.79970932006836,14.09251594543457,9.323463439941406,36.779945373535156,18.727615356445312,7.128382205963135,34.03496170043945,0.871,,
25,9,440,-56.50358343024547,6.137593746185303,45.71196365356445,14.942273139953613,7.54401159286499,29.6785945892334,18.26018524169922,6.802340030670166,33.257667541503906,0.868,,
26,9,450,-76.82512196030089,6.774932861328125,51.89381408691406,16.58841323852539,8.48318099975586,32.88325119018555,20.546504974365234,5.771646499633789,33.56647491455078,0.865,,
27,10,460,-13.449431313967619,6.082559585571289,37.492305755615234,17.50954818725586,8.6803617477417,45.19990158081055,19.282039642333984,6.80269193649292,33.38945388793945,0.862,,
28,10,470,-26.52144054614527,5.2877607345581055,38.650146484375,17.190303802490234,8.043699264526367,34.95854568481445,18.96501922607422,6.253820896148682,31.168420791625977,0.859,,
29,10,480,-45.405750912408784,5.623872756958008,39.91535186767578,15.987042427062988,7.584892272949219,38.27327346801758,17.829421997070312,5.824167728424072,30.284469604492188,0.856,,
30,10,490,-62.63607771358519,5.022170543670654,44.40742492675781,16.73816680908203,7.507387638092041,32.430015563964844,18.315767288208008,6.074258327484131,31.292491912841797,0.853,,
31,10,500,-83.14719513910418,5.695712089538574,53.52541732788086,14.977124214172363,7.237152576446533,31.624431610107422,17.659996032714844,5.445838451385498,31.041349411010742,0.85,-96.90563400853497,-96.90563400853497
32,11,510,-13.858633963251975,4.078742504119873,35.534725189208984,19.34529685974121,7.570026874542236,34.62665557861328,19.366268157958984,6.310181140899658,33.96726608276367,0.847,,
33,11,520,-27.055609124333863,4.0768561363220215,37.030784606933594,18.90151596069336,8.560323715209961,38.66253662109375,18.744510650634766,6.420770645141602,33.69542694091797,0.844,,
34,11,530,-42.29735001105453,4.213403224945068,35.552528381347656,18.225635528564453,6.705482006072998,33.84662628173828,18.356678009033203,4.694327354431152,30.583030700683594,0.841,,
35,11,540,-54.55526221223099,4.340278625488281,39.97676467895508,19.50070571899414,7.622028350830078,34.88996124267578,19.47699546813965,5.712850093841553,30.93476104736328,0.838,,
36,11,550,-66.29493429281543,6.031330108642578,49.794349670410156,20.9859619140625,8.881510734558105,48.0695915222168,19.801254272460938,7.108705997467041,34.01706314086914,0.835,,
37,12,560,-6.976550840489618,3.948314666748047,43.59571075439453,22.600902557373047,6.941135883331299,43.188594818115234,20.748531341552734,4.547900676727295,31.808692932128906,0.832,,
38,12,570,-15.371446774822694,3.3337924480438232,40.26010513305664,18.309616088867188,6.607182502746582,33.362945556640625,17.98379135131836,5.964338779449463,34.382869720458984,0.829,,
39,12,580,-23.88752296219354,5.336569786071777,50.671199798583984,19.111623764038086,7.102912425994873,33.99757766723633,18.74477767944336,6.489871501922607,31.516677856445312,0.8260000000000001,,
40,12,590,-34.178425735156345,2.9337589740753174,37.79743576049805,19.734331130981445,6.8962178230285645,44.169029235839844,19.085983276367188,5.267791271209717,35.07362747192383,0.823,,
41,12,600,-44.66557076260579,3.2615420818328857,33.633026123046875,20.65438461303711,6.844919204711914,41.8117790222168,20.053207397460938,5.726668357849121,32.18613052368164,0.82,,
42,13,610,-5.4441542711849324,3.3682427406311035,39.00516891479492,18.953502655029297,6.639011383056641,41.35948181152344,17.875341415405273,5.627495288848877,33.803035736083984,0.817,,
43,13,620,-13.069086926687426,4.121819972991943,38.250457763671875,18.89286994934082,7.2502522468566895,43.14478302001953,18.29725456237793,5.984498500823975,32.13258361816406,0.8140000000000001,,
44,13,630,-22.616828124190555,3.8051323890686035,36.62934494018555,18.461502075195312,5.162387371063232,30.54681396484375,18.13494110107422,5.904265880584717,31.38888931274414,0.8109999999999999,,
45,13,640,-32.609215947981866,3.286559820175171,37.5208854675293,19.707677841186523,6.408740520477295,34.43256759643555,18.830507278442383,5.711286544799805,31.1914005279541,0.808,,
46,13,650,-41.5842405596984,2.8758785724639893,36.297882080078125,20.074718475341797,6.757582664489746,44.22579574584961,19.884449005126953,5.123439788818359,34.06779098510742,0.8049999999999999,,
47,14,660,-7.446447381229699,2.8617703914642334,30.946895599365234,19.240877151489258,5.811738967895508,33.373512268066406,18.86803436279297,5.393780708312988,31.56018829345703,0.802,,
48,14,670,-16.770349432616968,2.9821605682373047,34.155696868896484,18.651723861694336,6.840330123901367,43.067047119140625,19.465524673461914,5.373836994171143,34.14821243286133,0.7989999999999999,,
49,14,680,-27.479373005008636,3.0041840076446533,35.51149368286133,19.49284553527832,6.148396968841553,32.6974983215332,18.68755340576172,6.444936275482178,32.04634094238281,0.796,,
50,14,690,-41.336560312971905,2.953800916671753,39.367820739746094,18.601844787597656,5.055661201477051,30.223548889160156,20.386837005615234,5.004994869232178,34.559654235839844,0.7929999999999999,,
51,14,700,-55.825278587158024,2.7805564403533936,30.072214126586914,19.954273223876953,7.17867374420166,40.13921356201172,20.553203582763672,6.12752628326416,35.53525924682617,0.79,,
52,15,710,-14.263251070341974,2.4839508533477783,34.63694763183594,19.47516632080078,5.469700336456299,32.81071090698242,20.593059539794922,5.182124137878418,32.138736724853516,0.787,,
53,15,720,-32.9680730527094,2.9537744522094727,47.20942306518555,18.6768798828125,5.276482582092285,32.65825271606445,19.828144073486328,5.308960437774658,32.333160400390625,0.784,,
54,15,730,-53.9744327699354,2.4275434017181396,36.604408264160156,19.36661148071289,7.209900379180908,39.54213333129883,21.16841697692871,6.107608318328857,35.608177185058594,0.7809999999999999,,
55,15,740,-71.95478160514108,2.7859818935394287,33.28036880493164,21.122377395629883,6.829585552215576,39.44038009643555,21.819042205810547,5.675321578979492,35.09198760986328,0.778,,
56,15,750,-87.45664586923814,3.246730327606201,34.71162796020508,19.730960845947266,7.240049839019775,38.7371711730957,20.0639705657959,6.88947868347168,34.271751403808594,0.775,,
57,16,760,-9.010106091196208,2.5512754917144775,29.251544952392578,20.31906509399414,6.916319847106934,41.251468658447266,20.69368553161621,5.515685558319092,35.66340637207031,0.772,,
58,16,770,-21.36662208271725,3.6174397468566895,39.174835205078125,18.964704513549805,6.116157531738281,34.13903045654297,18.678184509277344,7.463954925537109,33.46318817138672,0.769,,
59,16,780,-34.49507240385591,2.3380136489868164,27.956745147705078,19.827608108520508,6.191637992858887,37.484649658203125,19.89545249938965,5.613996505737305,32.88315200805664,0.766,,
60,16,790,-47.43602933748879,3.091437816619873,36.49925231933594,20.719432830810547,5.464126110076904,37.57622146606445,22.296274185180664,5.272911548614502,34.28882598876953,0.763,,
61,16,800,-60.528858828254315,2.4795870780944824,30.29594612121582,20.726219177246094,5.572569847106934,34.26572036743164,20.689645767211914,5.601771831512451,31.579853057861328,0.76,,
62,17,810,-5.437036048565217,2.4964232444763184,31.482595443725586,20.644840240478516,5.655518531799316,34.78983688354492,20.09149742126465,6.300605773925781,35.03630065917969,0.757,,
63,17,820,-13.245295417583524,1.9600781202316284,30.66053009033203,20.906455993652344,5.904019355773926,34.7969970703125,21.520660400390625,5.486411094665527,35.18931198120117,0.754,,
64,17,830,-28.48076017287201,2.561818838119507,32.91999435424805,21.085542678833008,6.656626224517822,38.449466705322266,20.030216217041016,6.607188701629639,34.461124420166016,0.751,,
65,17,840,-48.023734289661896,1.9587628841400146,35.9187126159668,20.619298934936523,5.223225116729736,38.10061264038086,20.8265380859375,5.688221454620361,34.59245681762695,0.748,,
66,17,850,-65.57239990726568,2.0383834838867188,30.181217193603516,19.019485473632812,6.461244106292725,35.92387008666992,19.37987518310547,5.31540584564209,32.3349494934082,0.745,,
67,18,860,-12.117262633250844,2.768249273300171,29.379472732543945,20.79452896118164,4.889971733093262,39.016845703125,20.743005752563477,6.522292137145996,35.733097076416016,0.742,,
68,18,870,-25.57774194147257,2.4147114753723145,35.74116516113281,21.01447105407715,6.676052570343018,37.73317337036133,19.978425979614258,6.529357433319092,33.04482650756836,0.739,,
69,18,880,-42.65744362459657,2.568187713623047,31.88132667541504,23.323284149169922,6.7894392013549805,40.24117660522461,22.507810592651367,4.985410213470459,35.73874282836914,0.736,,
70,18,890,-60.077321661009115,2.8205137252807617,37.44926071166992,22.310270309448242,6.96615743637085,37.59000778198242,21.52776336669922,6.781088352203369,35.1990966796875,0.733,,
71,18,900,-82.6228312957379,2.5684287548065186,34.476585388183594,21.94298553466797,6.3977742195129395,38.79198455810547,21.58287811279297,6.8991241455078125,35.11505126953125,0.73,,
72,19,910,-11.697805286416596,1.737178921699524,33.34075164794922,20.101240158081055,5.75812292098999,33.52042770385742,20.13434410095215,6.226056098937988,35.20999526977539,0.727,,
73,19,920,-22.97676331798943,2.9232046604156494,31.40570831298828,21.437725067138672,5.8122358322143555,39.11091613769531,21.560863494873047,6.719429969787598,34.79224395751953,0.724,,
74,19,930,-34.845037779067,1.649225115776062,30.73479652404785,21.40960693359375,5.960456371307373,34.18791580200195,22.284889221191406,5.988834381103516,34.793540954589844,0.721,,
75,19,940,-49.83881996836203,1.7765841484069824,27.096837997436523,19.79709243774414,5.653604984283447,35.49246597290039,20.48493194580078,5.649919033050537,33.91950607299805,0.718,,
76,19,950,-61.85938866279089,2.227816581726074,30.9766788482666,23.606945037841797,6.4297194480896,38.916404724121094,22.876604080200195,4.626454830169678,33.219970703125,0.7150000000000001,,
77,20,960,-10.776959604270399,2.1706488132476807,34.37646484375,21.652223587036133,6.881575107574463,36.92584228515625,21.100990295410156,5.569159030914307,33.14532470703125,0.712,,
78,20,970,-22.442030943298352,2.402650833129883,27.869606018066406,21.552003860473633,7.425055027008057,38.99150848388672,21.075044631958008,7.0565385818481445,35.74773406982422,0.7090000000000001,,
79,20,980,-32.77212915791404,2.9757330417633057,36.159934997558594,21.275470733642578,7.442955017089844,38.97392654418945,21.729623794555664,5.793230056762695,33.026336669921875,0.706,,
80,20,990,-41.596995280682,2.5342154502868652,38.050148010253906,21.681928634643555,7.3778791427612305,34.91875076293945,21.591644287109375,6.65374755859375,34.4490966796875,0.703,,
81,20,1000,-51.9184721514647,2.4447641372680664,32.033626556396484,20.97432518005371,5.801258563995361,33.60853576660156,21.097980499267578,6.508468151092529,33.8687744140625,0.7,-67.41513628280855,-67.41513628280855
82,21,1010,-8.394151047223906,3.9257705211639404,27.81049919128418,22.1320858001709,6.390434265136719,37.429290771484375,20.451614379882812,8.801034927368164,35.748207092285156,0.6970000000000001,,
83,21,1020,-19.713758794999276,2.2719695568084717,28.90580177307129,21.484853744506836,6.4681477546691895,36.67471694946289,21.426624298095703,6.135056018829346,34.416133880615234,0.694,,
84,21,1030,-34.24715971900832,2.1691226959228516,31.127384185791016,22.2392578125,5.752835750579834,36.56387710571289,22.517822265625,5.739133834838867,33.872718811035156,0.6910000000000001,,
85,21,1040,-50.03267916226291,1.8393375873565674,25.056621551513672,21.171602249145508,5.6807332038879395,33.40457534790039,20.99148941040039,5.390744686126709,29.826589584350586,0.688,,
86,21,1050,-68.0544792853862,2.4842987060546875,33.17027282714844,21.464509963989258,6.512954235076904,36.03973388671875,19.960060119628906,6.5678253173828125,34.663963317871094,0.685,,
87,22,1060,-4.915741668905018,2.0114245414733887,30.381330490112305,21.716983795166016,5.873645305633545,34.87890625,22.14411735534668,5.116030216217041,35.17085647583008,0.6819999999999999,,
88,22,1070,-12.784972897520756,2.5803380012512207,29.473140716552734,20.920351028442383,6.137105941772461,36.12690734863281,20.658239364624023,5.931148052215576,33.32232666015625,0.679,,
89,22,1080,-20.8811178662124,1.8283300399780273,34.53632736206055,21.154239654541016,6.5567121505737305,35.85642623901367,20.47618865966797,6.101089954376221,35.24380874633789,0.6759999999999999,,
90,22,1090,-30.455872692183306,2.2140355110168457,31.39240837097168,20.745527267456055,5.376671314239502,34.21676254272461,21.008609771728516,5.80666446685791,34.32072067260742,0.673,,
91,22,1100,-42.585330211872154,1.564645528793335,34.210147857666016,21.666501998901367,5.62898063659668,36.9276237487793,21.55730438232422,5.755911827087402,34.386226654052734,0.67,,
92,23,1110,-10.17499006550198,1.9480338096618652,28.56488800048828,19.74313735961914,5.581453800201416,31.839454650878906,19.8331241607666,5.982203006744385,34.30290603637695,0.667,,
93,23,1120,-18.847855685007524,1.5875768661499023,27.417160034179688,20.093982696533203,6.855655193328857,36.58375549316406,19.876083374023438,6.2437005043029785,33.81279754638672,0.6639999999999999,,
94,23,1130,-27.073586662852563,1.8907310962677002,32.79741668701172,19.943126678466797,6.847837448120117,37.4354133605957,19.969860076904297,6.393045425415039,32.91661834716797,0.661,,
95,23,1140,-38.26926797715805,3.1351213455200195,43.430049896240234,20.584644317626953,6.001726150512695,33.13273620605469,18.72188949584961,7.336418151855469,31.910146713256836,0.6579999999999999,,
96,23,1150,-56.0519472632488,2.479104995727539,30.375835418701172,20.562694549560547,6.596586227416992,33.97879409790039,20.291507720947266,6.275693416595459,31.17143440246582,0.655,,
97,24,1160,-15.549906092280077,2.8311712741851807,37.41128158569336,21.792770385742188,6.620660781860352,36.74025344848633,20.465612411499023,7.128574848175049,32.842323303222656,0.652,,
98,24,1170,-28.55145309588786,2.281604290008545,30.69540786743164,19.43586540222168,6.3401875495910645,32.67502212524414,19.715425491333008,6.60336446762085,32.44581985473633,0.649,,
99,24,1180,-40.777302863143646,2.8198537826538086,29.318950653076172,19.92653465270996,6.479862689971924,39.791709899902344,19.727447509765625,7.139065742492676,35.069091796875,0.646,,
100,24,1190,-46.88945684917105,2.0581557750701904,34.27185821533203,20.086795806884766,6.331879138946533,36.424312591552734,19.854734420776367,6.018215656280518,30.74834632873535,0.643,,
101,24,1200,-57.662385000692275,2.1735713481903076,32.52118682861328,20.23917007446289,7.107668399810791,36.98332595825195,20.407512664794922,6.813558578491211,35.08671951293945,0.6399999999999999,,
102,25,1210,-3.5727251629467,1.9838788509368896,28.379104614257812,21.576662063598633,7.039380073547363,36.62419128417969,21.146038055419922,5.6021857261657715,31.14728546142578,0.637,,
103,25,1220,-9.131826478923605,1.6764476299285889,32.030052185058594,21.64644432067871,5.701474666595459,35.14148712158203,22.061038970947266,5.272026062011719,34.00674057006836,0.634,,
104,25,1230,-24.39587493345961,2.5863866806030273,31.091876983642578,21.35123634338379,6.773553371429443,34.71783447265625,20.728694915771484,7.644172668457031,34.57188034057617,0.631,,
105,25,1240,-44.333207121429524,1.6162937879562378,20.928728103637695,21.287067413330078,5.228814125061035,32.931087493896484,21.05614471435547,5.963516712188721,34.589996337890625,0.628,,
106,25,1250,-74.57203682138929,1.8890047073364258,35.71226501464844,20.1839599609375,6.535031318664551,36.349639892578125,20.851634979248047,6.576709270477295,38.13427734375,0.625,,
107,26,1260,-11.535697417034896,1.701683759689331,28.231670379638672,19.935190200805664,6.179676532745361,34.33319091796875,20.63593864440918,6.690358638763428,33.509117126464844,0.622,,
108,26,1270,-23.054479144564308,2.9190633296966553,28.017549514770508,20.3358154296875,6.306417465209961,38.46467971801758,19.215131759643555,7.271473407745361,34.19989013671875,0.619,,
109,26,1280,-33.543048455843966,1.5948798656463623,26.852638244628906,22.057939529418945,6.518666744232178,39.60662078857422,22.111974716186523,6.741871356964111,44.476776123046875,0.616,,
110,26,1290,-44.560888848189656,2.022948741912842,32.40714645385742,20.632495880126953,7.208575248718262,46.7506103515625,20.3061466217041,6.8489837646484375,45.72049331665039,0.613,,
111,26,1300,-60.46504504463991,2.4979515075683594,37.14242935180664,19.945903778076172,5.450350761413574,31.156465530395508,19.236705780029297,5.647685527801514,32.1147575378418,0.61,,
112,27,1310,-13.358824925882432,1.6914634704589844,29.389915466308594,20.66849136352539,5.550664901733398,33.7711067199707,20.250301361083984,6.210210800170898,34.30441665649414,0.607,,
113,27,1320,-30.017004745292105,1.9766716957092285,29.71077537536621,21.0594482421875,6.92637300491333,38.55934524536133,20.784509658813477,6.901058673858643,34.53486251831055,0.604,,
114,27,1330,-52.565643942649224,1.997338891029358,33.256248474121094,19.495405197143555,6.279135227203369,35.11845397949219,18.764541625976562,6.4785966873168945,32.4380989074707,0.601,,
115,27,1340,-81.53755088878168,1.8038582801818848,26.439924240112305,21.29416275024414,6.958211421966553,45.640289306640625,21.17763900756836,6.714816570281982,45.95145034790039,0.598,,
116,27,1350,-110.84192278760699,2.652451753616333,33.97096252441406,22.376846313476562,7.975189685821533,46.88408279418945,21.26813507080078,7.902838706970215,44.768333435058594,0.595,,
117,28,1360,-9.262215295760818,2.357213020324707,31.313623428344727,21.189956665039062,5.8888702392578125,36.54219436645508,20.439599990844727,6.454285144805908,33.099700927734375,0.5920000000000001,,
118,28,1370,-19.891680408262754,2.2455382347106934,30.550682067871094,20.531024932861328,6.468038558959961,44.706275939941406,20.338674545288086,5.496506214141846,32.03659439086914,0.589,,
119,28,1380,-31.017749278852108,1.7747271060943604,29.327594757080078,22.38432502746582,6.161771774291992,36.60169219970703,22.851844787597656,6.017012596130371,32.251502990722656,0.586,,
120,28,1390,-41.01678181354737,1.5386226177215576,27.399250030517578,21.106109619140625,7.014448165893555,39.25840377807617,20.794816970825195,5.992237567901611,34.90644073486328,0.583,,
121,28,1400,-52.49774235508378,1.817300796508789,31.10040283203125,23.09585952758789,6.604824066162109,43.57209777832031,22.2246036529541,6.715641498565674,38.25788497924805,0.58,,
122,29,1410,-6.019938818737051,3.221160888671875,47.159820556640625,24.499046325683594,7.294676303863525,46.668304443359375,22.329200744628906,8.225478172302246,37.66727066040039,0.577,,
123,29,1420,-13.180255967209224,2.346161365509033,29.49407958984375,21.596773147583008,6.3791704177856445,39.760128021240234,20.347379684448242,7.832404136657715,45.02978515625,0.5740000000000001,,
124,29,1430,-22.059273041669474,2.164294958114624,33.225372314453125,22.350557327270508,7.4010329246521,37.06569290161133,21.126073837280273,7.594000339508057,33.55348587036133,0.571,,
125,29,1440,-31.96756293898771,2.062699317932129,26.349130630493164,20.55061912536621,6.619746685028076,37.49934387207031,20.038728713989258,6.6250529289245605,34.889705657958984,0.5680000000000001,,
126,29,1450,-43.512222520094426,2.4165759086608887,37.561248779296875,20.90886688232422,7.8210835456848145,40.98335647583008,20.45332145690918,6.178341865539551,32.446250915527344,0.565,,
127,30,1460,-15.456988885707846,1.9383141994476318,24.90534782409668,21.339195251464844,6.196892738342285,40.18144226074219,21.312498092651367,5.456088542938232,35.436519622802734,0.5619999999999999,,
128,30,1470,-31.5756303725812,2.2549569606781006,41.628814697265625,21.227842330932617,6.090720176696777,38.720863342285156,21.84583854675293,5.948424339294434,33.57630157470703,0.5589999999999999,,
129,30,1480,-47.369235078207666,1.6797884702682495,40.73979949951172,19.204898834228516,5.471935272216797,41.78646469116211,20.228986740112305,5.265957832336426,44.19940948486328,0.556,,
130,30,1490,-61.8168167641275,1.4515269994735718,45.20298767089844,20.917823791503906,6.013912200927734,34.363304138183594,22.05945587158203,6.245152473449707,33.628936767578125,0.5529999999999999,,
131,30,1500,-73.18728237289416,2.1100375652313232,25.87228012084961,19.92740249633789,5.641360282897949,28.972301483154297,19.797452926635742,6.851947784423828,32.2935905456543,0.55,-90.059724928934,-90.059724928934
