FS-tar/marl-mpe-learning/outputs/qmix_mpe/simple_spread/run005/train_log.csv
update,episode,total_steps,train_team_return,td_loss,q_tot_mean,target_q_tot_mean,epsilon,eval_team_return,eval_mean_agent_return
1,10,1000,-205.92191224606594,3.867340087890625,1.4160938262939453,2.287186622619629,0.9683333333333334,,
2,11,1010,-14.832437057318767,4.792261600494385,2.6174774169921875,2.682253360748291,0.9680166666666666,,
3,11,1020,-28.20457640751774,3.299283981323242,3.5541324615478516,2.7582318782806396,0.9677,,
4,11,1030,-43.60291876152241,2.2883429527282715,2.7995057106018066,2.3614470958709717,0.9673833333333334,,
5,11,1040,-58.9090721322095,1.3508970737457275,3.213103771209717,2.755868673324585,0.9670666666666666,,
6,11,1050,-72.58937284570025,4.1384382247924805,3.166837692260742,2.552375316619873,0.96675,,
7,11,1060,-86.12154201746925,2.655259609222412,2.6311614513397217,2.3816657066345215,0.9664333333333334,,
8,11,1070,-99.54508999354155,1.7398912906646729,2.298975944519043,2.2964284420013428,0.9661166666666666,,
9,11,1080,-113.68602616876473,1.3697056770324707,2.2155914306640625,2.331979513168335,0.9658,,
10,11,1090,-129.40652217283298,1.2120541334152222,2.0032100677490234,2.035278558731079,0.9654833333333334,,
11,11,1100,-144.90656832222686,0.8405656814575195,2.486847400665283,2.6500966548919678,0.9651666666666666,,
12,12,1110,-7.024962240503966,0.7591273784637451,2.473057508468628,2.4835448265075684,0.96485,,
13,12,1120,-16.602003533940433,1.9204230308532715,2.991936683654785,2.6817071437835693,0.9645333333333334,,
14,12,1130,-28.734955262155903,0.9439790844917297,2.8854854106903076,2.580852508544922,0.9642166666666667,,
15,12,1140,-42.41460935995485,0.6503164768218994,2.631814479827881,2.3038837909698486,0.9639,,
16,12,1150,-57.374971310315004,0.41236650943756104,2.564340353012085,2.296459197998047,0.9635833333333333,,
17,12,1160,-71.6042179353763,1.0296579599380493,2.6824545860290527,2.4128153324127197,0.9632666666666667,,
18,12,1170,-85.78601890171282,1.070563554763794,2.76029896736145,2.60172963142395,0.96295,,
19,12,1180,-95.01670254737269,2.6523730754852295,2.1584222316741943,1.9593473672866821,0.9626333333333333,,
20,12,1190,-103.88157491009694,0.6728703379631042,2.3967151641845703,2.5628411769866943,0.9623166666666667,,
21,12,1200,-112.93873342869928,0.6359864473342896,1.9857145547866821,2.2109456062316895,0.962,,
22,13,1210,-5.820908723172539,0.6763738393783569,1.9956270456314087,2.1880881786346436,0.9616833333333333,,
23,13,1220,-13.178903641730379,0.6584478616714478,1.855674147605896,1.9711848497390747,0.9613666666666667,,
24,13,1230,-20.70210101206947,0.5764837265014648,2.192080020904541,2.197418689727783,0.96105,,
25,13,1240,-30.910691275361554,0.5905218720436096,1.9735759496688843,1.8557637929916382,0.9607333333333333,,
26,13,1250,-39.961147975830244,0.3207996189594269,2.11873722076416,1.9333492517471313,0.9604166666666667,,
27,13,1260,-55.17730143346808,0.3462763726711273,2.308759927749634,2.0537919998168945,0.9601,,
28,13,1270,-73.88478602484957,0.2910012900829315,2.127027750015259,1.8981455564498901,0.9597833333333333,,
29,13,1280,-88.18093774789153,0.8587336540222168,2.136720895767212,2.090200424194336,0.9594666666666667,,
30,13,1290,-100.16067970390547,0.8327139616012573,2.2677671909332275,2.301091194152832,0.95915,,
31,13,1300,-111.17693875895988,0.24394859373569489,1.7213339805603027,1.813460350036621,0.9588333333333333,,
32,14,1310,-8.080496175511417,1.358586072921753,2.4396824836730957,2.4485702514648438,0.9585166666666667,,
33,14,1320,-17.128968339017568,0.288062185049057,1.751878261566162,1.734236717224121,0.9582,,
34,14,1330,-25.702193931504784,1.4956092834472656,2.343555212020874,2.191762685775757,0.9578833333333333,,
35,14,1340,-36.38391164367774,0.33049172163009644,2.085602283477783,1.9908567667007446,0.9575666666666667,,
36,14,1350,-51.85309273123064,0.3457769453525543,2.6204187870025635,2.5175557136535645,0.95725,,
37,14,1360,-66.50553320177634,0.32905513048171997,2.4213504791259766,2.341965913772583,0.9569333333333333,,
38,14,1370,-80.66446881917321,0.2506660521030426,2.7161290645599365,2.687551975250244,0.9566166666666667,,
39,14,1380,-90.28965610258913,0.47301381826400757,2.4055652618408203,2.3399481773376465,0.9563,,
40,14,1390,-101.58362527354461,0.36319446563720703,2.073878288269043,1.9702571630477905,0.9559833333333333,,
41,14,1400,-114.58757932554612,1.106414794921875,1.8764715194702148,1.6884148120880127,0.9556666666666667,,
42,15,1410,-14.94199015311319,0.47172626852989197,2.1112852096557617,2.051919937133789,0.95535,,
43,15,1420,-34.10270750212281,0.6089596748352051,2.468714952468872,2.3388657569885254,0.9550333333333333,,
44,15,1430,-46.9099423004749,0.2600843608379364,2.011474132537842,2.038965940475464,0.9547166666666667,,
45,15,1440,-56.38679641330331,0.343218058347702,1.766322374343872,1.7796801328659058,0.9544,,
46,15,1450,-65.53360234345692,0.23670054972171783,2.1412622928619385,2.148516893386841,0.9540833333333334,,
47,15,1460,-72.22734166336537,0.33146438002586365,2.0149035453796387,1.9687833786010742,0.9537666666666667,,
48,15,1470,-79.03858153450025,0.16134890913963318,1.7511441707611084,1.7373013496398926,0.95345,,
49,15,1480,-89.08703615317314,0.43617385625839233,1.275314211845398,1.2072727680206299,0.9531333333333334,,
50,15,1490,-101.32525190811768,0.31564149260520935,2.124201774597168,2.20036244392395,0.9528166666666666,,
51,15,1500,-114.67606115299449,0.38780054450035095,2.2736945152282715,2.261505365371704,0.9525,,
52,16,1510,-8.76912555004246,0.21520760655403137,2.351710557937622,2.344759464263916,0.9521833333333334,,
53,16,1520,-22.657396462262128,0.18051517009735107,1.8034613132476807,1.800372838973999,0.9518666666666666,,
54,16,1530,-40.32964494279129,0.8024158477783203,2.227750062942505,2.039397954940796,0.95155,,
55,16,1540,-57.28961026112727,0.6014315485954285,1.7608141899108887,1.5588916540145874,0.9512333333333334,,
56,16,1550,-80.46367820719627,0.21609501540660858,1.887805700302124,1.8671131134033203,0.9509166666666666,,
57,16,1560,-103.32532229677228,0.2718590497970581,1.9657609462738037,1.9181851148605347,0.9506,,
58,16,1570,-127.94130408781639,0.3784920275211334,2.0827839374542236,2.1380693912506104,0.9502833333333334,,
59,16,1580,-152.3400906204309,0.164320170879364,1.7620880603790283,1.6154112815856934,0.9499666666666666,,
60,16,1590,-177.93382331781962,0.7656485438346863,2.0019149780273438,1.7994486093521118,0.94965,,
61,16,1600,-205.0733145391981,0.18627026677131653,2.6818387508392334,2.622823476791382,0.9493333333333334,,
62,17,1610,-5.148776410944884,0.15641513466835022,2.2756383419036865,2.211221694946289,0.9490166666666666,,
63,17,1620,-12.38971697947743,2.740612506866455,2.0125129222869873,1.9107935428619385,0.9487,,
64,17,1630,-23.886360728138467,0.21311579644680023,1.7995034456253052,1.814801573753357,0.9483833333333334,,
65,17,1640,-34.05247785610164,0.2109924852848053,1.6398597955703735,1.7791544198989868,0.9480666666666666,,
66,17,1650,-45.96436573198594,2.1279098987579346,2.0089354515075684,1.9958720207214355,0.94775,,
67,17,1660,-62.881677862938375,0.1722288429737091,1.6389766931533813,1.7320023775100708,0.9474333333333333,,
68,17,1670,-83.04681204654513,0.24789080023765564,2.0124528408050537,2.1335458755493164,0.9471166666666667,,
69,17,1680,-104.46212094381794,0.6708108186721802,2.0266900062561035,1.979394555091858,0.9468,,
70,17,1690,-129.29629655318914,0.1929921805858612,1.561667799949646,1.4404327869415283,0.9464833333333333,,
71,17,1700,-157.44315837567265,1.6316967010498047,2.4176478385925293,2.2626941204071045,0.9461666666666667,,
72,18,1710,-12.379412159755818,0.5261517763137817,2.135586738586426,2.0266165733337402,0.94585,,
73,18,1720,-22.6646923169845,0.3794856667518616,1.8458935022354126,1.686452865600586,0.9455333333333333,,
74,18,1730,-33.16745581653503,0.10860690474510193,1.9780173301696777,1.8991903066635132,0.9452166666666667,,
75,18,1740,-44.14727922166166,0.16415801644325256,1.8599636554718018,1.912731409072876,0.9449,,
76,18,1750,-56.50791467856563,1.1825206279754639,2.665229320526123,2.6011250019073486,0.9445833333333333,,
77,18,1760,-72.17284472140084,0.19707798957824707,1.7550852298736572,1.7226793766021729,0.9442666666666667,,
78,18,1770,-92.65156904285699,0.2802049517631531,1.8181294202804565,1.8406656980514526,0.94395,,
79,18,1780,-116.84621089524865,0.41414549946784973,2.0600829124450684,2.120424509048462,0.9436333333333333,,
80,18,1790,-138.21764461560917,0.2213575541973114,1.6820073127746582,1.6431547403335571,0.9433166666666667,,
81,18,1800,-157.85844314191732,0.40836623311042786,1.5124776363372803,1.408586025238037,0.9430000000000001,,
82,19,1810,-11.951282915885749,0.24984923005104065,1.8559801578521729,1.8101909160614014,0.9426833333333333,,
83,19,1820,-22.528051876152183,0.32570189237594604,1.629459023475647,1.6121433973312378,0.9423666666666667,,
84,19,1830,-33.441913882165856,0.13767915964126587,1.6373801231384277,1.6193410158157349,0.94205,,
85,19,1840,-47.376930315667984,0.3763747811317444,2.1050403118133545,1.9012649059295654,0.9417333333333333,,
86,19,1850,-61.58560172458623,0.1580190658569336,1.3814220428466797,1.2064740657806396,0.9414166666666667,,
87,19,1860,-77.15164462233878,0.11986790597438812,1.294550895690918,1.1115074157714844,0.9411,,
88,19,1870,-94.81487244619558,0.1122547835111618,1.7098495960235596,1.6269199848175049,0.9407833333333333,,
89,19,1880,-117.41721463385073,0.199813574552536,1.718750238418579,1.6472704410552979,0.9404666666666667,,
90,19,1890,-138.3504692583718,2.0044453144073486,1.1403839588165283,1.0992308855056763,0.94015,,
91,19,1900,-160.22278277642693,3.3778128623962402,1.9116994142532349,1.8304455280303955,0.9398333333333333,,
92,20,1910,-11.017059411989749,0.5702134370803833,1.2830543518066406,1.5406264066696167,0.9395166666666667,,
93,20,1920,-17.644000343780352,0.24331946671009064,1.1222835779190063,1.4072213172912598,0.9392,,
94,20,1930,-26.983736294667068,0.4455476999282837,1.5737780332565308,1.8889167308807373,0.9388833333333333,,
95,20,1940,-42.05243057331335,0.9497308731079102,1.5719680786132812,1.5831713676452637,0.9385666666666667,,
96,20,1950,-57.56419511842008,0.6384465098381042,1.7579883337020874,1.7379881143569946,0.93825,,
97,20,1960,-70.50284218136633,0.3588663637638092,1.6723830699920654,1.51070237159729,0.9379333333333333,,
98,20,1970,-81.59578259771234,0.32137560844421387,1.9102566242218018,1.689469575881958,0.9376166666666667,,
99,20,1980,-94.28341653741562,0.7280870676040649,1.3445991277694702,0.9783445596694946,0.9373,,
100,20,1990,-108.19703736160085,0.5375895500183105,1.654361367225647,1.342246174812317,0.9369833333333334,,
101,20,2000,-122.09826629623994,0.12500058114528656,1.4856905937194824,1.336567997932434,0.9366666666666666,,
102,21,2010,-8.522417920279963,0.11598360538482666,1.2549047470092773,1.2280863523483276,0.93635,,
103,21,2020,-18.50361267339525,0.155729740858078,1.1191881895065308,1.1837337017059326,0.9360333333333334,,
104,21,2030,-32.11697246540303,0.17356516420841217,1.1062326431274414,1.2553757429122925,0.9357166666666666,,
105,21,2040,-49.12821933501556,0.163130983710289,1.2559833526611328,1.3906022310256958,0.9354,,
106,21,2050,-65.51999784193143,0.16820716857910156,1.3260515928268433,1.3914941549301147,0.9350833333333334,,
107,21,2060,-80.48550841696358,0.18925607204437256,1.8938612937927246,1.9450275897979736,0.9347666666666666,,
108,21,2070,-95.62925130494571,0.11079631000757217,0.8896066546440125,0.8015410900115967,0.93445,,
109,21,2080,-113.88775765368595,0.14219270646572113,1.4397270679473877,1.2745076417922974,0.9341333333333334,,
110,21,2090,-139.3523104706482,0.14379176497459412,1.6661276817321777,1.5189532041549683,0.9338166666666666,,
111,21,2100,-167.41743783829924,0.3436797559261322,1.3582713603973389,1.119386911392212,0.9335,,
112,22,2110,-5.523224113786342,0.11895956099033356,1.4060065746307373,1.2919918298721313,0.9331833333333334,,
113,22,2120,-12.4721678427963,0.9931547045707703,1.1925790309906006,0.9983395338058472,0.9328666666666666,,
114,22,2130,-21.47699529734986,0.10990981012582779,1.46291983127594,1.5536339282989502,0.93255,,
115,22,2140,-35.46542886553904,0.6924808621406555,1.5831960439682007,1.597147822380066,0.9322333333333334,,
116,22,2150,-53.88858985513017,0.4584907591342926,0.938664436340332,0.9957550764083862,0.9319166666666667,,
117,22,2160,-73.98299082440512,0.4657212197780609,1.5241098403930664,1.6916197538375854,0.9316,,
118,22,2170,-93.83413864676533,0.35031259059906006,1.439794659614563,1.579707384109497,0.9312833333333334,,
119,22,2180,-112.90396242550024,0.19789603352546692,1.0765522718429565,1.239524245262146,0.9309666666666667,,
120,22,2190,-133.84645876841037,0.11390672624111176,1.2648415565490723,1.304355502128601,0.93065,,
121,22,2200,-151.55849236247087,0.12731826305389404,1.2805840969085693,1.171868085861206,0.9303333333333333,,
122,23,2210,-11.085852729048499,1.1094504594802856,1.6696661710739136,1.3663238286972046,0.9300166666666667,,
123,23,2220,-28.141977100230815,0.21782225370407104,1.4280786514282227,1.167406439781189,0.9297,,
124,23,2230,-41.57358281870313,0.6798125505447388,1.2549535036087036,0.9963845014572144,0.9293833333333333,,
125,23,2240,-52.76196673686666,0.4493468701839447,1.244701623916626,1.0966858863830566,0.9290666666666667,,
126,23,2250,-66.56139111495467,0.16421303153038025,0.7349917888641357,0.7523190975189209,0.92875,,
127,23,2260,-80.87297124272652,0.33601826429367065,0.8960622549057007,0.9836782217025757,0.9284333333333333,,
128,23,2270,-107.19435921858427,0.26780030131340027,1.062088131904602,1.1656047105789185,0.9281166666666667,,
129,23,2280,-141.10138699543563,0.17195233702659607,0.6313141584396362,0.7427064776420593,0.9278,,
130,23,2290,-171.96324145199088,0.11190269142389297,0.6530157923698425,0.7029892802238464,0.9274833333333333,,
131,23,2300,-199.89888721645977,0.0851949155330658,1.4722391366958618,1.4504156112670898,0.9271666666666667,,
132,24,2310,-18.101338156145868,2.041893720626831,1.3057475090026855,1.0159063339233398,0.92685,,
133,24,2320,-36.62077524632344,0.4545491635799408,1.2067393064498901,1.0083954334259033,0.9265333333333333,,
134,24,2330,-53.76700180660136,0.17104223370552063,0.8302839994430542,0.6915289759635925,0.9262166666666667,,
135,24,2340,-70.2119296078043,0.25775042176246643,1.202006459236145,1.0555384159088135,0.9259,,
136,24,2350,-87.54343228353738,0.14150318503379822,0.8947080969810486,0.8046633005142212,0.9255833333333333,,
137,24,2360,-106.66578428819538,2.162844657897949,0.8053640127182007,0.5627173185348511,0.9252666666666667,,
138,24,2370,-129.41666363626348,0.5507360696792603,0.9331520795822144,1.0538413524627686,0.92495,,
139,24,2380,-155.1360508507522,0.4057503342628479,0.6225400567054749,0.7390378713607788,0.9246333333333333,,
140,24,2390,-178.8448151175091,0.572370171546936,1.0978268384933472,1.111480951309204,0.9243166666666667,,
141,24,2400,-201.36886545384402,0.26303383708000183,0.5167597532272339,0.4994755983352661,0.924,,
142,25,2410,-5.266470490652289,1.251969814300537,0.7816059589385986,0.6631293296813965,0.9236833333333333,,
143,25,2420,-9.98277815734311,0.7224733829498291,0.5851361751556396,0.5128339529037476,0.9233666666666667,,
144,25,2430,-18.970695384868993,1.832491159439087,1.1250786781311035,1.0009891986846924,0.92305,,
145,25,2440,-23.818646504679794,0.13873624801635742,0.36383479833602905,0.42336001992225647,0.9227333333333334,,
146,25,2450,-27.363340518537875,0.4974157214164734,0.31127065420150757,0.45247191190719604,0.9224166666666667,,
147,25,2460,-32.477228937045915,0.7316826581954956,1.2689847946166992,1.4875261783599854,0.9221,,
148,25,2470,-41.89947153024002,0.24359187483787537,0.8958022594451904,1.0306295156478882,0.9217833333333334,,
149,25,2480,-54.02274687006387,0.3562934100627899,0.6790366768836975,0.7615793943405151,0.9214666666666667,,
150,25,2490,-70.06544591732595,0.1564778834581375,0.7031348943710327,0.6114431023597717,0.92115,,
151,25,2500,-92.81777903357373,0.37764987349510193,1.171954870223999,0.9466832876205444,0.9208333333333334,,
152,26,2510,-10.435640864117017,0.4551768898963928,0.9740933775901794,0.8076695203781128,0.9205166666666666,,
153,26,2520,-20.032140714978013,0.28902608156204224,1.480576992034912,1.250476598739624,0.9202,,
154,26,2530,-27.79586334537186,1.4116066694259644,1.1405986547470093,0.8810108304023743,0.9198833333333334,,
155,26,2540,-34.00230092439546,0.26873356103897095,0.8453071117401123,0.8665640354156494,0.9195666666666666,,
156,26,2550,-44.22679545691807,0.1662268042564392,0.6591575145721436,0.5942251682281494,0.91925,,
157,26,2560,-54.42657458792974,1.5335524082183838,0.8145869374275208,0.7447106242179871,0.9189333333333334,,
158,26,2570,-67.24773646652112,0.1780879646539688,0.9757081270217896,1.082140564918518,0.9186166666666666,,
159,26,2580,-81.76853048213167,1.089022159576416,0.5597915649414062,0.5018647909164429,0.9183,,
160,26,2590,-102.33150438939579,0.31032833456993103,1.2531970739364624,1.380312204360962,0.9179833333333334,,
161,26,2600,-129.43152656468047,0.3516763746738434,0.8423126935958862,0.9001659154891968,0.9176666666666666,,
162,27,2610,-11.765768365646219,0.33857718110084534,0.9803422093391418,0.9967743158340454,0.91735,,
163,27,2620,-24.099620269960326,0.35203438997268677,1.2356538772583008,1.157304048538208,0.9170333333333334,,
164,27,2630,-38.59861061756489,0.1882808804512024,0.8443150520324707,0.7602981328964233,0.9167166666666666,,
165,27,2640,-56.37652390190389,0.21483542025089264,0.7973754405975342,0.739992618560791,0.9164,,
166,27,2650,-79.41418904172775,0.2451198697090149,1.036643624305725,0.9051488041877747,0.9160833333333334,,
167,27,2660,-107.63680244904938,0.2832431495189667,1.0842270851135254,0.85697340965271,0.9157666666666666,,
168,27,2670,-133.23749345259438,0.3006044328212738,1.1910762786865234,1.109768271446228,0.91545,,
169,27,2680,-154.99505720373222,0.2339046746492386,0.3218308985233307,0.3323558270931244,0.9151333333333334,,
170,27,2690,-169.52588985497223,0.7392679452896118,0.6739595532417297,0.5794236660003662,0.9148166666666666,,
171,27,2700,-182.79503083476158,0.2741672396659851,0.2385116070508957,0.2193145453929901,0.9145,,
172,28,2710,-8.15584334162215,0.19224666059017181,0.5733271241188049,0.53614741563797,0.9141833333333333,,
173,28,2720,-17.60743576294,0.22912104427814484,0.8271490335464478,0.7935975193977356,0.9138666666666666,,
174,28,2730,-24.551190534847404,0.4418306052684784,0.7280426025390625,0.642731785774231,0.91355,,
175,28,2740,-31.62607224445261,0.20203882455825806,0.7881530523300171,0.7532265782356262,0.9132333333333333,,
176,28,2750,-40.20141741795986,1.1544268131256104,0.5766027569770813,0.4412221312522888,0.9129166666666667,,
177,28,2760,-51.05102149030522,0.18204398453235626,0.4524390399456024,0.4417625367641449,0.9126,,
178,28,2770,-63.20366392347164,0.19916778802871704,0.7018434405326843,0.753993034362793,0.9122833333333333,,
179,28,2780,-74.88449184810571,0.3614848256111145,0.44775494933128357,0.3167905807495117,0.9119666666666667,,
180,28,2790,-88.4170794774039,0.34483417868614197,0.7973201870918274,0.6836917996406555,0.91165,,
181,28,2800,-107.1377901640901,0.1823907196521759,0.6524640917778015,0.6112589836120605,0.9113333333333333,,
182,29,2810,-8.079503328132112,0.17248423397541046,0.5952523946762085,0.6572244167327881,0.9110166666666667,,
183,29,2820,-15.85913709048372,0.9396212697029114,0.21037867665290833,0.18251366913318634,0.9107000000000001,,
184,29,2830,-23.420293548820453,0.157548189163208,1.0362842082977295,1.0833107233047485,0.9103833333333333,,
185,29,2840,-30.16127652210661,0.3129763603210449,0.635610044002533,0.6476803421974182,0.9100666666666667,,
186,29,2850,-39.95847600122798,0.2028816044330597,0.4683564007282257,0.4578617811203003,0.9097500000000001,,
187,29,2860,-56.168552711286836,0.2629415690898895,0.7759238481521606,0.7168431878089905,0.9094333333333333,,
188,29,2870,-78.92237954135815,0.24631914496421814,0.6326138377189636,0.6738928556442261,0.9091166666666667,,
189,29,2880,-98.7070997464145,0.7959940433502197,0.8407654762268066,0.6019871830940247,0.9088,,
190,29,2890,-114.79860056629414,0.1953689306974411,0.8080872297286987,0.7189039587974548,0.9084833333333333,,
191,29,2900,-133.32961932174555,0.7610200047492981,1.3768740892410278,1.237921953201294,0.9081666666666667,,
192,30,2910,-12.805546639584565,0.2522326409816742,1.1298450231552124,1.0558336973190308,0.90785,,
193,30,2920,-23.75554763915832,0.23774023354053497,0.235279843211174,0.27064698934555054,0.9075333333333333,,
194,30,2930,-35.77011782824115,0.2080206573009491,0.4233723282814026,0.4202577769756317,0.9072166666666667,,
195,30,2940,-49.69896188428695,0.3024839460849762,0.7060998678207397,0.6559123992919922,0.9069,,
196,30,2950,-64.85453649342321,0.1554662436246872,0.36269649863243103,0.3404199182987213,0.9065833333333333,,
197,30,2960,-80.16391514428561,1.5316171646118164,1.0712525844573975,0.9396506547927856,0.9062666666666667,,
198,30,2970,-95.543899259885,0.7837473154067993,0.708591639995575,0.6419497728347778,0.90595,,
199,30,2980,-111.75087314823956,0.2549267113208771,0.40955111384391785,0.5531935691833496,0.9056333333333333,,
200,30,2990,-128.52044718257957,0.25160127878189087,0.5132063031196594,0.6429304480552673,0.9053166666666667,,
201,30,3000,-145.7927829868848,0.43158823251724243,0.6522294282913208,0.7517895698547363,0.905,,
202,31,3010,-10.325518610363128,0.37468403577804565,0.8535221815109253,0.749129056930542,0.9046833333333333,,
203,31,3020,-20.287925633488378,0.19568203389644623,0.6946825981140137,0.598275363445282,0.9043666666666667,,
204,31,3030,-32.82335666142204,1.9655020236968994,1.3631718158721924,0.997636079788208,0.90405,,
205,31,3040,-51.94323440702996,0.35856160521507263,0.7925654649734497,0.6344789266586304,0.9037333333333334,,
206,31,3050,-74.69754910984008,0.2189577966928482,1.1036163568496704,1.1195769309997559,0.9034166666666666,,
207,31,3060,-96.05656165498849,0.15941667556762695,0.17172172665596008,0.11191004514694214,0.9031,,
208,31,3070,-116.935960883883,0.15883736312389374,0.7455815076828003,0.7740811705589294,0.9027833333333334,,
209,31,3080,-138.33955800176855,0.27742859721183777,0.909989058971405,0.9956064224243164,0.9024666666666666,,
210,31,3090,-169.10851266679597,0.16556710004806519,0.09763544797897339,0.06102507561445236,0.90215,,
211,31,3100,-202.48663217870953,0.6068737506866455,0.23482269048690796,0.04611293599009514,0.9018333333333334,,
212,32,3110,-10.470755527579517,0.13707612454891205,0.2127160131931305,0.19980445504188538,0.9015166666666666,,
213,32,3120,-20.64439161455189,0.18725240230560303,0.4765743911266327,0.426034152507782,0.9012,,
214,32,3130,-30.387404718339194,0.2483263611793518,0.333379328250885,0.29367268085479736,0.9008833333333334,,
215,32,3140,-39.58942083063377,0.1510922908782959,-0.06703925877809525,-0.06270710378885269,0.9005666666666666,,
216,32,3150,-49.575161323042465,0.4893321990966797,0.5224168300628662,0.41601598262786865,0.90025,,
217,32,3160,-60.56371939719498,0.21042680740356445,0.22815574705600739,0.30077022314071655,0.8999333333333334,,
218,32,3170,-70.21195515738108,0.4342292249202728,0.9862464070320129,0.9076653122901917,0.8996166666666666,,
219,32,3180,-78.95605563748514,0.36273089051246643,0.09962323307991028,0.057157643139362335,0.8993,,
220,32,3190,-90.14366947701265,1.2252954244613647,0.47614896297454834,0.41398441791534424,0.8989833333333334,,
221,32,3200,-105.47313662929334,0.21408285200595856,0.49943599104881287,0.47258448600769043,0.8986666666666667,,
222,33,3210,-12.578435525157028,0.23597528040409088,0.38438281416893005,0.32063353061676025,0.89835,,
223,33,3220,-27.464342827909768,0.1664225161075592,0.07503905892372131,0.06075587123632431,0.8980333333333334,,
224,33,3230,-35.55053554497029,1.0378859043121338,0.29542896151542664,0.24168434739112854,0.8977166666666667,,
225,33,3240,-44.09397264209934,0.30286669731140137,0.4728326201438904,0.6178726553916931,0.8974,,
226,33,3250,-58.29922905098557,1.0070266723632812,-0.029533488675951958,-0.08477219939231873,0.8970833333333333,,
227,33,3260,-74.49372138963031,0.2193593829870224,0.17280718684196472,0.1878807246685028,0.8967666666666667,,
228,33,3270,-86.10776591156184,0.1940651834011078,0.2730638086795807,0.31458598375320435,0.89645,,
229,33,3280,-99.41270324317945,0.31556689739227295,0.47752994298934937,0.3135749101638794,0.8961333333333333,,
230,33,3290,-112.71662630706169,0.24118158221244812,0.56450355052948,0.4677371084690094,0.8958166666666667,,
231,33,3300,-127.27461356701028,0.22078099846839905,0.6159713268280029,0.45231544971466064,0.8955,,
232,34,3310,-10.749774905100812,0.21304982900619507,0.6710377931594849,0.5598925948143005,0.8951833333333333,,
233,34,3320,-21.28030643671358,0.2796435058116913,0.24227359890937805,0.1766069531440735,0.8948666666666667,,
234,34,3330,-32.22397455344031,0.7334547638893127,-0.20045959949493408,-0.3024207353591919,0.89455,,
235,34,3340,-44.13631580790365,0.16127589344978333,0.07557575404644012,0.07278198003768921,0.8942333333333333,,
236,34,3350,-58.370238186022775,0.18196295201778412,0.18679076433181763,0.3066246509552002,0.8939166666666667,,
237,34,3360,-72.46187383835347,0.14645813405513763,0.29735419154167175,0.36192893981933594,0.8936,,
238,34,3370,-87.09236289368246,0.1501864194869995,0.2856944799423218,0.3290397524833679,0.8932833333333333,,
239,34,3380,-102.00175795301284,0.1311410516500473,0.18762445449829102,0.15945951640605927,0.8929666666666667,,
240,34,3390,-118.96483748707236,0.16246338188648224,0.4244263172149658,0.26067832112312317,0.8926499999999999,,
241,34,3400,-132.08697898580732,0.1981203854084015,-0.16226190328598022,-0.32194238901138306,0.8923333333333333,,
242,35,3410,-9.614075232461962,0.16756749153137207,0.7647919654846191,0.6348408460617065,0.8920166666666667,,
243,35,3420,-18.74897301520159,0.1719144880771637,-0.11794376373291016,-0.28530359268188477,0.8917,,
244,35,3430,-28.026896782928368,0.17022888362407684,0.07030649483203888,0.04781405255198479,0.8913833333333333,,
245,35,3440,-38.352579030674235,0.18081709742546082,0.1971150040626526,0.17244961857795715,0.8910666666666667,,
246,35,3450,-49.132343670882975,0.15121963620185852,0.002730073407292366,0.11655270308256149,0.89075,,
247,35,3460,-57.58372793674026,0.3078790605068207,0.18760673701763153,0.2638252079486847,0.8904333333333333,,
248,35,3470,-63.18324581578128,1.08775794506073,0.16438469290733337,0.09005656838417053,0.8901166666666667,,
249,35,3480,-69.47733606468509,0.8883800506591797,-0.21455585956573486,-0.2757118046283722,0.8898,,
250,35,3490,-77.27055280819481,0.890807032585144,-0.2185993790626526,-0.250282347202301,0.8894833333333334,,
251,35,3500,-88.36305159942671,0.1871771365404129,0.3307225704193115,0.28958791494369507,0.8891666666666667,,
252,36,3510,-10.188842633901066,0.300069123506546,0.01472405344247818,0.08881254494190216,0.88885,,
253,36,3520,-21.780291031465712,0.2143416851758957,-0.170602947473526,-0.03182392567396164,0.8885333333333334,,
254,36,3530,-38.51698548388674,0.12738075852394104,-0.2805377244949341,-0.3290501832962036,0.8882166666666667,,
255,36,3540,-52.93376374251528,0.11355552077293396,-0.07855468988418579,-0.12333208322525024,0.8879,,
256,36,3550,-68.07977073567184,0.19383753836154938,-0.17289212346076965,-0.18634748458862305,0.8875833333333334,,
257,36,3560,-84.47629823085406,0.2859025299549103,-0.09119658172130585,-0.1604708433151245,0.8872666666666666,,
258,36,3570,-106.7985693095726,0.7833285927772522,0.6573166251182556,0.6398918032646179,0.88695,,
259,36,3580,-136.46824062503515,0.4788888692855835,0.5607986450195312,0.35040950775146484,0.8866333333333334,,
260,36,3590,-172.28252626442926,0.26636698842048645,0.6745338439941406,0.37854844331741333,0.8863166666666666,,
261,36,3600,-211.54078688721174,12.36056137084961,1.3056657314300537,0.6471372842788696,0.886,,
262,37,3610,-7.876275806316391,14.519129753112793,1.3467867374420166,0.5318557024002075,0.8856833333333334,,
263,37,3620,-17.742968647394772,0.7596917152404785,1.071905493736267,0.7270364761352539,0.8853666666666666,,
264,37,3630,-34.77033518202561,0.41761186718940735,1.2358620166778564,1.0310786962509155,0.88505,,
265,37,3640,-48.957336679892585,0.6502311825752258,0.2882345914840698,0.4554436206817627,0.8847333333333334,,
266,37,3650,-59.609899891027304,0.429179310798645,0.20186328887939453,0.2859628200531006,0.8844166666666666,,
267,37,3660,-71.07211870862102,0.39146971702575684,0.5337595343589783,0.7418016195297241,0.8841,,
268,37,3670,-85.46004205037909,0.21954721212387085,0.29166728258132935,0.35199445486068726,0.8837833333333334,,
269,37,3680,-100.82368575553633,0.8012315034866333,0.8410719037055969,0.8809747099876404,0.8834666666666666,,
270,37,3690,-116.05516916467184,0.2729673385620117,0.48288601636886597,0.3843473494052887,0.88315,,
271,37,3700,-136.44209637431538,10.589345932006836,1.2647888660430908,0.7300214767456055,0.8828333333333334,,
272,38,3710,-7.829007998466284,0.8382448554039001,0.6935423016548157,0.4779279828071594,0.8825166666666666,,
273,38,3720,-18.299054927345804,0.15894350409507751,-0.2692258358001709,-0.37219467759132385,0.8822,,
274,38,3730,-30.46399212237735,0.485328733921051,0.432531476020813,0.31930503249168396,0.8818833333333334,,
275,38,3740,-44.35692607533336,0.24719087779521942,0.2894662916660309,0.2695212662220001,0.8815666666666667,,
276,38,3750,-58.702774721637766,0.6608901023864746,0.5902198553085327,0.7201833724975586,0.88125,,
277,38,3760,-71.48686002334877,0.5202382206916809,0.6968851685523987,0.790544331073761,0.8809333333333333,,
278,38,3770,-84.86949734441866,1.3971420526504517,0.03832562267780304,-0.10721459984779358,0.8806166666666666,,
279,38,3780,-98.70987156718172,0.44313889741897583,0.2982781231403351,0.22387376427650452,0.8803,,
280,38,3790,-112.39610487229396,0.37862545251846313,0.1722194403409958,0.05361136794090271,0.8799833333333333,,
281,38,3800,-129.11474369480152,0.25867339968681335,0.5192097425460815,0.3230721950531006,0.8796666666666667,,
282,39,3810,-13.72124242905302,6.625098705291748,0.0845588743686676,-0.14261043071746826,0.87935,,
283,39,3820,-23.702344342794095,0.477099746465683,-0.281538724899292,-0.2572942078113556,0.8790333333333333,,
284,39,3830,-33.52698617855747,0.45527106523513794,-0.899419903755188,-0.8337326049804688,0.8787166666666667,,
285,39,3840,-42.326256673885496,0.22864054143428802,-0.17887642979621887,-0.08985009789466858,0.8784,,
286,39,3850,-52.24600387915422,0.23912310600280762,-0.0475972443819046,0.08173933625221252,0.8780833333333333,,
287,39,3860,-66.35926994481025,0.33604297041893005,0.0709352195262909,0.013317987322807312,0.8777666666666667,,
288,39,3870,-81.91198387296353,0.9464386701583862,-0.422965407371521,-0.5691055059432983,0.8774500000000001,,
289,39,3880,-99.3256810735018,1.2337502241134644,0.024173229932785034,-0.20650100708007812,0.8771333333333333,,
290,39,3890,-114.57832266271326,0.36304929852485657,0.6279450058937073,0.5317468643188477,0.8768166666666667,,
291,39,3900,-128.10959085094348,6.208994388580322,0.6341692209243774,0.2833247780799866,0.8765000000000001,,
292,40,3910,-9.56779437231299,0.706119954586029,0.3885069787502289,0.10967431962490082,0.8761833333333333,,
293,40,3920,-17.770121165794603,0.4003084599971771,0.11622288078069687,0.1204850822687149,0.8758666666666667,,
294,40,3930,-28.012454499688875,0.315873384475708,0.3689637780189514,0.26574522256851196,0.87555,,
295,40,3940,-36.62925687900083,0.13013744354248047,0.008103538304567337,0.013458404690027237,0.8752333333333333,,
296,40,3950,-46.58864980514431,0.24099768698215485,-0.5500072836875916,-0.540643036365509,0.8749166666666667,,
297,40,3960,-54.36676438992467,0.2617209851741791,-0.3208940625190735,-0.3313134014606476,0.8746,,
298,40,3970,-63.35816477965311,1.304638147354126,0.10288278758525848,0.07600809633731842,0.8742833333333333,,
299,40,3980,-75.7093937632985,0.15992483496665955,-0.18398335576057434,-0.19833306968212128,0.8739666666666667,,
300,40,3990,-94.56183199213993,0.3143066465854645,-0.5372251272201538,-0.4817180037498474,0.87365,,
301,40,4000,-121.17352983980633,0.27196040749549866,-0.0969771295785904,-0.13786505162715912,0.8733333333333333,,
302,41,4010,-9.053896135752426,0.18433521687984467,0.6105233430862427,0.6132595539093018,0.8730166666666667,,
303,41,4020,-19.324772790931544,0.2237539291381836,-0.11514423787593842,-0.15550406277179718,0.8727,,
304,41,4030,-29.159177881440066,0.19603443145751953,0.14334851503372192,0.09623535722494125,0.8723833333333333,,
305,41,4040,-40.30769289827519,0.42495134472846985,0.5705685615539551,0.6641930341720581,0.8720666666666667,,
306,41,4050,-54.72567197486954,1.053006887435913,-0.483955979347229,-0.6393047571182251,0.87175,,
307,41,4060,-71.91041917914262,0.2935256063938141,0.09306898713111877,0.05658850818872452,0.8714333333333333,,
308,41,4070,-91.17768232419583,0.19909994304180145,-0.5932621359825134,-0.7291589379310608,0.8711166666666667,,
309,41,4080,-107.47518757505829,0.1737419068813324,0.2516988515853882,0.153810054063797,0.8708,,
310,41,4090,-119.37743309283906,0.1583685427904129,0.20798400044441223,0.2207004725933075,0.8704833333333333,,
311,41,4100,-135.24531255751975,0.1506192833185196,-0.31133756041526794,-0.3755658268928528,0.8701666666666666,,
312,42,4110,-13.514268052076908,0.18034915626049042,0.033286720514297485,-0.018136978149414062,0.86985,,
313,42,4120,-24.138278513268865,0.23601457476615906,0.5165387392044067,0.416428804397583,0.8695333333333333,,
314,42,4130,-36.342904919828435,0.21813145279884338,-0.5868737697601318,-0.4841148257255554,0.8692166666666667,,
315,42,4140,-56.47478339004304,1.5829191207885742,0.774633526802063,0.7110416889190674,0.8689,,
316,42,4150,-77.22230935267652,0.2395371049642563,-0.21358078718185425,-0.11622834205627441,0.8685833333333334,,
317,42,4160,-102.62334171112501,0.1358584463596344,-0.7891456484794617,-0.6868542432785034,0.8682666666666667,,
318,42,4170,-126.58370955223803,1.3663017749786377,-0.5013515949249268,-0.45680612325668335,0.86795,,
319,42,4180,-148.99602052088682,0.1222044974565506,0.2625831365585327,0.20880931615829468,0.8676333333333334,,
320,42,4190,-173.70185006313562,0.1878015547990799,0.7500382661819458,0.7097157835960388,0.8673166666666667,,
321,42,4200,-197.8455189899348,0.156951442360878,0.8631203174591064,0.7847813367843628,0.867,,
322,43,4210,-15.73104287366824,1.7311773300170898,-0.05879208445549011,-0.4072631597518921,0.8666833333333334,,
323,43,4220,-32.6023178281527,0.34924471378326416,0.5025762915611267,0.2997691035270691,0.8663666666666667,,
324,43,4230,-48.424647970866225,0.14849478006362915,-0.15463311970233917,-0.31937313079833984,0.86605,,
325,43,4240,-64.6769854023944,0.13979575037956238,-0.4828878343105316,-0.5535058975219727,0.8657333333333334,,
326,43,4250,-81.84235800460554,0.23961712419986725,-0.551193356513977,-0.6049001216888428,0.8654166666666667,,
327,43,4260,-98.76695373943836,0.1334046870470047,0.4585360884666443,0.45317959785461426,0.8651,,
328,43,4270,-118.97830541394545,0.8361378312110901,0.6348752379417419,0.6358829140663147,0.8647833333333333,,
329,43,4280,-139.0844260502382,0.19269655644893646,0.29153552651405334,0.33357322216033936,0.8644666666666667,,
330,43,4290,-154.224399414462,0.20834587514400482,-0.7441123127937317,-0.7229687571525574,0.86415,,
331,43,4300,-166.76335921985404,0.15621426701545715,0.06554102897644043,-0.05662916600704193,0.8638333333333333,,
332,44,4310,-5.731471253255288,0.23205499351024628,-0.5452644228935242,-0.681405782699585,0.8635166666666667,,
333,44,4320,-12.52030397288114,0.29490286111831665,-0.043744683265686035,-0.15509790182113647,0.8632,,
334,44,4330,-18.241183561666467,0.4574861526489258,0.05750511586666107,-0.08746090531349182,0.8628833333333333,,
335,44,4340,-27.136565322889673,0.20664101839065552,-0.13082656264305115,-0.24483054876327515,0.8625666666666667,,
336,44,4350,-41.55978924749793,1.4189996719360352,0.30902644991874695,0.17443667352199554,0.86225,,
337,44,4360,-60.10749656015017,0.17319130897521973,0.028231129050254822,0.07729822397232056,0.8619333333333333,,
338,44,4370,-83.34241354927805,0.21984855830669403,-0.1395256668329239,-0.07782432436943054,0.8616166666666667,,
339,44,4380,-106.97634964113658,0.31748783588409424,-0.7941504716873169,-0.6817960143089294,0.8613,,
340,44,4390,-126.30067654631863,1.1020920276641846,0.42585307359695435,0.5191810131072998,0.8609833333333333,,
341,44,4400,-145.0941772324381,0.21613427996635437,-0.16718672215938568,-0.26473569869995117,0.8606666666666667,,
342,45,4410,-14.474784605579849,0.2964558005332947,-0.831960141658783,-0.8987785577774048,0.86035,,
343,45,4420,-32.05925257208689,0.17565470933914185,0.0667043924331665,0.07491821050643921,0.8600333333333333,,
344,45,4430,-53.30350256942795,0.1452733278274536,0.28563880920410156,0.36263507604599,0.8597166666666667,,
345,45,4440,-76.47793126971725,0.24646171927452087,0.32403913140296936,0.4693313241004944,0.8594,,
346,45,4450,-106.4509894690589,0.09001550078392029,-0.27886226773262024,-0.2827097773551941,0.8590833333333333,,
347,45,4460,-136.08789704624544,6.943439960479736,0.16743649542331696,-0.07877889275550842,0.8587666666666667,,
348,45,4470,-162.70682564943263,0.2070874720811844,-0.2659490704536438,-0.2445216178894043,0.85845,,
349,45,4480,-192.83548987581534,0.4115004539489746,0.18401791155338287,-0.0033225268125534058,0.8581333333333333,,
350,45,4490,-223.9448661040796,0.47481483221054077,0.1015940010547638,-0.07218948006629944,0.8578166666666667,,
351,45,4500,-266.28827879319334,0.5175769329071045,0.6407490372657776,0.46094509959220886,0.8575,,
352,46,4510,-10.543306495713088,0.4789661765098572,0.4889168441295624,0.31804314255714417,0.8571833333333333,,
353,46,4520,-24.127819776990908,0.9979335069656372,0.03642430901527405,0.0448455810546875,0.8568666666666667,,
354,46,4530,-36.73154458092444,0.34676000475883484,-0.2983090877532959,-0.2806154489517212,0.85655,,
355,46,4540,-50.968568565055854,0.4110589027404785,0.16845408082008362,0.2583928108215332,0.8562333333333334,,
356,46,4550,-68.92643120893965,0.18880954384803772,-0.33035463094711304,-0.3793681561946869,0.8559166666666667,,
357,46,4560,-91.7100006486448,0.6131688952445984,0.07590097188949585,-0.03182455897331238,0.8556,,
358,46,4570,-117.39596802140522,0.8996626138687134,-0.5434741377830505,-0.7225257158279419,0.8552833333333334,,
359,46,4580,-146.61397007478726,0.2426518350839615,0.1435859054327011,0.19117864966392517,0.8549666666666667,,
360,46,4590,-177.70381893196222,0.85593581199646,-0.239663228392601,-0.37296774983406067,0.85465,,
361,46,4600,-208.280519844156,0.371978759765625,-0.2165152132511139,-0.18904495239257812,0.8543333333333334,,
362,47,4610,-13.080876597672834,1.350723385810852,0.46988898515701294,0.606395959854126,0.8540166666666666,,
363,47,4620,-27.68295137018771,0.25290578603744507,0.015252023935317993,0.11455094814300537,0.8537,,
364,47,4630,-41.529665407632265,0.9466418027877808,-0.16876736283302307,-0.022023625671863556,0.8533833333333334,,
365,47,4640,-56.042306766295674,0.32229527831077576,-0.750413715839386,-0.757096529006958,0.8530666666666666,,
366,47,4650,-67.70155889118257,0.4640405774116516,0.043251849710941315,0.1014508381485939,0.85275,,
367,47,4660,-81.0864884906928,0.3764370083808899,0.07683728635311127,0.08101588487625122,0.8524333333333334,,
368,47,4670,-98.46461135444216,0.5972317457199097,0.3826224207878113,0.08622123301029205,0.8521166666666666,,
369,47,4680,-112.69878337566793,0.4807805120944977,0.5986414551734924,0.34519973397254944,0.8518,,
370,47,4690,-121.89980857696686,0.4455054700374603,0.8779259920120239,0.556308388710022,0.8514833333333334,,
371,47,4700,-129.30214836479772,0.27729910612106323,-0.008380014449357986,-0.1553700864315033,0.8511666666666666,,
372,48,4710,-7.765946360102467,0.20518380403518677,-0.706165075302124,-0.7712300419807434,0.85085,,
373,48,4720,-18.402608912036648,0.5168923735618591,-0.29885855317115784,-0.16164591908454895,0.8505333333333334,,
374,48,4730,-30.996237325390258,0.42387905716896057,-0.4873844087123871,-0.3887786269187927,0.8502166666666666,,
375,48,4740,-41.74027304989299,0.1822904348373413,-0.422755628824234,-0.3997775912284851,0.8499,,
376,48,4750,-52.506180035925894,0.4713861346244812,0.2128969132900238,0.33400800824165344,0.8495833333333334,,
377,48,4760,-62.66885371493025,5.723231792449951,0.3771244287490845,0.012119412422180176,0.8492666666666666,,
378,48,4770,-72.75404346380338,0.23252074420452118,-0.19689813256263733,-0.3159213066101074,0.84895,,
379,48,4780,-82.72186574227243,0.2460045963525772,-0.6903541684150696,-0.7605239748954773,0.8486333333333334,,
380,48,4790,-96.86638975359661,0.7795019745826721,0.16015952825546265,-0.09283896535634995,0.8483166666666666,,
381,48,4800,-110.99111591697836,4.858290195465088,-0.4238335192203522,-0.6961168050765991,0.848,,
382,49,4810,-11.140809892891895,0.46904319524765015,0.13712622225284576,0.018666304647922516,0.8476833333333333,,
383,49,4820,-20.555158976402744,0.4971945583820343,-0.1582770198583603,-0.22942575812339783,0.8473666666666666,,
384,49,4830,-33.389546198802286,0.35387375950813293,-0.5289271473884583,-0.4762619733810425,0.84705,,
385,49,4840,-49.49526432474873,0.382445752620697,-0.8773573040962219,-0.8211649060249329,0.8467333333333333,,
386,49,4850,-61.541373852814615,0.4392574429512024,-0.6088711023330688,-0.4590105414390564,0.8464166666666667,,
387,49,4860,-74.66785288782138,0.38763096928596497,-0.23803825676441193,-0.25355809926986694,0.8461,,
388,49,4870,-91.91928499803262,0.4719727039337158,0.2915443778038025,0.1136975809931755,0.8457833333333333,,
389,49,4880,-109.36582855529463,0.44769740104675293,-0.3987973928451538,-0.48521190881729126,0.8454666666666667,,
390,49,4890,-124.3021358691866,0.33305367827415466,-0.10820786654949188,-0.23080331087112427,0.8451500000000001,,
391,49,4900,-137.4974454674595,0.2565765976905823,-0.47323286533355713,-0.5555110573768616,0.8448333333333333,,
392,50,4910,-14.326060689736511,0.24585896730422974,-0.6488367319107056,-0.6899658441543579,0.8445166666666667,,
393,50,4920,-29.089049853763576,0.27278006076812744,-0.4552449584007263,-0.4723965525627136,0.8442000000000001,,
394,50,4930,-47.216739134867716,0.36231234669685364,0.2270621955394745,0.22824329137802124,0.8438833333333333,,
395,50,4940,-65.4343785148908,1.3694937229156494,0.3034021854400635,0.18123579025268555,0.8435666666666667,,
396,50,4950,-85.106814513084,9.194757461547852,0.0952167958021164,-0.1387704610824585,0.84325,,
397,50,4960,-105.14384604121723,0.4102041721343994,-0.1887149214744568,-0.11580410599708557,0.8429333333333333,,
398,50,4970,-123.91640337486645,1.2204886674880981,-1.1299519538879395,-1.132431983947754,0.8426166666666667,,
399,50,4980,-142.26306570809743,0.4706750810146332,-0.5709025263786316,-0.45034804940223694,0.8423,,
400,50,4990,-165.29877492241766,0.31845229864120483,-0.7977738976478577,-0.7808683514595032,0.8419833333333333,,
401,50,5000,-191.42191382601212,0.28681638836860657,-0.7136473059654236,-0.695055365562439,0.8416666666666667,-593.4778255461306,-593.4778255461306
402,51,5010,-6.384006341133852,0.27490395307540894,-0.22061844170093536,-0.45494315028190613,0.84135,,
403,51,5020,-14.60927015759048,4.133647918701172,0.03206530213356018,-0.3968072235584259,0.8410333333333333,,
404,51,5030,-26.525671420425166,0.49116262793540955,-0.7358258366584778,-0.9754751920700073,0.8407166666666667,,
405,51,5040,-39.39179962945086,0.40732836723327637,-0.021933645009994507,-0.2283674031496048,0.8404,,
406,51,5050,-51.80353640834937,0.49042728543281555,-0.33854955434799194,-0.4216805100440979,0.8400833333333333,,
407,51,5060,-64.3052245829711,0.6444586515426636,0.5144087076187134,0.6315478682518005,0.8397666666666667,,
408,51,5070,-78.39796432188815,0.4404006004333496,0.09356310963630676,0.2814674377441406,0.83945,,
409,51,5080,-94.6226212735924,0.31757989525794983,-0.41896307468414307,-0.3055410385131836,0.8391333333333333,,
410,51,5090,-110.56819246187457,0.2978653907775879,0.15105313062667847,0.2803674340248108,0.8388166666666667,,
411,51,5100,-126.77223082751237,0.24198287725448608,-1.3565667867660522,-1.4173723459243774,0.8385,,
412,52,5110,-14.638118592569835,0.16579370200634003,-1.581080436706543,-1.6512908935546875,0.8381833333333333,,
413,52,5120,-26.638571213140036,0.24811841547489166,-0.7072756290435791,-0.865175187587738,0.8378666666666666,,
414,52,5130,-38.80006489240112,0.41396763920783997,-0.06656070798635483,-0.29009249806404114,0.83755,,
415,52,5140,-48.31784639136785,0.3737020790576935,-0.043202973902225494,-0.202924907207489,0.8372333333333333,,
416,52,5150,-58.68085978963007,0.13556072115898132,-0.9809099435806274,-0.9109811186790466,0.8369166666666666,,
417,52,5160,-71.8770094398914,0.613071620464325,-1.0719707012176514,-1.0863162279129028,0.8366,,
418,52,5170,-86.06145595345872,0.23243767023086548,-0.5780693292617798,-0.5121114253997803,0.8362833333333333,,
419,52,5180,-98.45429324768973,1.0286011695861816,-0.08218526095151901,-0.18014588952064514,0.8359666666666667,,
420,52,5190,-115.0346145297262,0.2813361883163452,-0.43577107787132263,-0.47727078199386597,0.83565,,
421,52,5200,-134.41505632860216,0.23314081132411957,-0.7191145420074463,-0.7951597571372986,0.8353333333333334,,
422,53,5210,-17.361965549213707,0.45971858501434326,0.25107717514038086,0.13869425654411316,0.8350166666666667,,
423,53,5220,-29.755692007832348,0.20111288130283356,0.006192624568939209,-0.07592307031154633,0.8347,,
424,53,5230,-44.454781906639056,0.18369656801223755,-0.9553171396255493,-0.9416442513465881,0.8343833333333334,,
425,53,5240,-63.0697291590751,0.18826045095920563,-0.06542736291885376,-0.03212258219718933,0.8340666666666667,,
426,53,5250,-83.17761494364582,0.12917011976242065,-0.7735175490379333,-0.735641598701477,0.83375,,
427,53,5260,-104.94102352610979,0.2044210135936737,-0.5138190388679504,-0.43690943717956543,0.8334333333333334,,
428,53,5270,-131.70921278793227,0.11981203407049179,-0.6385762691497803,-0.6869767308235168,0.8331166666666667,,
429,53,5280,-164.78507605539377,0.19426009058952332,-0.716359555721283,-0.8526026606559753,0.8328,,
430,53,5290,-197.31035255572834,4.0735883712768555,-0.7307494878768921,-1.1549606323242188,0.8324833333333334,,
431,53,5300,-224.00625475115584,0.2996271848678589,0.4501224160194397,0.3222399652004242,0.8321666666666667,,
432,54,5310,-6.9994755785733584,0.3280663788318634,-0.23641063272953033,-0.32840731739997864,0.83185,,
433,54,5320,-16.639594382505795,0.39197683334350586,-0.7237731218338013,-0.7089919447898865,0.8315333333333333,,
434,54,5330,-26.7616996478961,0.16755002737045288,-0.8874428272247314,-0.9610128998756409,0.8312166666666667,,
435,54,5340,-38.650729453398846,1.685762643814087,-0.690418004989624,-0.8455489873886108,0.8309,,
436,54,5350,-54.67969095001458,0.3956805467605591,-0.9621326923370361,-0.9410412907600403,0.8305833333333333,,
437,54,5360,-70.98573805345261,0.21413274109363556,-0.34147322177886963,-0.32622620463371277,0.8302666666666667,,
438,54,5370,-93.5525329965082,0.20449663698673248,-0.6215943098068237,-0.6900469660758972,0.82995,,
439,54,5380,-120.80264635785021,0.1515520066022873,0.7118381261825562,0.6775770783424377,0.8296333333333333,,
440,54,5390,-154.17136749145985,0.23369258642196655,-0.3618122935295105,-0.3385550379753113,0.8293166666666667,,
441,54,5400,-191.64350582321447,2.988792657852173,-0.35714292526245117,-0.48520565032958984,0.829,,
442,55,5410,-9.178071892833191,0.8172047734260559,-1.2388604879379272,-1.2144484519958496,0.8286833333333333,,
443,55,5420,-25.447202225510214,0.17965751886367798,-1.3892405033111572,-1.286403775215149,0.8283666666666667,,
444,55,5430,-43.31187399924612,0.1962089091539383,-0.18692457675933838,-0.08319924771785736,0.82805,,
445,55,5440,-60.352799833589295,0.5724806785583496,-0.16868211328983307,-0.23793748021125793,0.8277333333333333,,
446,55,5450,-81.8072576865852,0.15109890699386597,-0.4813483953475952,-0.5864095091819763,0.8274166666666667,,
447,55,5460,-111.38888564609503,0.771003007888794,-0.5024757385253906,-0.7958514094352722,0.8271,,
448,55,5470,-144.91801345605597,0.1764092892408371,-0.4256020784378052,-0.6296340227127075,0.8267833333333333,,
449,55,5480,-180.75737142715792,0.23758506774902344,-0.504206657409668,-0.6488150954246521,0.8264666666666667,,
450,55,5490,-213.16479825745117,0.6987397074699402,-1.1977274417877197,-1.3246476650238037,0.82615,,
451,55,5500,-247.16459091028784,0.3265782594680786,-1.244950771331787,-1.1301169395446777,0.8258333333333334,,
452,56,5510,-11.209603877590867,0.48217761516571045,-0.9231299757957458,-0.6457526683807373,0.8255166666666667,,
453,56,5520,-25.152359428577874,0.3721059560775757,-0.8819868564605713,-0.6414444446563721,0.8252,,
454,56,5530,-38.50215715467881,0.5906631946563721,-0.9456103444099426,-0.7922039031982422,0.8248833333333334,,
455,56,5540,-53.047289280694066,0.23685920238494873,-0.41763222217559814,-0.25844132900238037,0.8245666666666667,,
456,56,5550,-70.23489031743854,0.24034889042377472,-0.5582135319709778,-0.6095024347305298,0.82425,,
457,56,5560,-89.4459521565802,0.3156467080116272,0.4002973735332489,0.25195610523223877,0.8239333333333334,,
458,56,5570,-110.97390913758184,4.983784198760986,-0.25552287697792053,-0.7748141288757324,0.8236166666666667,,
459,56,5580,-133.9216108086783,0.6151214241981506,-0.3019227981567383,-0.5542781352996826,0.8233,,
460,56,5590,-160.6876808710486,0.5419880151748657,-0.9786844253540039,-1.1056479215621948,0.8229833333333334,,
461,56,5600,-195.13839963066744,0.2312116026878357,-0.3801412582397461,-0.3585694134235382,0.8226666666666667,,
462,57,5610,-5.952913169020986,0.4385434687137604,-1.576974868774414,-1.7008861303329468,0.82235,,
463,57,5620,-11.134476330013323,0.22078652679920197,-0.06364867091178894,0.047706589102745056,0.8220333333333334,,
464,57,5630,-20.14033315459078,0.2735946774482727,-0.6621602177619934,-0.6148403286933899,0.8217166666666667,,
465,57,5640,-31.36772367581627,0.23580457270145416,-1.0391418933868408,-1.0644488334655762,0.8214,,
466,57,5650,-42.11062441741445,0.1575811803340912,-0.8940805196762085,-0.9395412802696228,0.8210833333333334,,
467,57,5660,-54.49005381418567,0.20798909664154053,-0.7260603308677673,-0.9133545160293579,0.8207666666666666,,
468,57,5670,-66.34075392270047,0.35161885619163513,-0.8781304955482483,-1.067854404449463,0.82045,,
469,57,5680,-76.85989293386422,0.32032763957977295,-0.6175842881202698,-0.6806577444076538,0.8201333333333334,,
470,57,5690,-92.3759605082654,0.5754140615463257,-0.033806562423706055,-0.055811941623687744,0.8198166666666666,,
471,57,5700,-111.35544773176355,0.2932482957839966,-0.8712939023971558,-0.7997455596923828,0.8195,,
472,58,5710,-12.682336836097997,0.33831825852394104,-1.457505702972412,-1.4283778667449951,0.8191833333333334,,
473,58,5720,-29.134955509284108,0.24075615406036377,-0.6819853782653809,-0.5849407911300659,0.8188666666666666,,
474,58,5730,-46.982580194792064,0.2520143985748291,-1.0765775442123413,-0.9802790880203247,0.81855,,
475,58,5740,-65.12699084270055,0.3117137849330902,-0.18618884682655334,-0.16023090481758118,0.8182333333333334,,
476,58,5750,-81.14442428352164,0.6959882974624634,0.016894936561584473,-0.1484479010105133,0.8179166666666666,,
477,58,5760,-94.15353048329023,0.3422190248966217,-0.3209218978881836,-0.587337851524353,0.8176,,
478,58,5770,-114.8604975390332,1.2470909357070923,0.34075263142585754,0.02333834022283554,0.8172833333333334,,
479,58,5780,-140.44228066770526,0.36811769008636475,-0.3210541605949402,-0.39369186758995056,0.8169666666666666,,
480,58,5790,-169.2200943616996,0.16562393307685852,-0.9064223766326904,-0.9412552714347839,0.81665,,
481,58,5800,-202.17758674173663,0.30711472034454346,-1.0095884799957275,-1.0129730701446533,0.8163333333333334,,
482,59,5810,-9.711074683508713,0.16977010667324066,-1.1104483604431152,-1.0988811254501343,0.8160166666666667,,
483,59,5820,-21.738465437945496,0.589704155921936,-0.7966743111610413,-0.8140339255332947,0.8157,,
484,59,5830,-40.62129409528216,0.280370831489563,-1.320954442024231,-1.3687806129455566,0.8153833333333333,,
485,59,5840,-61.12860621666198,0.2909112274646759,-1.9085737466812134,-1.9135217666625977,0.8150666666666667,,
486,59,5850,-76.47381525071684,0.34703028202056885,-1.162099003791809,-1.1474812030792236,0.81475,,
487,59,5860,-90.50747887878278,0.2738966941833496,-1.1308337450027466,-1.2235380411148071,0.8144333333333333,,
488,59,5870,-106.42928386535999,0.22340354323387146,-0.5708856582641602,-0.7267102003097534,0.8141166666666667,,
489,59,5880,-123.35157937921917,0.21001429855823517,-0.6514585614204407,-0.7906171679496765,0.8138,,
490,59,5890,-141.40810400460015,0.36923372745513916,-0.9804794788360596,-1.0235649347305298,0.8134833333333333,,
491,59,5900,-159.38504373397365,0.2678510546684265,-0.12119916081428528,-0.05953371524810791,0.8131666666666667,,
492,60,5910,-10.433318146773797,0.18785786628723145,-1.4307787418365479,-1.4603620767593384,0.81285,,
493,60,5920,-18.686420309413773,0.24602961540222168,-1.3362929821014404,-1.3551470041275024,0.8125333333333333,,
494,60,5930,-29.638787850239947,0.2971271276473999,-1.5975590944290161,-1.6198066473007202,0.8122166666666667,,
495,60,5940,-39.49860205646384,0.2894872725009918,-1.107279896736145,-1.141316533088684,0.8119000000000001,,
496,60,5950,-52.556548564422116,2.170280933380127,-0.5121389627456665,-0.7428033351898193,0.8115833333333333,,
497,60,5960,-66.12678665847488,0.2635667026042938,-0.6126790642738342,-0.6342491507530212,0.8112666666666667,,
498,60,5970,-85.8282452021995,0.1785256266593933,-0.09950393438339233,-0.19610366225242615,0.8109500000000001,,
499,60,5980,-110.18259708954021,0.31071221828460693,-0.6291002631187439,-0.6672900915145874,0.8106333333333333,,
500,60,5990,-136.5404238093182,0.1897466480731964,-1.0900665521621704,-1.0965967178344727,0.8103166666666667,,
501,60,6000,-166.58771323580513,0.30338895320892334,-1.5741615295410156,-1.6466078758239746,0.81,,
502,61,6010,-6.266434468291893,0.162568598985672,-1.5024958848953247,-1.4629778861999512,0.8096833333333333,,
503,61,6020,-15.952576463971317,0.15785014629364014,-1.0602582693099976,-1.0955153703689575,0.8093666666666667,,
504,61,6030,-21.983443357862225,1.6685599088668823,-1.135229229927063,-1.1987621784210205,0.80905,,
505,61,6040,-28.934700655954966,0.21595527231693268,-0.6056849956512451,-0.6564438343048096,0.8087333333333333,,
506,61,6050,-34.73628988014842,0.8364450931549072,-1.029384970664978,-0.9907189011573792,0.8084166666666667,,
507,61,6060,-42.92781546667181,0.6839151382446289,-0.6980665922164917,-0.5626678466796875,0.8081,,
508,61,6070,-54.927763908043616,0.3686876893043518,-1.6570414304733276,-1.5442297458648682,0.8077833333333333,,
509,61,6080,-66.47307152906981,4.809990406036377,-0.8835194706916809,-0.9064123034477234,0.8074666666666667,,
510,61,6090,-79.2703768713958,0.36897408962249756,-1.230309009552002,-1.1549763679504395,0.80715,,
511,61,6100,-94.64187868004853,0.5314077734947205,-1.1528921127319336,-1.068837285041809,0.8068333333333333,,
512,62,6110,-7.742664683594611,0.25144699215888977,-1.1430318355560303,-1.2316850423812866,0.8065166666666667,,
513,62,6120,-19.109427356967636,0.4452486038208008,-0.6587615013122559,-0.845514714717865,0.8062,,
514,62,6130,-32.59829468404084,0.27332499623298645,-1.197749137878418,-1.4089103937149048,0.8058833333333333,,
515,62,6140,-51.698000325574874,0.2320198118686676,-0.6935610771179199,-0.8263610601425171,0.8055666666666667,,
516,62,6150,-72.4885369948187,0.3346540331840515,-1.0787988901138306,-1.2789825201034546,0.80525,,
517,62,6160,-93.2687027708171,0.5401841998100281,-1.7748231887817383,-1.9336755275726318,0.8049333333333333,,
518,62,6170,-112.17260624327938,0.27510589361190796,-1.3510537147521973,-1.2149145603179932,0.8046166666666666,,
519,62,6180,-126.96337277208939,0.20077316462993622,-1.2527464628219604,-1.1441946029663086,0.8043,,
520,62,6190,-146.422622077195,0.9110627174377441,-0.6201181411743164,-0.39275044202804565,0.8039833333333333,,
521,62,6200,-167.35279013269007,0.6554873585700989,-0.6654355525970459,-0.5041290521621704,0.8036666666666666,,
522,63,6210,-9.215891489801415,0.33246302604675293,-1.3692905902862549,-1.365106225013733,0.80335,,
523,63,6220,-22.689627551474562,0.44988754391670227,-1.4845349788665771,-1.5996769666671753,0.8030333333333333,,
524,63,6230,-38.18554515886714,0.1391216665506363,-1.3970615863800049,-1.5262014865875244,0.8027166666666667,,
525,63,6240,-61.146277004348214,0.19592945277690887,-1.2609466314315796,-1.2926933765411377,0.8024,,
526,63,6250,-92.14302063214463,0.2739322781562805,-0.8798951506614685,-0.8390774726867676,0.8020833333333334,,
527,63,6260,-127.87644266543212,0.3050422668457031,-0.5322068929672241,-0.46778950095176697,0.8017666666666667,,
528,63,6270,-169.59820516567333,0.46093785762786865,-1.085798978805542,-1.1913204193115234,0.80145,,
529,63,6280,-220.9827614612689,1.5257699489593506,-0.8574061989784241,-1.07789945602417,0.8011333333333334,,
530,63,6290,-281.52909896357016,3.814828395843506,-0.5451560020446777,-0.7315933704376221,0.8008166666666667,,
531,63,6300,-349.4000354758728,0.31541600823402405,-1.4857953786849976,-1.423233151435852,0.8005,,
532,64,6310,-9.678496522461634,0.5324285626411438,-1.054038405418396,-0.9310992956161499,0.8001833333333334,,
533,64,6320,-22.57142070394987,0.362119197845459,-0.43439069390296936,-0.3931041359901428,0.7998666666666667,,
534,64,6330,-30.889648167582315,0.29176953434944153,-1.140600562095642,-1.1318786144256592,0.79955,,
535,64,6340,-34.53912133856451,0.25483691692352295,-1.8126732110977173,-1.919398546218872,0.7992333333333334,,
536,64,6350,-47.93948694504135,0.3736962676048279,-1.4910283088684082,-1.6477413177490234,0.7989166666666667,,
537,64,6360,-70.04484686204448,8.56704330444336,-0.512424886226654,-0.9572809934616089,0.7986,,
538,64,6370,-93.08800763212285,0.3181135654449463,-1.111613392829895,-1.1897435188293457,0.7982833333333333,,
539,64,6380,-116.34298528725039,0.4459701478481293,-1.0407904386520386,-1.1269652843475342,0.7979666666666667,,
540,64,6390,-136.60090244002924,0.29813680052757263,-0.17751672863960266,-0.11189645528793335,0.79765,,
541,64,6400,-158.6351836218523,0.23038546741008759,-0.44630753993988037,-0.4124896228313446,0.7973333333333333,,
542,65,6410,-5.801167886560721,0.31878069043159485,-0.20231959223747253,-0.26846426725387573,0.7970166666666667,,
543,65,6420,-15.915685838737494,0.3848212957382202,-1.1159090995788574,-1.3041406869888306,0.7967,,
544,65,6430,-28.149225906449516,0.3743952512741089,-0.5165470838546753,-0.5954798460006714,0.7963833333333333,,
545,65,6440,-44.08957250176075,1.1874644756317139,-1.457810401916504,-1.5770092010498047,0.7960666666666667,,
546,65,6450,-64.87410278101285,0.24893811345100403,-0.6422175765037537,-0.5427339673042297,0.79575,,
547,65,6460,-77.65627572265056,0.19654271006584167,-0.8292964696884155,-0.7555127143859863,0.7954333333333333,,
548,65,6470,-88.0880859522698,1.1170949935913086,-1.1844532489776611,-1.14973783493042,0.7951166666666667,,
549,65,6480,-99.03054329835989,0.3070688843727112,-1.5426865816116333,-1.4627208709716797,0.7948,,
550,65,6490,-111.13897059646575,0.46592092514038086,-0.5524027943611145,-0.6788649559020996,0.7944833333333333,,
551,65,6500,-124.89182627479914,0.28769662976264954,-0.9990015029907227,-1.1320011615753174,0.7941666666666667,,
552,66,6510,-12.193787922261933,0.32007262110710144,-1.3370260000228882,-1.402342438697815,0.79385,,
553,66,6520,-23.707027965258067,0.21589495241641998,-1.0009524822235107,-1.0339291095733643,0.7935333333333333,,
554,66,6530,-38.384650598792874,0.26230356097221375,-1.1269514560699463,-1.1598402261734009,0.7932166666666667,,
555,66,6540,-57.447229836106146,0.4186437726020813,-1.6954256296157837,-1.7982505559921265,0.7929,,
556,66,6550,-76.47021235405711,7.0397443771362305,-0.8381519913673401,-1.2071696519851685,0.7925833333333334,,
557,66,6560,-89.35416997832756,4.786342144012451,-0.8375846743583679,-1.1422069072723389,0.7922666666666667,,
558,66,6570,-103.90812295185574,6.396286487579346,-0.5310471653938293,-0.8210718631744385,0.79195,,
559,66,6580,-115.830030087299,0.31780368089675903,-1.630858063697815,-1.5897377729415894,0.7916333333333334,,
560,66,6590,-131.20051494633321,1.33799147605896,-1.4837344884872437,-1.4477455615997314,0.7913166666666667,,
561,66,6600,-152.06383785228027,0.3848513662815094,-1.1835505962371826,-1.2305372953414917,0.791,,
562,67,6610,-13.44294876968598,0.3024679124355316,-1.1697888374328613,-1.158755898475647,0.7906833333333334,,
563,67,6620,-27.533428195564497,4.254000663757324,-0.07495374977588654,-0.2580261528491974,0.7903666666666667,,
564,67,6630,-45.9148150991118,0.544853687286377,-1.8486788272857666,-1.9133950471878052,0.79005,,
565,67,6640,-61.6611706775847,0.615802526473999,-0.4641198515892029,-0.6251633167266846,0.7897333333333334,,
566,67,6650,-76.5909090038386,0.22653065621852875,-1.236567735671997,-1.303650975227356,0.7894166666666667,,
567,67,6660,-89.08634436485218,21.1279354095459,-0.8511491417884827,-1.191652536392212,0.7891,,
568,67,6670,-105.21330099035447,0.6446775794029236,-1.0887987613677979,-0.9370177388191223,0.7887833333333334,,
569,67,6680,-125.04122547207525,0.9780958890914917,-1.6713049411773682,-1.542609691619873,0.7884666666666666,,
570,67,6690,-149.3574643459301,0.5556334853172302,-2.0387160778045654,-2.082345724105835,0.78815,,
571,67,6700,-179.27247215408494,0.3979911506175995,-1.232060194015503,-1.3095852136611938,0.7878333333333334,,
572,68,6710,-6.374833671799763,0.39799749851226807,-1.4094693660736084,-1.4859579801559448,0.7875166666666666,,
573,68,6720,-14.367584976953456,0.399936318397522,-1.6056140661239624,-1.629122018814087,0.7872,,
574,68,6730,-24.42782184918109,0.18685218691825867,-0.723357617855072,-0.7850772142410278,0.7868833333333334,,
575,68,6740,-38.72468734296875,0.47106465697288513,-0.9608328938484192,-1.1018216609954834,0.7865666666666666,,
576,68,6750,-56.926872103729224,0.24940507113933563,-0.8768284916877747,-0.9841395020484924,0.78625,,
577,68,6760,-77.87797378584482,0.3193524181842804,-1.2899634838104248,-1.487869381904602,0.7859333333333334,,
578,68,6770,-100.45529685751153,3.6422204971313477,-1.4563655853271484,-1.7891409397125244,0.7856166666666666,,
579,68,6780,-129.98293226800186,0.43180161714553833,-0.9720564484596252,-0.8779125213623047,0.7853,,
580,68,6790,-169.12833209881717,0.22554749250411987,-1.5522775650024414,-1.579508900642395,0.7849833333333334,,
581,68,6800,-206.1983299502671,2.382678985595703,-1.2938544750213623,-1.3631892204284668,0.7846666666666666,,
582,69,6810,-14.78225845136576,0.31783977150917053,-1.0599734783172607,-0.9935821294784546,0.78435,,
583,69,6820,-28.44994835162967,0.48260653018951416,-0.7255403399467468,-0.5827980041503906,0.7840333333333334,,
584,69,6830,-45.738468451997086,0.3621562123298645,-1.1415338516235352,-1.121009349822998,0.7837166666666667,,
585,69,6840,-60.1586630083614,0.2529107630252838,-1.2437090873718262,-1.2820104360580444,0.7834,,
586,69,6850,-77.88070964890329,0.1726488322019577,-1.5198287963867188,-1.5778613090515137,0.7830833333333334,,
587,69,6860,-91.62445231693638,0.5246193408966064,-1.1464200019836426,-1.3152035474777222,0.7827666666666667,,
588,69,6870,-99.13044404000908,0.6791545748710632,-1.5282111167907715,-1.6865899562835693,0.78245,,
589,69,6880,-112.77449022409695,1.5817238092422485,-0.2771252989768982,-0.5831258893013,0.7821333333333333,,
590,69,6890,-137.30681572637926,0.27254462242126465,-2.6975910663604736,-2.774433135986328,0.7818166666666667,,
591,69,6900,-160.54047113695955,0.389692485332489,-0.7463366985321045,-0.7002432942390442,0.7815,,
592,70,6910,-13.38161219479235,1.9065049886703491,-1.4542440176010132,-1.4623832702636719,0.7811833333333333,,
593,70,6920,-30.604076078811573,0.7172471880912781,-1.5657074451446533,-1.3853563070297241,0.7808666666666667,,
594,70,6930,-43.14619421317384,2.0403575897216797,-0.9941052198410034,-0.5681712627410889,0.78055,,
595,70,6940,-52.50829337369844,0.4164193272590637,-1.6294854879379272,-1.535328984260559,0.7802333333333333,,
596,70,6950,-58.35809402910362,0.4896886944770813,-1.8191468715667725,-1.7965511083602905,0.7799166666666667,,
597,70,6960,-69.16428639120927,0.3300822377204895,-1.7209007740020752,-1.6880393028259277,0.7796,,
598,70,6970,-88.65062586452316,0.2226187288761139,-1.185726284980774,-1.2968385219573975,0.7792833333333333,,
599,70,6980,-117.47451606596795,1.1364307403564453,-0.2439325451850891,-0.36701294779777527,0.7789666666666667,,
600,70,6990,-158.63106481508063,0.7493883967399597,-1.351599931716919,-1.619110107421875,0.7786500000000001,,
601,70,7000,-208.43401153731725,0.3984472453594208,-1.4981105327606201,-1.6559345722198486,0.7783333333333333,,
602,71,7010,-14.10414126482938,0.21181532740592957,-1.0941295623779297,-1.0696066617965698,0.7780166666666667,,
603,71,7020,-30.982401914264123,0.19191770255565643,-1.9767204523086548,-1.9981067180633545,0.7777000000000001,,
604,71,7030,-53.80947429756689,4.189817905426025,-1.01468825340271,-1.1601332426071167,0.7773833333333333,,
605,71,7040,-79.28910771829933,0.3503291606903076,-2.113595485687256,-2.13037109375,0.7770666666666667,,
606,71,7050,-103.98633598161871,0.8684055805206299,-1.2609527111053467,-1.0619924068450928,0.77675,,
607,71,7060,-125.14346246284762,0.3855481743812561,-1.2489893436431885,-1.2686195373535156,0.7764333333333333,,
608,71,7070,-142.30676502601906,0.6900993585586548,-1.9306535720825195,-1.9582443237304688,0.7761166666666667,,
609,71,7080,-162.6641487166578,0.3170282244682312,-1.8568446636199951,-1.7993263006210327,0.7758,,
610,71,7090,-184.81871010783203,0.3468084931373596,-1.5187705755233765,-1.4485557079315186,0.7754833333333333,,
611,71,7100,-206.8740407825377,0.6388905644416809,-0.8472065925598145,-0.9052131175994873,0.7751666666666667,,
612,72,7110,-12.570178771713445,0.40330374240875244,-1.0613200664520264,-1.2511327266693115,0.77485,,
613,72,7120,-30.155687812990877,0.3172496557235718,-1.4378880262374878,-1.527932047843933,0.7745333333333333,,
614,72,7130,-50.832724514149454,1.6290476322174072,-1.4842585325241089,-1.6707466840744019,0.7742166666666667,,
615,72,7140,-79.77735360816732,0.4651412069797516,-0.9288809895515442,-0.8045598864555359,0.7739,,
616,72,7150,-117.79084816936269,0.2721124589443207,-2.473456859588623,-2.4795072078704834,0.7735833333333333,,
617,72,7160,-164.63129989532283,0.26761946082115173,-1.6717157363891602,-1.6484706401824951,0.7732666666666667,,
618,72,7170,-215.66046858856512,5.939303874969482,-1.3582539558410645,-1.4877318143844604,0.77295,,
619,72,7180,-270.15927514105977,0.2320532649755478,-1.5117994546890259,-1.5305222272872925,0.7726333333333333,,
620,72,7190,-330.9791226828585,0.7540148496627808,-0.9903557300567627,-1.0626256465911865,0.7723166666666667,,
621,72,7200,-394.85659342201257,12.288613319396973,-1.4140475988388062,-2.064321756362915,0.772,,
622,73,7210,-13.04565302771146,0.4643716514110565,-1.3039416074752808,-1.4351845979690552,0.7716833333333333,,
623,73,7220,-25.368178288977038,1.9309736490249634,-0.9933062791824341,-1.3674137592315674,0.7713666666666666,,
624,73,7230,-38.608315502055,0.8576727509498596,-0.6859596967697144,-0.6578375697135925,0.77105,,
625,73,7240,-54.13592752149218,14.344226837158203,-0.33657509088516235,-0.9171372652053833,0.7707333333333333,,
626,73,7250,-71.71258372662324,0.9741081595420837,-0.9680306911468506,-0.9466339945793152,0.7704166666666666,,
627,73,7260,-87.07401688278124,0.19391201436519623,-0.7662909626960754,-0.7454437613487244,0.7701,,
628,73,7270,-102.59192823732802,0.29137399792671204,-0.8842016458511353,-0.851923406124115,0.7697833333333333,,
629,73,7280,-124.6474198194369,0.24483907222747803,-1.7956957817077637,-1.8718860149383545,0.7694666666666667,,
630,73,7290,-149.63818089077765,0.39035165309906006,-1.2961924076080322,-1.3756715059280396,0.76915,,
631,73,7300,-176.75497043260268,0.4426361918449402,-0.6699286699295044,-0.8190606832504272,0.7688333333333334,,
632,74,7310,-10.433211547938075,0.37911540269851685,-1.3784875869750977,-1.45366632938385,0.7685166666666667,,
633,74,7320,-19.4658126742218,0.5005171298980713,-0.32799214124679565,-0.24261493980884552,0.7682,,
634,74,7330,-33.32830256545313,0.3300923705101013,-1.1942243576049805,-1.1121543645858765,0.7678833333333334,,
635,74,7340,-48.23867503522324,0.2905319929122925,-2.1090035438537598,-2.06972599029541,0.7675666666666667,,
636,74,7350,-65.28931574490075,0.2672959566116333,-1.7925682067871094,-1.8108038902282715,0.76725,,
637,74,7360,-87.842261632473,3.8884780406951904,-1.6167323589324951,-1.7336769104003906,0.7669333333333334,,
638,74,7370,-115.59698045730354,0.2424008846282959,-1.1669702529907227,-1.3251781463623047,0.7666166666666667,,
639,74,7380,-147.0588302202402,4.154295444488525,-0.6046543717384338,-1.0628405809402466,0.7663,,
640,74,7390,-175.77381810871552,0.265500545501709,-2.346210479736328,-2.467608690261841,0.7659833333333333,,
641,74,7400,-207.85304457527772,3.60072922706604,-1.3139894008636475,-1.459397315979004,0.7656666666666667,,
642,75,7410,-9.563669727652515,0.21153196692466736,-1.9534225463867188,-1.8708136081695557,0.76535,,
643,75,7420,-22.85284267065955,0.19573044776916504,-1.8978452682495117,-1.816283941268921,0.7650333333333333,,
644,75,7430,-45.11722864396718,0.3094331920146942,-1.2703745365142822,-1.2333909273147583,0.7647166666666667,,
645,75,7440,-75.85554758445272,0.45626139640808105,-1.5733531713485718,-1.7288137674331665,0.7644,,
646,75,7450,-114.057044491597,0.4848726987838745,-1.4693470001220703,-1.6502602100372314,0.7640833333333333,,
647,75,7460,-152.36556566836302,2.4810972213745117,-1.641516923904419,-1.413975715637207,0.7637666666666667,,
648,75,7470,-196.38110209128607,0.6306416988372803,-0.16672462224960327,-0.25257590413093567,0.76345,,
649,75,7480,-249.05111140507086,2.258497953414917,-1.3112819194793701,-1.3502676486968994,0.7631333333333333,,
650,75,7490,-308.48145917265424,0.3699849843978882,-1.004561424255371,-1.0837485790252686,0.7628166666666667,,
651,75,7500,-374.7782186649606,0.7916439771652222,-0.1902627944946289,-0.39564865827560425,0.7625,,
652,76,7510,-9.730378365716774,0.4311022460460663,-1.6372733116149902,-1.7420463562011719,0.7621833333333333,,
653,76,7520,-21.570175120955025,4.663320541381836,-0.5321810841560364,-0.9271621704101562,0.7618666666666667,,
654,76,7530,-41.71948326068766,3.8956665992736816,-1.5576145648956299,-1.695016622543335,0.76155,,
655,76,7540,-68.12642915499183,1.9624009132385254,-0.3400641679763794,-0.17670537531375885,0.7612333333333333,,
656,76,7550,-98.45854281837451,2.927560567855835,-1.0160058736801147,-1.1541273593902588,0.7609166666666667,,
657,76,7560,-133.78861534560778,2.0812368392944336,-2.1754958629608154,-2.2124152183532715,0.7605999999999999,,
658,76,7570,-175.28436447157108,1.4656667709350586,-1.5836888551712036,-1.4346272945404053,0.7602833333333333,,
659,76,7580,-223.17398088089772,0.939480721950531,-2.0473475456237793,-1.731020212173462,0.7599666666666667,,
660,76,7590,-270.1800566482742,0.46989530324935913,-1.7606853246688843,-1.6129610538482666,0.75965,,
661,76,7600,-311.8119082095028,0.837661862373352,-1.3419625759124756,-1.2895095348358154,0.7593333333333333,,
662,77,7610,-10.236211245754689,1.787107229232788,-0.49616891145706177,-0.7612295150756836,0.7590166666666667,,
663,77,7620,-24.369103659889486,0.8096715211868286,-1.06473708152771,-1.2080035209655762,0.7587,,
664,77,7630,-38.520413987445906,2.21311616897583,-0.8169502019882202,-1.28249192237854,0.7583833333333333,,
665,77,7640,-53.74594838171188,0.7052512168884277,-0.20478446781635284,-0.6812158823013306,0.7580666666666667,,
666,77,7650,-68.82066481643389,0.7011955380439758,-1.141818642616272,-1.6769638061523438,0.75775,,
667,77,7660,-83.64592478877454,1.4134358167648315,-0.5494152307510376,-0.9262786507606506,0.7574333333333333,,
668,77,7670,-99.36749839509628,0.8469014763832092,-1.767118215560913,-2.0941290855407715,0.7571166666666667,,
669,77,7680,-118.41606838401083,27.525314331054688,-0.3795606195926666,-0.9481185674667358,0.7568,,
670,77,7690,-138.46371236566807,1.9862092733383179,-0.9637645483016968,-0.7176870107650757,0.7564833333333333,,
671,77,7700,-160.3783255485182,0.32414039969444275,-2.4477176666259766,-2.323005199432373,0.7561666666666667,,
672,78,7710,-14.445242042294861,0.589946985244751,-2.075516700744629,-1.961836338043213,0.75585,,
673,78,7720,-27.22074978709376,3.589948892593384,-1.313962459564209,-0.85086590051651,0.7555333333333334,,
674,78,7730,-42.24686971527866,2.0503878593444824,-1.8353465795516968,-1.7948845624923706,0.7552166666666666,,
675,78,7740,-60.6894863796501,0.7585766315460205,-2.0226335525512695,-1.8263777494430542,0.7549,,
676,78,7750,-80.53772596060362,87.32327270507812,0.5434514284133911,-0.18069830536842346,0.7545833333333334,,
677,78,7760,-105.24901716588667,0.5531700849533081,-0.8219606876373291,-0.905966579914093,0.7542666666666666,,
678,78,7770,-134.3957003772398,1.4632954597473145,-1.9646260738372803,-2.0392098426818848,0.75395,,
679,78,7780,-163.94712072810023,2.0022945404052734,-0.9625089764595032,-1.1606608629226685,0.7536333333333334,,
680,78,7790,-195.63668716273625,6.478768825531006,-1.3258156776428223,-1.5287375450134277,0.7533166666666666,,
681,78,7800,-229.33643049850687,6.994471073150635,-1.809607982635498,-2.2468605041503906,0.753,,
682,79,7810,-9.250607824002662,1.051435112953186,-1.3631644248962402,-1.143935203552246,0.7526833333333334,,
683,79,7820,-18.502389466891035,76.21330261230469,-1.0119620561599731,-1.805862545967102,0.7523666666666666,,
684,79,7830,-28.6580024989672,2.6805639266967773,-0.5315876007080078,-0.29357224702835083,0.75205,,
685,79,7840,-44.25016041804582,0.4640694856643677,-2.0948619842529297,-1.9632492065429688,0.7517333333333334,,
686,79,7850,-63.101278699760115,0.47301220893859863,-2.3413455486297607,-2.4189300537109375,0.7514166666666666,,
687,79,7860,-90.04453155062575,2.1764657497406006,0.29182374477386475,0.37433549761772156,0.7511,,
688,79,7870,-125.10025888045378,0.7992436289787292,-1.0080759525299072,-1.1904852390289307,0.7507833333333334,,
689,79,7880,-167.18129694684995,27.757474899291992,-0.5736832618713379,-1.3983879089355469,0.7504666666666667,,
690,79,7890,-217.8382945349618,2.51218318939209,-0.9520524144172668,-1.1445512771606445,0.75015,,
691,79,7900,-277.90304182071816,1.1891181468963623,-1.2129459381103516,-1.6798138618469238,0.7498333333333334,,
692,80,7910,-7.0656230139154985,1.7497315406799316,-0.16360780596733093,-0.6801838278770447,0.7495166666666666,,
693,80,7920,-18.1223067661603,0.5500509142875671,-0.9869563579559326,-1.0978124141693115,0.7492,,
694,80,7930,-28.621138663665327,4.078185081481934,-2.0264828205108643,-2.2094407081604004,0.7488833333333333,,
695,80,7940,-46.42618569594439,1.074102759361267,-0.8922346830368042,-0.7830824255943298,0.7485666666666666,,
696,80,7950,-68.10852687083663,0.5067936182022095,-2.019712448120117,-2.007465124130249,0.7482500000000001,,
697,80,7960,-87.02608061425157,0.7460083365440369,-1.7007348537445068,-1.625869870185852,0.7479333333333333,,
698,80,7970,-103.16507865977498,0.46726611256599426,-2.1047959327697754,-1.9425369501113892,0.7476166666666667,,
699,80,7980,-121.09422276562417,0.5313355922698975,-1.6346787214279175,-1.584801435470581,0.7473000000000001,,
700,80,7990,-141.2677143232439,3.4843969345092773,-1.405584454536438,-1.6095174551010132,0.7469833333333333,,
701,80,8000,-164.60943464820429,0.5686655640602112,-2.3648948669433594,-2.4010305404663086,0.7466666666666667,,
702,81,8010,-19.488231553770206,0.28087103366851807,-1.946914553642273,-2.0682384967803955,0.7463500000000001,,
703,81,8020,-38.48581556684384,47.19873809814453,-1.090686559677124,-1.9718830585479736,0.7460333333333333,,
704,81,8030,-54.88894828158632,1.1930241584777832,-1.5206117630004883,-1.781258225440979,0.7457166666666667,,
705,81,8040,-72.60816925821624,0.4634060859680176,-1.221980094909668,-1.4599248170852661,0.7454000000000001,,
706,81,8050,-93.73533516585424,0.7717238664627075,-0.5865447521209717,-0.6984461545944214,0.7450833333333333,,
707,81,8060,-111.18510006482417,2.204592227935791,-0.9541856050491333,-1.125935673713684,0.7447666666666667,,
708,81,8070,-122.84105222821431,0.8302798867225647,-0.9757957458496094,-1.0372843742370605,0.7444500000000001,,
709,81,8080,-133.04995845679295,0.6275361776351929,-1.5547535419464111,-1.6528995037078857,0.7441333333333333,,
710,81,8090,-145.45040745781165,23.570533752441406,-1.3721156120300293,-1.8701258897781372,0.7438166666666667,,
711,81,8100,-162.6710082152705,2.0834875106811523,-1.677734375,-1.8458654880523682,0.7435,,
712,82,8110,-8.677457890336813,2.355888605117798,-1.0134391784667969,-1.1154868602752686,0.7431833333333333,,
713,82,8120,-18.94134798890947,1.244724988937378,-1.8095813989639282,-1.8181298971176147,0.7428666666666667,,
714,82,8130,-27.52406382303942,0.7208953499794006,-2.4490222930908203,-2.535170555114746,0.74255,,
715,82,8140,-36.892196680133196,0.6435810327529907,-1.7642875909805298,-1.7235897779464722,0.7422333333333333,,
716,82,8150,-45.142585645660986,0.3149692416191101,-1.4969390630722046,-1.5083141326904297,0.7419166666666667,,
717,82,8160,-55.76276979133707,0.4777263402938843,-0.5968399047851562,-0.7460529208183289,0.7416,,
718,82,8170,-78.16494854504406,1.1942875385284424,-0.971459686756134,-1.0378282070159912,0.7412833333333333,,
719,82,8180,-111.13299123056836,6.371505260467529,-1.6304101943969727,-1.8960516452789307,0.7409666666666667,,
720,82,8190,-145.7330632190679,0.6237446665763855,-2.2505311965942383,-2.308103561401367,0.74065,,
721,82,8200,-183.55134642365897,1.4617304801940918,-1.228337287902832,-1.2375965118408203,0.7403333333333333,,
722,83,8210,-11.665676117935131,1.8831963539123535,-0.7821508049964905,-0.7344219088554382,0.7400166666666667,,
723,83,8220,-25.904546867697718,0.5323023200035095,-2.252161979675293,-2.2753725051879883,0.7397,,
724,83,8230,-39.550776630545194,3.112344980239868,-1.9561176300048828,-2.0141243934631348,0.7393833333333333,,
725,83,8240,-55.091128759443876,3.6064696311950684,-1.882044792175293,-1.7822130918502808,0.7390666666666666,,
726,83,8250,-71.85624926565539,0.6794544458389282,-2.387587070465088,-2.174588203430176,0.73875,,
727,83,8260,-85.55437308186607,0.9515825510025024,-0.8089823722839355,-0.6377356052398682,0.7384333333333334,,
728,83,8270,-104.93159555017708,1.0464638471603394,-1.1750233173370361,-0.944495439529419,0.7381166666666668,,
729,83,8280,-124.87101909131007,1.9238018989562988,-1.2387226819992065,-1.4007501602172852,0.7378,,
730,83,8290,-150.14707045044034,0.5198958516120911,-1.1900489330291748,-1.3755465745925903,0.7374833333333334,,
731,83,8300,-180.1180092857664,0.4585855007171631,-2.0148777961730957,-2.09944748878479,0.7371666666666667,,
732,84,8310,-5.681268364631904,0.652234673500061,-1.9112290143966675,-2.005387306213379,0.73685,,
733,84,8320,-10.889147921492155,2.0792155265808105,-1.4467363357543945,-1.668623447418213,0.7365333333333334,,
734,84,8330,-19.09047095932464,0.2539965510368347,-0.49563926458358765,-0.6113012433052063,0.7362166666666667,,
735,84,8340,-31.319729892362986,0.7920491695404053,-0.9058508276939392,-0.8008104562759399,0.7359,,
736,84,8350,-47.66248541189463,0.34916579723358154,-1.550429105758667,-1.64054274559021,0.7355833333333334,,
737,84,8360,-66.20218869528611,0.9561370611190796,-1.721668004989624,-1.5996499061584473,0.7352666666666667,,
738,84,8370,-84.0116511085436,0.599324107170105,-1.9912989139556885,-2.0251402854919434,0.73495,,
739,84,8380,-100.18997906443812,0.5740271210670471,-1.295234203338623,-1.4723114967346191,0.7346333333333334,,
740,84,8390,-110.80459245226042,0.7375251650810242,-1.8899946212768555,-1.9288671016693115,0.7343166666666667,,
741,84,8400,-118.68187296468798,0.525824785232544,-1.4825363159179688,-1.5859158039093018,0.734,,
742,85,8410,-10.094569618223952,0.7047425508499146,-1.112220048904419,-1.3163777589797974,0.7336833333333334,,
743,85,8420,-23.111608555709775,4.365163326263428,-1.8291325569152832,-2.1904079914093018,0.7333666666666667,,
744,85,8430,-46.9581583290848,80.3538589477539,-1.337884783744812,-2.1652677059173584,0.73305,,
745,85,8440,-79.07200303127914,0.5186526775360107,-0.4024474024772644,-0.34596481919288635,0.7327333333333333,,
746,85,8450,-116.31356916920237,0.47627031803131104,-2.1740214824676514,-2.107231378555298,0.7324166666666667,,
747,85,8460,-156.1186234364945,0.7746621966362,-1.526610016822815,-1.4001085758209229,0.7321,,
748,85,8470,-190.8794301488561,0.4930115342140198,-1.1423892974853516,-1.041895866394043,0.7317833333333333,,
749,85,8480,-229.70795424280146,0.9993830323219299,-0.8165788650512695,-0.9335887432098389,0.7314666666666667,,
750,85,8490,-277.75757574658275,0.5048319101333618,-2.0523951053619385,-2.2634012699127197,0.73115,,
751,85,8500,-335.4100613757136,1.047312617301941,0.2049204707145691,-0.09456050395965576,0.7308333333333333,,
752,86,8510,-12.527074988667529,1.4819127321243286,-2.4081857204437256,-2.5638866424560547,0.7305166666666667,,
753,86,8520,-29.78175991553749,0.8748820424079895,-1.5627349615097046,-1.8034114837646484,0.7302,,
754,86,8530,-54.86936879616902,0.8929229974746704,-0.7269493937492371,-0.9094861745834351,0.7298833333333333,,
755,86,8540,-81.94603704498556,0.45830246806144714,-1.5987889766693115,-1.765052080154419,0.7295666666666667,,
756,86,8550,-107.55382821607611,28.99530601501465,-0.82452392578125,-1.435247778892517,0.72925,,
757,86,8560,-138.47634100504462,0.771456241607666,-1.883144736289978,-1.6309716701507568,0.7289333333333334,,
758,86,8570,-174.2116361034168,16.44847869873047,-2.527672290802002,-2.6971025466918945,0.7286166666666667,,
759,86,8580,-216.34378472860752,6.871456623077393,-2.2035107612609863,-2.1168813705444336,0.7283000000000001,,
760,86,8590,-263.40101150387153,3.9250025749206543,-1.8432869911193848,-1.3892567157745361,0.7279833333333334,,
761,86,8600,-316.54023067302035,2.374613046646118,-2.4941508769989014,-2.006234884262085,0.7276666666666667,,
762,87,8610,-8.383990645533393,19.608623504638672,-0.9474002122879028,-0.5487743616104126,0.72735,,
763,87,8620,-19.01735153256916,1.4650758504867554,-2.212559223175049,-1.796938180923462,0.7270333333333334,,
764,87,8630,-30.505140644927696,1.0342144966125488,-1.5181629657745361,-1.4309123754501343,0.7267166666666667,,
765,87,8640,-44.898105618381514,1.9700908660888672,-1.273896336555481,-1.0176565647125244,0.7264,,
766,87,8650,-64.09116590293768,13.624445915222168,-1.5765665769577026,-2.059476375579834,0.7260833333333334,,
767,87,8660,-91.64599068749789,0.86830735206604,-1.7084293365478516,-2.0545055866241455,0.7257666666666667,,
768,87,8670,-124.43307342027717,3.6509883403778076,-0.5587120056152344,-1.0838844776153564,0.72545,,
769,87,8680,-153.4235185045823,1.126894474029541,-0.7540774345397949,-1.1096246242523193,0.7251333333333334,,
770,87,8690,-190.40220179774948,1.6850485801696777,-0.8406358957290649,-1.371203064918518,0.7248166666666667,,
771,87,8700,-231.95838724162843,1.094265103340149,-1.6774240732192993,-2.0935113430023193,0.7245,,
772,88,8710,-9.354379241057412,0.5511482954025269,-2.8422627449035645,-3.104116916656494,0.7241833333333334,,
773,88,8720,-22.951287649360967,2.649104356765747,0.05500289797782898,-0.0977911502122879,0.7238666666666667,,
774,88,8730,-40.91055264263454,0.6708567142486572,-2.536191463470459,-2.441976308822632,0.72355,,
775,88,8740,-63.46364335670411,1.8835138082504272,-1.3857614994049072,-1.1810355186462402,0.7232333333333334,,
776,88,8750,-91.42637324570848,0.9542651772499084,-2.1183881759643555,-1.8434221744537354,0.7229166666666667,,
777,88,8760,-114.36697789764621,0.9874048829078674,-2.0870065689086914,-1.955320954322815,0.7226,,
778,88,8770,-127.53382060139906,3.047680139541626,-1.8900891542434692,-1.8431711196899414,0.7222833333333334,,
779,88,8780,-138.2161024679226,21.965930938720703,-0.576172947883606,-1.1790902614593506,0.7219666666666666,,
780,88,8790,-148.14550118497147,2.2559406757354736,-1.095940351486206,-0.7888900637626648,0.72165,,
781,88,8800,-159.96456474575677,17.034425735473633,-1.1777758598327637,-1.441180944442749,0.7213333333333334,,
782,89,8810,-9.779997454983222,1.2472208738327026,-0.754218578338623,-0.7382769584655762,0.7210166666666666,,
783,89,8820,-21.597585936486865,1.4368959665298462,-1.038880467414856,-0.9512153267860413,0.7207,,
784,89,8830,-33.04308798296853,0.6108279228210449,-1.2317476272583008,-1.3329129219055176,0.7203833333333334,,
785,89,8840,-44.3887375127486,1.0078954696655273,0.16848905384540558,0.014260664582252502,0.7200666666666666,,
786,89,8850,-56.79965575640171,2.149242639541626,-0.16786843538284302,-0.1644243448972702,0.71975,,
787,89,8860,-70.96075016561319,0.5536435842514038,-1.9200721979141235,-2.2545480728149414,0.7194333333333334,,
788,89,8870,-84.98452616597056,1.6382423639297485,-0.3332868218421936,-0.7954352498054504,0.7191166666666666,,
789,89,8880,-101.84100010291293,0.5904356241226196,-1.3535488843917847,-1.567178726196289,0.7188000000000001,,
790,89,8890,-123.6490481853599,0.4718548655509949,-0.9212766885757446,-1.0570392608642578,0.7184833333333334,,
791,89,8900,-146.98146536898702,0.6079452633857727,-1.6944903135299683,-1.752647876739502,0.7181666666666666,,
792,90,8910,-8.747902861023688,0.8923380374908447,-2.2197158336639404,-2.0771241188049316,0.7178500000000001,,
793,90,8920,-20.156815418905055,0.5933504104614258,-0.75547194480896,-0.6305032968521118,0.7175333333333334,,
794,90,8930,-29.546245471621276,0.8637283444404602,-0.7812240123748779,-0.7086130380630493,0.7172166666666666,,
795,90,8940,-43.411312569141835,0.37473177909851074,-1.2358925342559814,-1.2522037029266357,0.7169000000000001,,
796,90,8950,-57.15185825779856,0.864254355430603,-2.3662052154541016,-2.591047763824463,0.7165833333333333,,
797,90,8960,-74.03890006226221,2.8659772872924805,-0.7678571939468384,-1.1434229612350464,0.7162666666666666,,
798,90,8970,-92.20236744350336,0.581196665763855,-0.1763293445110321,-0.28938180208206177,0.7159500000000001,,
799,90,8980,-110.31324260651732,0.7077960968017578,-0.6755558252334595,-0.8565417528152466,0.7156333333333333,,
800,90,8990,-122.43116263220024,0.5773201584815979,-2.2220029830932617,-2.180992603302002,0.7153166666666666,,
801,90,9000,-130.75735586089698,0.7986481189727783,-0.722556471824646,-0.6012399792671204,0.7150000000000001,,
802,91,9010,-10.094610444447335,0.463135689496994,-1.0832492113113403,-1.0990419387817383,0.7146833333333333,,
803,91,9020,-25.942328386233605,2.7250704765319824,-1.311916708946228,-1.5891441106796265,0.7143666666666666,,
804,91,9030,-47.03772300717348,0.492672860622406,-2.391523599624634,-2.5994327068328857,0.7140500000000001,,
805,91,9040,-63.667254121440166,7.915622234344482,-1.7004823684692383,-2.1724841594696045,0.7137333333333333,,
806,91,9050,-80.53622255465433,9.510396957397461,-1.450761079788208,-1.8872655630111694,0.7134166666666666,,
807,91,9060,-99.07879585056823,0.3312437832355499,-2.240553617477417,-2.2508206367492676,0.7131000000000001,,
808,91,9070,-121.15651670791665,0.5638271570205688,-1.6869779825210571,-1.4986722469329834,0.7127833333333333,,
809,91,9080,-143.4027926502456,0.5804915428161621,-2.457026958465576,-2.4139678478240967,0.7124666666666667,,
810,91,9090,-173.39921498731545,7.226540565490723,-0.6462594270706177,-0.7741711735725403,0.7121500000000001,,
811,91,9100,-201.26091103975986,0.7469351887702942,-2.030153274536133,-1.924748182296753,0.7118333333333333,,
812,92,9110,-6.866636882366762,0.3056090474128723,-3.075643539428711,-2.967822551727295,0.7115166666666667,,
813,92,9120,-18.271590466707952,0.9983068704605103,-3.0763325691223145,-3.0313947200775146,0.7112,,
814,92,9130,-34.6957373874794,16.962238311767578,-1.1828172206878662,-1.3573098182678223,0.7108833333333333,,
815,92,9140,-54.550351394648516,2.935842514038086,-3.124802589416504,-2.9865705966949463,0.7105666666666667,,
816,92,9150,-80.05212332979312,4.874186038970947,-0.963410496711731,-0.7323676347732544,0.71025,,
817,92,9160,-111.6662059552699,1.6363844871520996,-2.103126287460327,-1.7702033519744873,0.7099333333333333,,
818,92,9170,-145.29997956664113,4.211398601531982,-1.5097167491912842,-1.3770711421966553,0.7096166666666668,,
819,92,9180,-180.19928709901052,1.347217321395874,-0.3607548475265503,-0.3959729075431824,0.7093,,
820,92,9190,-218.32819513356765,0.488106906414032,-3.1351072788238525,-3.303792715072632,0.7089833333333333,,
821,92,9200,-264.35324365368353,0.9487388134002686,-1.614748239517212,-1.7020318508148193,0.7086666666666668,,
822,93,9210,-9.2924418641574,1.421609878540039,-0.42748916149139404,-0.73011314868927,0.70835,,
823,93,9220,-19.60475981369074,0.8830062747001648,-2.7062413692474365,-3.03635311126709,0.7080333333333333,,
824,93,9230,-32.666490982798585,0.7863149642944336,-1.5155222415924072,-1.9323488473892212,0.7077166666666668,,
825,93,9240,-44.218047324314455,1.8779699802398682,-1.1017298698425293,-1.382270097732544,0.7074,,
826,93,9250,-56.05675636828025,1.5687099695205688,-1.256290078163147,-1.6602689027786255,0.7070833333333333,,
827,93,9260,-69.23851716538866,0.8438069820404053,-1.8934707641601562,-1.945448398590088,0.7067666666666668,,
828,93,9270,-87.78371607187064,1.2029492855072021,-2.4173896312713623,-2.503343105316162,0.70645,,
829,93,9280,-101.63926335573379,0.5817224979400635,-1.3009967803955078,-1.3449182510375977,0.7061333333333333,,
830,93,9290,-115.74983690080501,1.016546368598938,-2.7400076389312744,-2.7560880184173584,0.7058166666666668,,
831,93,9300,-124.70473427509008,0.6746336221694946,-1.871812343597412,-1.8488680124282837,0.7055,,
832,94,9310,-10.704930435585895,1.3177993297576904,-1.932023525238037,-2.006150960922241,0.7051833333333333,,
833,94,9320,-22.644533824013763,0.8560227751731873,-1.5017465353012085,-1.7195338010787964,0.7048666666666668,,
834,94,9330,-41.52588179413348,1.559506893157959,-1.8991498947143555,-2.1089534759521484,0.70455,,
835,94,9340,-60.91900372450138,0.49612167477607727,-3.072563886642456,-3.1454238891601562,0.7042333333333333,,
836,94,9350,-85.30862508384769,0.5040389895439148,-2.146434783935547,-2.2089459896087646,0.7039166666666667,,
837,94,9360,-113.71727090552956,1.3312352895736694,-1.898328423500061,-2.013765335083008,0.7036,,
838,94,9370,-143.96847796271294,10.317471504211426,-3.025481700897217,-3.350039482116699,0.7032833333333333,,
839,94,9380,-183.68401555436512,0.9321865439414978,-2.5695605278015137,-2.3714284896850586,0.7029666666666667,,
840,94,9390,-237.87814191689975,0.7851625084877014,-2.5537517070770264,-2.497992515563965,0.70265,,
841,94,9400,-300.25264586866894,15.598738670349121,0.01689279079437256,-0.258280485868454,0.7023333333333333,,
842,95,9410,-12.498022643968923,0.7372003197669983,-0.866894006729126,-0.7189409732818604,0.7020166666666667,,
843,95,9420,-22.35347274917668,0.6088249683380127,-1.4810618162155151,-1.4288148880004883,0.7017,,
844,95,9430,-31.405998900699238,1.020930528640747,-2.16457200050354,-2.2664618492126465,0.7013833333333332,,
845,95,9440,-39.71295023328481,0.7082209587097168,-2.4490346908569336,-2.628866672515869,0.7010666666666667,,
846,95,9450,-53.32366779531878,0.42397797107696533,-2.356733798980713,-2.674386978149414,0.70075,,
847,95,9460,-73.42743160519656,0.3217287063598633,-2.133331775665283,-2.2821061611175537,0.7004333333333334,,
848,95,9470,-102.84857011775483,0.5949040651321411,-0.9227643609046936,-1.0821073055267334,0.7001166666666667,,
849,95,9480,-146.99142609963056,4.4207916259765625,-1.4031932353973389,-1.7126713991165161,0.6998,,
850,95,9490,-203.41096623416246,0.6152205467224121,-1.635706901550293,-1.5962610244750977,0.6994833333333333,,
851,95,9500,-267.6214446059661,1.3349173069000244,-0.4801258146762848,-0.31217071413993835,0.6991666666666667,,
852,96,9510,-14.155002283428674,0.6731207370758057,-2.6276278495788574,-2.4525229930877686,0.69885,,
853,96,9520,-27.759368081014024,0.4859578609466553,-1.763045310974121,-1.7352149486541748,0.6985333333333333,,
854,96,9530,-38.80251161886361,0.31785255670547485,-0.39100176095962524,-0.3117648959159851,0.6982166666666667,,
855,96,9540,-52.97028090203857,0.7427598834037781,-2.2906315326690674,-2.218345880508423,0.6979,,
856,96,9550,-72.374308465804,0.35871145129203796,-2.7874722480773926,-2.512822389602661,0.6975833333333333,,
857,96,9560,-94.25336756267046,0.8793335556983948,-0.8612025380134583,-0.7212502956390381,0.6972666666666667,,
858,96,9570,-126.01385846182913,1.759839653968811,-2.2338294982910156,-2.301513433456421,0.69695,,
859,96,9580,-165.51530698795338,19.063753128051758,-1.3038712739944458,-1.6408957242965698,0.6966333333333333,,
860,96,9590,-213.11594278078917,0.4253135919570923,-0.9683650732040405,-0.9587664008140564,0.6963166666666667,,
861,96,9600,-266.6801070306697,1.5283734798431396,-0.714913010597229,-0.5383011102676392,0.696,,
862,97,9610,-12.415186054073487,0.31950512528419495,-2.8350019454956055,-2.940058469772339,0.6956833333333333,,
863,97,9620,-31.71634135897451,0.39293551445007324,-2.5947210788726807,-2.8544507026672363,0.6953666666666667,,
864,97,9630,-54.930878062833514,0.4953916668891907,-2.6557788848876953,-2.931037664413452,0.69505,,
865,97,9640,-81.22113084282351,0.28776735067367554,-1.868209719657898,-1.974053144454956,0.6947333333333333,,
866,97,9650,-110.80377426016415,0.7360155582427979,-0.6742173433303833,-0.7257615327835083,0.6944166666666667,,
867,97,9660,-144.7717627514665,0.46158966422080994,-1.4125977754592896,-1.3913891315460205,0.6940999999999999,,
868,97,9670,-182.38329790038748,0.864120602607727,-3.393918037414551,-3.3172733783721924,0.6937833333333333,,
869,97,9680,-220.2933378778225,0.3199537992477417,-2.5478901863098145,-2.412749767303467,0.6934666666666667,,
870,97,9690,-260.1399551694073,4.97017765045166,-2.377005100250244,-2.467844009399414,0.6931499999999999,,
871,97,9700,-306.47178002174434,0.9490037560462952,-2.1304681301116943,-2.0059280395507812,0.6928333333333334,,
872,98,9710,-5.885757538461514,1.2093074321746826,-2.9311928749084473,-2.7478904724121094,0.6925166666666667,,
873,98,9720,-12.047581885850686,0.6400981545448303,-1.225439190864563,-1.2969952821731567,0.6921999999999999,,
874,98,9730,-22.317481041865353,18.975351333618164,-2.0354037284851074,-2.5774083137512207,0.6918833333333334,,
875,98,9740,-38.34279813707792,0.4567129611968994,-1.5953577756881714,-1.6943373680114746,0.6915666666666667,,
876,98,9750,-56.26910541104162,0.30504554510116577,-2.5602991580963135,-2.7169885635375977,0.69125,,
877,98,9760,-77.06714591230711,0.3661682605743408,-2.9513635635375977,-3.068643569946289,0.6909333333333334,,
878,98,9770,-98.19581535634188,0.5393267869949341,-1.981826901435852,-2.0777995586395264,0.6906166666666667,,
879,98,9780,-121.07919381160876,0.9840595722198486,-1.177821159362793,-1.2098265886306763,0.6903,,
880,98,9790,-148.7917359197181,0.6654404997825623,-2.815141439437866,-2.6234612464904785,0.6899833333333334,,
881,98,9800,-184.7457721572906,0.8756867051124573,-2.1789233684539795,-1.9636847972869873,0.6896666666666667,,
882,99,9810,-10.434178064100369,0.4567647874355316,-2.6793551445007324,-2.609004020690918,0.68935,,
883,99,9820,-24.256597830755315,0.42498573660850525,-1.957147479057312,-2.1595330238342285,0.6890333333333334,,
884,99,9830,-47.24179953303883,3.11004376411438,-2.0264835357666016,-2.46738862991333,0.6887166666666666,,
885,99,9840,-70.83699347245293,0.43822088837623596,-2.3493804931640625,-2.6336514949798584,0.6884,,
886,99,9850,-94.72001643555757,0.20632372796535492,-2.4072821140289307,-2.524766683578491,0.6880833333333334,,
887,99,9860,-113.11380400176571,0.6357548236846924,-2.7287557125091553,-2.5139923095703125,0.6877666666666666,,
888,99,9870,-128.23703791292485,0.7829947471618652,-1.0778782367706299,-0.938421905040741,0.68745,,
889,99,9880,-145.20636723772324,1.921467900276184,-1.6136009693145752,-1.5395445823669434,0.6871333333333334,,
890,99,9890,-169.8819633453189,0.5038979053497314,-2.0657339096069336,-1.9864352941513062,0.6868166666666666,,
891,99,9900,-206.85508181456024,0.6043857336044312,-2.6593854427337646,-2.776423931121826,0.6865,,
892,100,9910,-4.128240420196108,0.6653140783309937,-1.3070814609527588,-1.4098559617996216,0.6861833333333334,,
893,100,9920,-9.134497650404649,85.48954772949219,-2.3037521839141846,-3.320803642272949,0.6858666666666666,,
894,100,9930,-14.931716698026616,75.02288055419922,-0.7680372595787048,-1.5355826616287231,0.68555,,
895,100,9940,-27.954523492356454,0.5352027416229248,-1.6373894214630127,-1.6342023611068726,0.6852333333333334,,
896,100,9950,-41.156971039389404,1.3190683126449585,-1.7549580335617065,-1.80742609500885,0.6849166666666666,,
897,100,9960,-58.26559021441514,0.7736943364143372,-0.6629477739334106,-0.680711030960083,0.6846,,
898,100,9970,-80.46481288071541,0.43711450695991516,-2.36934232711792,-2.256678581237793,0.6842833333333334,,
899,100,9980,-113.40989177358847,1.852128028869629,-2.447873115539551,-2.390219211578369,0.6839666666666666,,
900,100,9990,-157.6054076129025,0.651938259601593,-2.285764455795288,-2.265390634536743,0.68365,,
901,100,10000,-210.43487653648288,1.6896260976791382,-0.8981558084487915,-0.9374603033065796,0.6833333333333333,-765.8055609124928,-765.8055609124928
902,101,10010,-8.320351924100208,1.5164258480072021,-1.2451000213623047,-1.5104808807373047,0.6830166666666666,,
903,101,10020,-18.63842574705427,1.078218698501587,-2.4432387351989746,-2.3729991912841797,0.6827,,
904,101,10030,-32.451965608775865,0.6585554480552673,-1.3380517959594727,-1.4577544927597046,0.6823833333333333,,
905,101,10040,-51.49574673536911,0.4164557158946991,-1.4043359756469727,-1.6034743785858154,0.6820666666666666,,
906,101,10050,-68.17494815544545,0.5423274040222168,-2.3068418502807617,-2.3273255825042725,0.6817500000000001,,
907,101,10060,-89.92943922142459,0.6038661003112793,-1.6569308042526245,-1.732074499130249,0.6814333333333333,,
908,101,10070,-118.33835093212895,0.7499707341194153,-1.75935959815979,-1.8883910179138184,0.6811166666666667,,
909,101,10080,-151.9329866495543,5.068044185638428,0.0144844651222229,-0.3577128052711487,0.6808000000000001,,
910,101,10090,-185.92246812507747,1.1148746013641357,-1.0710831880569458,-1.3756593465805054,0.6804833333333333,,
911,101,10100,-221.50376929131224,1.2242145538330078,-1.051899790763855,-1.2105287313461304,0.6801666666666667,,
912,102,10110,-10.975968829679351,4.917268753051758,-0.932447612285614,-1.1623361110687256,0.6798500000000001,,
913,102,10120,-25.099478991749955,0.6718854308128357,-2.050267219543457,-1.9842420816421509,0.6795333333333333,,
914,102,10130,-47.626802694711415,0.8641543388366699,0.1506061553955078,0.37480100989341736,0.6792166666666667,,
915,102,10140,-76.4337330527899,16.982297897338867,-0.8442336916923523,-1.215301513671875,0.6789000000000001,,
916,102,10150,-104.25010686244988,0.8581026792526245,-3.655000686645508,-3.4471797943115234,0.6785833333333333,,
917,102,10160,-130.68468386849094,1.3520466089248657,-2.3103926181793213,-2.1096036434173584,0.6782666666666667,,
918,102,10170,-155.8983134009864,0.9337495565414429,-3.2100579738616943,-3.3821094036102295,0.67795,,
919,102,10180,-180.95339370782972,0.49057677388191223,-1.4819573163986206,-1.7355148792266846,0.6776333333333333,,
920,102,10190,-201.07525980620872,1.1319608688354492,-1.1756212711334229,-1.3527618646621704,0.6773166666666667,,
921,102,10200,-217.28450376795126,0.2820412814617157,-2.450404644012451,-2.4286208152770996,0.677,,
922,103,10210,-9.479103980212484,20.618927001953125,-1.2090787887573242,-1.5783493518829346,0.6766833333333333,,
923,103,10220,-19.486658689816426,0.45697227120399475,-2.0480294227600098,-1.9661606550216675,0.6763666666666667,,
924,103,10230,-27.64132133329326,0.45634666085243225,-3.9745683670043945,-3.8504621982574463,0.67605,,
925,103,10240,-35.2403705987139,0.8480527400970459,-0.5336734056472778,-0.45498669147491455,0.6757333333333333,,
926,103,10250,-48.23126541842416,3.0297048091888428,0.37378817796707153,0.26313161849975586,0.6754166666666667,,
927,103,10260,-71.85396278380038,0.5770201086997986,-0.38878750801086426,-0.6282014846801758,0.6751,,
928,103,10270,-99.16745064731087,0.3050093948841095,-2.009913444519043,-2.324221134185791,0.6747833333333333,,
929,103,10280,-126.33668726549315,5.550799369812012,-1.3847702741622925,-1.6475021839141846,0.6744666666666667,,
930,103,10290,-141.99838776965225,1.0385279655456543,-2.26359486579895,-2.175809860229492,0.67415,,
