FS-tar/marl-mpe-learning/outputs/qmix_mpe_rnn/simple_spread/run008/train_log.csv
update,episode,total_steps,train_team_return,td_loss,total_loss,grad_norm,q_tot_mean,q_tot_std,q_tot_max,target_q_tot_mean,target_q_tot_std,target_q_tot_max,epsilon,action_entropy_mean,used_action_count_min,max_action_ratio_max,top2_action_ratio_max,eval_team_return,eval_mean_agent_return
1,8,400,-49.51415105535142,0.14267060160636902,0.14267060160636902,1.2625728845596313,0.029285106658935547,0.2636130452156067,0.7028450965881348,0.5700300979614258,0.11799723654985428,0.852521538734436,0.976,,,,,,
2,9,450,-57.92160392457794,0.11476925760507584,0.11476925760507584,1.0978890657424927,0.05721802711486816,0.25176966190338135,0.7951327562332153,0.5506884002685547,0.10570620745420456,0.8303822875022888,0.973,,,,,,
3,10,500,-72.02348892191172,0.09867262095212936,0.09867262095212936,0.9919315576553345,0.07731453895568847,0.24630439281463623,0.6435370445251465,0.5302468490600586,0.09907522052526474,0.7497678995132446,0.97,,,,,,
4,11,550,-60.22321536351245,0.10460586845874786,0.10460586845874786,1.0668052434921265,0.10164970397949219,0.24822039902210236,0.8174127340316772,0.5848212432861328,0.09131191670894623,0.8306660056114197,0.967,,,,,,
5,12,600,-30.12571404570864,0.10060594230890274,0.10060594230890274,0.994053840637207,0.09512303352355957,0.23901312053203583,0.7429472208023071,0.5492763519287109,0.11451710760593414,0.8529574275016785,0.964,,,,,,
6,13,650,-37.989895624204856,0.10980918258428574,0.10980918258428574,1.0660799741744995,0.11672623634338379,0.25758036971092224,0.8378604650497437,0.5878518676757812,0.12257871776819229,0.8531746864318848,0.961,,,,,,
7,14,700,-44.37365670341693,0.10459095984697342,0.10459095984697342,1.0036909580230713,0.11496600151062011,0.25356781482696533,0.8399780988693237,0.5703177261352539,0.10838399082422256,0.8027055263519287,0.958,,,,,,
8,15,750,-88.43317782667079,0.0983119085431099,0.0983119085431099,0.9802068471908569,0.1377992820739746,0.24937279522418976,0.7714483141899109,0.5853661727905274,0.10376596450805664,0.853733479976654,0.955,,,,,,
9,16,800,-50.520092744126515,0.0950060561299324,0.0950060561299324,0.9899758100509644,0.1545395851135254,0.24486631155014038,0.8656757473945618,0.6006664657592773,0.09691479057073593,0.8540741205215454,0.952,,,,,,
10,17,850,-36.90293144363904,0.0896303728222847,0.0896303728222847,0.9470786452293396,0.1537076473236084,0.24478645622730255,0.8743467330932617,0.58396240234375,0.09785880148410797,0.8327507972717285,0.949,,,,,,
11,18,900,-52.02628290480784,0.07270649820566177,0.07270649820566177,0.8210297226905823,0.1740977668762207,0.21919433772563934,0.6942305564880371,0.5626426696777344,0.10974769294261932,0.8561316728591919,0.946,,,,,,
12,19,950,-67.34961951432233,0.09380514174699783,0.09380514174699783,0.9919220805168152,0.2047572135925293,0.25706228613853455,0.8918976187705994,0.6371084213256836,0.106424979865551,0.8553295135498047,0.943,,,,,,
13,20,1000,-62.13463753535984,0.0898623839020729,0.0898623839020729,0.9073488712310791,0.21708450317382813,0.2643164098262787,0.8874372839927673,0.616632080078125,0.09600047022104263,0.8057868480682373,0.94,,,,,,
14,21,1050,-71.68634066751925,0.06507556140422821,0.06507556140422821,0.7706394791603088,0.21159605026245118,0.22644369304180145,0.7513909339904785,0.5737993240356445,0.09996479004621506,0.806257426738739,0.9369999999999999,,,,,,
15,22,1100,-68.72393631620253,0.06816540658473969,0.06816540658473969,0.8283786177635193,0.19485836029052733,0.2191290706396103,0.698427140712738,0.5661094665527344,0.09442345052957535,0.750558614730835,0.9339999999999999,,,,,,
16,23,1150,-50.723214657904144,0.046724673360586166,0.046724673360586166,0.5858182907104492,0.247200927734375,0.22262685000896454,0.742328405380249,0.5426167678833008,0.10189002752304077,0.7976216673851013,0.931,,,,,,
17,24,1200,-64.53219387538549,0.06922076642513275,0.06922076642513275,0.7824857234954834,0.25557613372802734,0.2488597184419632,0.9350371956825256,0.6245800399780274,0.10197989642620087,0.8372045755386353,0.9279999999999999,,,,,,
18,25,1250,-44.69303808541736,0.05877755954861641,0.05877755954861641,0.7368518114089966,0.23673091888427733,0.2120906412601471,0.8092317581176758,0.5810509109497071,0.09609096497297287,0.8601303100585938,0.925,0.989149683164464,3,0.6,0.836,-108.39028596707828,-108.39028596707828
19,26,1300,-63.585838256233856,0.05661146715283394,0.05661146715283394,0.6748862862586975,0.2725641632080078,0.2278444766998291,0.8157574534416199,0.5959233093261719,0.10112164169549942,0.8090536594390869,0.922,,,,,,
20,27,1350,-40.16506329960081,0.04642753675580025,0.04642753675580025,0.5901618003845215,0.24475114822387695,0.21171247959136963,0.8597301244735718,0.5415140533447266,0.11048620194196701,0.777732789516449,0.919,,,,,,
21,28,1400,-50.34466496446834,0.042062677443027496,0.042062677443027496,0.5487189888954163,0.2825302505493164,0.21342061460018158,0.8662753105163574,0.5677539443969727,0.07991274446249008,0.8012828230857849,0.916,,,,,,
22,29,1450,-44.605535813395676,0.05089870095252991,0.05089870095252991,0.6119241714477539,0.2990268325805664,0.22621503472328186,0.9705308675765991,0.5871734619140625,0.12402824312448502,0.8414902687072754,0.913,,,,,,
23,30,1500,-77.07729873462836,0.03506137430667877,0.03506137430667877,0.479073703289032,0.28354265213012697,0.19632506370544434,0.8778665661811829,0.5320362091064453,0.10239501297473907,0.8638886213302612,0.91,,,,,,
24,31,1550,-37.69426698326506,0.040861986577510834,0.040861986577510834,0.5310803055763245,0.2844169044494629,0.20104524493217468,0.8828571438789368,0.552194709777832,0.10579856485128403,0.8124606609344482,0.907,,,,,,
25,32,1600,-47.3038213473568,0.03781433030962944,0.03781433030962944,0.5000388622283936,0.3364189910888672,0.1955174058675766,0.7931496500968933,0.5924258041381836,0.10261373221874237,0.8655409812927246,0.904,,,,,,
26,33,1650,-76.56294332917253,0.03994546830654144,0.03994546830654144,0.4461771249771118,0.32047088623046877,0.22436490654945374,0.9702068567276001,0.5476718521118165,0.13254374265670776,0.8652061223983765,0.901,,,,,,
27,34,1700,-58.51115678274321,0.030123881995677948,0.030123881995677948,0.36476752161979675,0.377515983581543,0.21734951436519623,1.0721964836120605,0.580589370727539,0.13376200199127197,0.9271987080574036,0.898,,,,,,
28,35,1750,-50.756395086150654,0.03456415981054306,0.03456415981054306,0.46363213658332825,0.3591530227661133,0.21230700612068176,1.0760014057159424,0.590019416809082,0.12013940513134003,0.9281468987464905,0.895,,,,,,
29,36,1800,-56.69276873788627,0.028807515278458595,0.028807515278458595,0.376411497592926,0.33427379608154295,0.18160615861415863,0.7731672525405884,0.5438925552368165,0.11172770708799362,0.8689958453178406,0.892,,,,,,
30,37,1850,-32.028660850608055,0.03263256698846817,0.03263256698846817,0.37619924545288086,0.3699163055419922,0.19980111718177795,0.8612945079803467,0.5825,0.08520601689815521,0.8092223405838013,0.889,,,,,,
31,38,1900,-50.998324597896634,0.034429632127285004,0.034429632127285004,0.43007081747055054,0.3721985626220703,0.21041546761989594,1.0841829776763916,0.5841576766967773,0.14548331499099731,0.9310243129730225,0.886,,,,,,
32,39,1950,-70.758873676619,0.03188415244221687,0.03188415244221687,0.40008634328842163,0.3953282928466797,0.21222101151943207,1.085727334022522,0.6046375656127929,0.14120633900165558,0.9319884181022644,0.883,,,,,,
33,40,2000,-44.86805211443517,0.032281532883644104,0.032281532883644104,0.36632171273231506,0.36461902618408204,0.19303059577941895,0.8637436628341675,0.5747196197509765,0.09378403425216675,0.8323609828948975,0.88,,,,,,
34,41,2050,-56.0814360749658,0.035459935665130615,0.035459935665130615,0.48471054434776306,0.3898919677734375,0.20934125781059265,1.002343773841858,0.6349289321899414,0.09923934936523438,0.8535428047180176,0.877,,,,,,
35,42,2100,-67.03894893147088,0.02712211385369301,0.02712211385369301,0.3656809329986572,0.37802303314208985,0.1912563592195511,0.9033876657485962,0.5865288543701171,0.09365888684988022,0.8138099312782288,0.874,,,,,,
36,43,2150,-68.66607009169631,0.03294854238629341,0.03294854238629341,0.3450367748737335,0.37912582397460937,0.1980881690979004,0.9196069240570068,0.5709725570678711,0.13761727511882782,0.8743178248405457,0.871,,,,,,
37,44,2200,-31.303219035188764,0.022084975615143776,0.022084975615143776,0.21294167637825012,0.41800716400146487,0.17369018495082855,0.8173164129257202,0.5585578918457031,0.12097130715847015,0.8759844899177551,0.868,,,,,,
38,45,2250,-56.129231050901154,0.021787041798233986,0.021787041798233986,0.27189502120018005,0.4011528015136719,0.1752273291349411,0.9014596343040466,0.5628923797607421,0.12965574860572815,0.8313767910003662,0.865,,,,,,
39,46,2300,-46.69155038932796,0.021061409264802933,0.021061409264802933,0.2727833688259125,0.4213574981689453,0.17805151641368866,0.8986069560050964,0.5800395202636719,0.08839179575443268,0.836685061454773,0.862,,,,,,
40,47,2350,-54.67944606790724,0.01981998234987259,0.01981998234987259,0.18795007467269897,0.4042516326904297,0.1668413132429123,0.8143423795700073,0.5209601974487305,0.10185035318136215,0.8701772689819336,0.859,,,,,,
41,48,2400,-56.419441684329364,0.018411271274089813,0.018411271274089813,0.20080295205116272,0.43234344482421877,0.19975638389587402,1.077216386795044,0.5423479843139648,0.1318480372428894,0.9403642416000366,0.856,,,,,,
42,49,2450,-53.035709370116464,0.028388740494847298,0.028388740494847298,0.3493081033229828,0.4236616516113281,0.18936355412006378,0.9817472696304321,0.6282352066040039,0.11089105904102325,0.8795866966247559,0.853,,,,,,
43,50,2500,-41.507332452900634,0.02154482901096344,0.02154482901096344,0.2731553912162781,0.43580265045166017,0.1818835586309433,0.9772989749908447,0.598513526916504,0.14516818523406982,0.8619025349617004,0.85,1.2112942346936129,4,0.522,0.886,-114.28659032613112,-114.28659032613109
44,51,2550,-45.74664020943611,0.01878444105386734,0.01878444105386734,0.23340918123722076,0.40510807037353513,0.16359417140483856,0.8589582443237305,0.5583528137207031,0.10228060185909271,0.7919050455093384,0.847,,,,,,
45,52,2600,-76.83044930283053,0.02351728454232216,0.02351728454232216,0.22859039902687073,0.4304193878173828,0.17958465218544006,0.9689275026321411,0.4828193664550781,0.1475803256034851,0.8308042883872986,0.844,,,,,,
46,53,2650,-59.36554031221368,0.015336861833930016,0.015336861833930016,0.164055734872818,0.43330036163330077,0.1778918355703354,1.004887580871582,0.5258849334716796,0.15685653686523438,0.9500981569290161,0.841,,,,,,
47,54,2700,-31.331068383982725,0.019804509356617928,0.019804509356617928,0.1787572056055069,0.42188785552978514,0.15727749466896057,0.866304337978363,0.5043922424316406,0.14348295331001282,0.8039242029190063,0.838,,,,,,
48,55,2750,-53.92916833086631,0.014741623774170876,0.014741623774170876,0.1536540687084198,0.43537368774414065,0.15894603729248047,0.8382792472839355,0.5318569946289062,0.10909753292798996,0.8289043307304382,0.835,,,,,,
49,56,2800,-27.807925358713554,0.024455983191728592,0.024455983191728592,0.23436522483825684,0.5083245086669922,0.1791970133781433,0.979001522064209,0.5734674835205078,0.16652002930641174,0.9521840810775757,0.832,,,,,,
50,57,2850,-46.120820427288145,0.014685999602079391,0.014685999602079391,0.1444178819656372,0.42459903717041014,0.16276127099990845,0.8420875072479248,0.5277055358886719,0.1334202140569687,0.8433699607849121,0.829,,,,,,
51,58,2900,-56.34691078433203,0.024960733950138092,0.024960733950138092,0.19714714586734772,0.4371902847290039,0.1712321788072586,0.936058521270752,0.5118688201904297,0.14178922772407532,0.8348244428634644,0.8260000000000001,,,,,,
52,59,2950,-86.53888168534036,0.026158466935157776,0.026158466935157776,0.18223808705806732,0.41934024810791015,0.16537202894687653,0.9292528629302979,0.5095719909667968,0.1758786141872406,0.8353816270828247,0.823,,,,,,
53,60,3000,-56.52540197158503,0.028556443750858307,0.028556443750858307,0.21171002089977264,0.4925791168212891,0.18132196366786957,0.9908180832862854,0.6120763778686523,0.15889139473438263,0.9487752318382263,0.82,,,,,,
54,61,3050,-50.31623192679,0.02764863334596157,0.02764863334596157,0.234102264046669,0.5036869430541993,0.17968913912773132,0.9796932935714722,0.5721509552001953,0.17578457295894623,1.016560435295105,0.817,,,,,,
55,62,3100,-62.2311533409752,0.027001919224858284,0.027001919224858284,0.2386222630739212,0.46200645446777344,0.16259999573230743,0.9324384331703186,0.5087657928466797,0.17452527582645416,0.8689009547233582,0.8140000000000001,,,,,,
56,63,3150,-50.53192941821961,0.0243617482483387,0.0243617482483387,0.17340987920761108,0.45213294982910157,0.1503412425518036,0.840735912322998,0.5191215515136719,0.1369752436876297,0.8089382648468018,0.8109999999999999,,,,,,
57,64,3200,-43.01770499212953,0.03151877969503403,0.03151877969503403,0.2914426028728485,0.46877464294433596,0.17139765620231628,0.9633443355560303,0.4976601409912109,0.1764165163040161,1.0180103778839111,0.808,,,,,,
58,65,3250,-42.800087008934206,0.014906900003552437,0.014906900003552437,0.13466818630695343,0.4282746505737305,0.1411343514919281,0.7735275030136108,0.49939594268798826,0.1371966451406479,0.7908721566200256,0.8049999999999999,,,,,,
59,66,3300,-50.325778670212976,0.033150430768728256,0.033150430768728256,0.31384527683258057,0.44083702087402343,0.14323574304580688,0.841705322265625,0.45836868286132815,0.18798433244228363,0.7902945280075073,0.802,,,,,,
60,67,3350,-53.55533481213863,0.02795070968568325,0.02795070968568325,0.25333449244499207,0.4382586288452148,0.1431940495967865,0.8934975862503052,0.4474120330810547,0.19496344029903412,0.8277492523193359,0.7989999999999999,,,,,,
61,68,3400,-64.87973358477947,0.02450874261558056,0.02450874261558056,0.1764797568321228,0.4477953720092773,0.15437762439250946,0.9441118240356445,0.5263139343261719,0.1580762416124344,0.8904296159744263,0.796,,,,,,
62,69,3450,-64.43738412409346,0.028413336724042892,0.028413336724042892,0.3058428466320038,0.44116809844970706,0.13962802290916443,0.9036847352981567,0.43457286834716796,0.1788206249475479,0.8410414457321167,0.7929999999999999,,,,,,
63,70,3500,-77.33174126358387,0.029463954269886017,0.029463954269886017,0.21384643018245697,0.4225307083129883,0.13472168147563934,0.7713629007339478,0.46577991485595704,0.2035810798406601,0.8438720107078552,0.79,,,,,,
64,71,3550,-70.37073251030799,0.023016545921564102,0.023016545921564102,0.1301300972700119,0.3651329803466797,0.13529929518699646,0.7492822408676147,0.45064525604248046,0.1894034445285797,0.8388312458992004,0.787,,,,,,
65,72,3600,-75.39392291606245,0.037022799253463745,0.037022799253463745,0.45325353741645813,0.42184547424316404,0.12363039702177048,0.7996986508369446,0.37063945770263673,0.18615271151065826,0.7132217884063721,0.784,,,,,,
66,73,3650,-67.43036861509567,0.027733923867344856,0.027733923867344856,0.261851966381073,0.42409461975097656,0.14880405366420746,0.8770269751548767,0.4573543548583984,0.1784972995519638,0.8909164667129517,0.7809999999999999,,,,,,
67,74,3700,-78.9739865119302,0.023980626836419106,0.023980626836419106,0.31451985239982605,0.363197021484375,0.13602091372013092,0.8751379251480103,0.34568084716796876,0.1458081156015396,0.6771112680435181,0.778,,,,,,
68,75,3750,-32.220391063191244,0.03359618037939072,0.03359618037939072,0.43105417490005493,0.45430381774902345,0.15236495435237885,0.8699073195457458,0.4032229232788086,0.20318295061588287,0.8470075130462646,0.775,1.4607497190488414,4,0.41,0.68,-112.07849583066277,-112.07849583066277
69,76,3800,-72.4774521663447,0.026114337146282196,0.026114337146282196,0.2770407795906067,0.34746421813964845,0.12073720246553421,0.7037193179130554,0.3341239547729492,0.1926075965166092,0.7984817028045654,0.772,,,,,,
70,77,3850,-62.11492741272234,0.04031914845108986,0.04031914845108986,0.4448161721229553,0.4774827575683594,0.15276658535003662,1.009016513824463,0.4453387451171875,0.20465293526649475,0.8460900783538818,0.769,,,,,,
71,78,3900,-60.86597617866199,0.036519765853881836,0.036519765853881836,0.1505020707845688,0.41732009887695315,0.1410922408103943,0.8178120255470276,0.5285818481445312,0.20326752960681915,0.8123648166656494,0.766,,,,,,
72,79,3950,-88.1611065939531,0.05706965550780296,0.05706965550780296,0.7322517037391663,0.4163884353637695,0.1568136215209961,0.8439386487007141,0.2673368453979492,0.22958964109420776,0.8120502233505249,0.763,,,,,,
73,80,4000,-47.99786528171917,0.02407865598797798,0.02407865598797798,0.21865864098072052,0.3350486755371094,0.14214707911014557,0.9698940515518188,0.3556377029418945,0.19815604388713837,0.8287888765335083,0.76,,,,,,
74,81,4050,-83.18672171700683,0.05426456406712532,0.05426456406712532,0.5023671388626099,0.3797393798828125,0.1522884964942932,0.7743610143661499,0.2990778160095215,0.27262943983078003,0.836606502532959,0.757,,,,,,
75,82,4100,-48.13013582732691,0.03330342471599579,0.03330342471599579,0.24739006161689758,0.395181884765625,0.13840168714523315,0.9405006170272827,0.41973526000976563,0.21215547621250153,0.830761194229126,0.754,,,,,,
76,83,4150,-105.36666408635497,0.025141313672065735,0.025141313672065735,0.22041401267051697,0.3311545944213867,0.1347542107105255,0.7948081493377686,0.3351483917236328,0.21664150059223175,0.8205854892730713,0.751,,,,,,
77,84,4200,-33.46964558819008,0.031734295189380646,0.031734295189380646,0.15297682583332062,0.35365642547607423,0.14513662457466125,0.8179177045822144,0.4357817840576172,0.2403162568807602,0.834766685962677,0.748,,,,,,
78,85,4250,-69.62085650025516,0.03752627968788147,0.03752627968788147,0.5095470547676086,0.3740712738037109,0.14574594795703888,0.810465931892395,0.3001102828979492,0.1872207075357437,0.7804412841796875,0.745,,,,,,
79,86,4300,-79.80647803021807,0.02466278336942196,0.02466278336942196,0.17446355521678925,0.3142730903625488,0.1303236335515976,0.7069706916809082,0.3669929504394531,0.1907162219285965,0.7860832214355469,0.742,,,,,,
80,87,4350,-57.04679944098749,0.03511117771267891,0.03511117771267891,0.4454163908958435,0.34168285369873047,0.13559231162071228,0.8677537441253662,0.2843601989746094,0.17774435877799988,0.7839677929878235,0.739,,,,,,
81,88,4400,-42.57890584600277,0.03908604755997658,0.03908604755997658,0.3288007080554962,0.32003875732421877,0.1158636137843132,0.6628113985061646,0.3161919403076172,0.24782492220401764,0.7832384705543518,0.736,,,,,,
82,89,4450,-98.49197611357741,0.03525315970182419,0.03525315970182419,0.4923478960990906,0.34416942596435546,0.14521776139736176,0.7802913188934326,0.276709041595459,0.18390871584415436,0.7579271197319031,0.733,,,,,,
83,90,4500,-40.58616996018277,0.027753055095672607,0.027753055095672607,0.29466041922569275,0.26420122146606445,0.1041991114616394,0.7063024044036865,0.23597675323486328,0.18390102684497833,0.6651821732521057,0.73,,,,,,
84,91,4550,-45.07318749319061,0.01853087916970253,0.01853087916970253,0.16911862790584564,0.3247101974487305,0.11684554815292358,0.7551242709159851,0.3592073440551758,0.16657350957393646,0.723345935344696,0.727,,,,,,
85,92,4600,-71.82390960113308,0.044623106718063354,0.044623106718063354,0.6583525538444519,0.3234740447998047,0.162861168384552,1.1215574741363525,0.2012835121154785,0.19267544150352478,0.7224398255348206,0.724,,,,,,
86,93,4650,-115.2307008645877,0.029567349702119827,0.029567349702119827,0.2331436723470688,0.3071536445617676,0.12126784771680832,0.6298781633377075,0.3152958488464355,0.21661099791526794,0.8796639442443848,0.721,,,,,,
87,94,4700,-48.62668581942693,0.02597493678331375,0.02597493678331375,0.33601871132850647,0.2793995666503906,0.14388126134872437,0.6962573528289795,0.2658231735229492,0.19648918509483337,0.7839896082878113,0.718,,,,,,
88,95,4750,-81.13759390014162,0.029204823076725006,0.029204823076725006,0.2605777680873871,0.2866070747375488,0.11611475050449371,0.6741827726364136,0.2889790725708008,0.2052619308233261,0.673150897026062,0.7150000000000001,,,,,,
89,96,4800,-84.29738885345063,0.030614160001277924,0.030614160001277924,0.36416298151016235,0.24409746170043944,0.12262937426567078,0.7247622609138489,0.2026352882385254,0.1802048534154892,0.7759259939193726,0.712,,,,,,
90,97,4850,-65.56172931990068,0.02904696762561798,0.02904696762561798,0.2968086302280426,0.2526428413391113,0.12276305258274078,0.7114500999450684,0.2549786758422852,0.19852249324321747,0.774211585521698,0.7090000000000001,,,,,,
91,98,4900,-61.461983526534084,0.03274405002593994,0.03274405002593994,0.22553706169128418,0.2499058723449707,0.10995800048112869,0.690472424030304,0.26663726806640625,0.2475641816854477,0.7835462093353271,0.706,,,,,,
92,99,4950,-58.34974747004163,0.024059787392616272,0.024059787392616272,0.15949928760528564,0.22516269683837892,0.10804595798254013,0.5210321545600891,0.2470747184753418,0.2115316241979599,0.7411648631095886,0.703,,,,,,
93,100,5000,-48.820699178642286,0.030409295111894608,0.030409295111894608,0.2515636384487152,0.2638674545288086,0.13789401948451996,0.8136492371559143,0.2894317245483398,0.1950829029083252,0.870674729347229,0.7,1.2672524336223996,5,0.616,0.766,-131.0072256242725,-131.0072256242725
94,101,5050,-87.27486368632171,0.024630766361951828,0.024630766361951828,0.22545070946216583,0.24475568771362305,0.11165623366832733,0.6502732038497925,0.2621305274963379,0.20051783323287964,0.7798571586608887,0.6970000000000001,,,,,,
95,102,5100,-47.02422702746308,0.02864108979701996,0.02864108979701996,0.3422122299671173,0.26976036071777343,0.16661813855171204,1.2371691465377808,0.2848244857788086,0.17520968616008759,0.6861330270767212,0.694,,,,,,
96,103,5150,-51.45592567584347,0.02420586161315441,0.02420586161315441,0.239608034491539,0.24323841094970702,0.12425457686185837,0.781217634677887,0.2559319305419922,0.1862100511789322,0.7600053548812866,0.6910000000000001,,,,,,
97,104,5200,-74.12258142903723,0.015382247045636177,0.015382247045636177,0.16710935533046722,0.20387489318847657,0.12529979646205902,0.7654228806495667,0.25296361923217775,0.13619838654994965,0.605124831199646,0.688,,,,,,
98,105,5250,-57.83066235552952,0.029969409108161926,0.029969409108161926,0.22133871912956238,0.24686771392822265,0.1538689136505127,1.1025140285491943,0.32425483703613284,0.2024238258600235,0.8070321679115295,0.685,,,,,,
99,106,5300,-83.97348102121222,0.023738965392112732,0.023738965392112732,0.17198409140110016,0.22877962112426758,0.11366073787212372,0.57947838306427,0.27866912841796876,0.19448697566986084,0.7618674635887146,0.6819999999999999,,,,,,
100,107,5350,-94.81525675656229,0.02313918061554432,0.02313918061554432,0.23250311613082886,0.18195335388183595,0.12588223814964294,0.6080607175827026,0.19752094268798828,0.17946532368659973,0.7166494727134705,0.679,,,,,,
101,108,5400,-80.33959258872734,0.02600044198334217,0.02600044198334217,0.37555861473083496,0.25078668594360354,0.19061768054962158,1.0981694459915161,0.287656307220459,0.18762098252773285,0.7583454847335815,0.6759999999999999,,,,,,
102,109,5450,-55.32048489443472,0.0243246927857399,0.0243246927857399,0.20959050953388214,0.21825725555419923,0.13858775794506073,0.8283143043518066,0.35751350402832033,0.18942099809646606,0.8412498831748962,0.673,,,,,,
103,110,5500,-88.45151547409164,0.022003063932061195,0.022003063932061195,0.2625542879104614,0.21100248336791994,0.15114277601242065,0.8067284822463989,0.29882871627807617,0.16828729212284088,0.7146129608154297,0.67,,,,,,
104,111,5550,-70.99053346740783,0.02274766005575657,0.02274766005575657,0.31016576290130615,0.15961654663085936,0.09378782659769058,0.4900292158126831,0.36249977111816406,0.15019743144512177,0.7140506505966187,0.667,,,,,,
105,112,5600,-49.13585125450133,0.023672528564929962,0.023672528564929962,0.11742894351482391,0.22261835098266602,0.11454366892576218,0.5612678527832031,0.3434741973876953,0.2006979137659073,0.7706067562103271,0.6639999999999999,,,,,,
106,113,5650,-71.86341933072299,0.024443933740258217,0.024443933740258217,0.20323306322097778,0.18301136016845704,0.1408253014087677,0.9552592635154724,0.3276522445678711,0.18783260881900787,0.7245916128158569,0.661,,,,,,
107,114,5700,-63.48098958009615,0.023464664816856384,0.023464664816856384,0.19687527418136597,0.18929822921752928,0.11970595270395279,0.5922483205795288,0.3486278533935547,0.1898999661207199,0.7468733191490173,0.6579999999999999,,,,,,
108,115,5750,-75.12259664214866,0.020514946430921555,0.020514946430921555,0.25069084763526917,0.21273643493652344,0.1599593460559845,1.19089674949646,0.39092517852783204,0.15442323684692383,0.9463704824447632,0.655,,,,,,
109,116,5800,-75.19314239617981,0.018700115382671356,0.018700115382671356,0.20664706826210022,0.21685375213623048,0.13566085696220398,0.8293372392654419,0.3482648849487305,0.14504636824131012,0.6881844997406006,0.652,,,,,,
110,117,5850,-152.76007632123398,0.026541775092482567,0.026541775092482567,0.30612632632255554,0.18896308898925782,0.11071009188890457,0.714077353477478,0.3868402862548828,0.18623855710029602,0.7461897730827332,0.649,,,,,,
111,118,5900,-129.25128910312466,0.018744295462965965,0.018744295462965965,0.14176933467388153,0.18343463897705078,0.12255559116601944,0.5130159854888916,0.331248893737793,0.17961297929286957,0.7651894092559814,0.646,,,,,,
112,119,5950,-97.5583732967114,0.025305163115262985,0.025305163115262985,0.23439207673072815,0.16823677062988282,0.12248368561267853,0.46594804525375366,0.3462396240234375,0.1939914971590042,0.714358925819397,0.643,,,,,,
113,120,6000,-69.63284884252782,0.01773236133158207,0.01773236133158207,0.20613382756710052,0.20297195434570312,0.10513196140527725,0.4691460132598877,0.37103824615478515,0.15031428635120392,0.738406777381897,0.6399999999999999,,,,,,
114,121,6050,-80.35088610246697,0.021260429173707962,0.021260429173707962,0.2689923346042633,0.1710043716430664,0.11454165726900101,0.7315390110015869,0.3523173522949219,0.15636911988258362,0.7402646541595459,0.637,,,,,,
115,122,6100,-72.14994278682124,0.019035911187529564,0.019035911187529564,0.20489348471164703,0.22092391967773437,0.14400427043437958,0.7688449621200562,0.38045291900634765,0.16367988288402557,0.7665407657623291,0.634,,,,,,
116,123,6150,-81.19983494733376,0.026882030069828033,0.026882030069828033,0.3458517789840698,0.18443166732788085,0.1108972355723381,0.47177934646606445,0.39727664947509767,0.17147649824619293,0.8344041109085083,0.631,,,,,,
117,124,6200,-46.71321640495022,0.02057342231273651,0.02057342231273651,0.17560923099517822,0.20649282455444337,0.1178879365324974,0.5893431305885315,0.3619558334350586,0.13793021440505981,0.6934735774993896,0.628,,,,,,
118,125,6250,-127.12172904799628,0.0298154354095459,0.0298154354095459,0.4903087019920349,0.17422283172607422,0.10922276228666306,0.46034693717956543,0.44333580017089846,0.1453879326581955,0.8316993713378906,0.625,1.3842055672128641,5,0.41,0.658,-131.92600722962405,-131.92600722962405
119,126,6300,-138.59637401609436,0.027772461995482445,0.027772461995482445,0.35781458020210266,0.2306241798400879,0.13742585480213165,0.6972218751907349,0.46763729095458983,0.15234655141830444,0.9495272636413574,0.622,,,,,,
120,127,6350,-88.87411079182073,0.0216839499771595,0.0216839499771595,0.3906581699848175,0.20549280166625977,0.10925350338220596,0.4957084655761719,0.4494683837890625,0.11901947110891342,0.7069066762924194,0.619,,,,,,
121,128,6400,-86.69230620902279,0.01801716722548008,0.01801716722548008,0.2833264470100403,0.22768180847167968,0.11315366625785828,0.5563446879386902,0.42799613952636717,0.1425323486328125,0.7590919137001038,0.616,,,,,,
122,129,6450,-76.49781949959403,0.030107703059911728,0.030107703059911728,0.4842075705528259,0.2088653564453125,0.10385069251060486,0.5150479078292847,0.4755906677246094,0.14585444331169128,0.790229856967926,0.613,,,,,,
123,130,6500,-86.76924011080426,0.02099725231528282,0.02099725231528282,0.40380510687828064,0.19820444107055665,0.09189014136791229,0.5069572925567627,0.4364213562011719,0.11039780080318451,0.6915998458862305,0.61,,,,,,
124,131,6550,-103.73633662735233,0.021930918097496033,0.021930918097496033,0.3454754054546356,0.20338171005249023,0.13069389760494232,0.9687643051147461,0.43124847412109374,0.13317939639091492,0.9513509273529053,0.607,,,,,,
125,132,6600,-48.45870331933434,0.02259894460439682,0.02259894460439682,0.22342711687088013,0.2685890197753906,0.16066747903823853,0.9835121035575867,0.4483663558959961,0.14878740906715393,0.9577997922897339,0.604,,,,,,
126,133,6650,-74.81859500517753,0.015139061957597733,0.015139061957597733,0.11867265403270721,0.30009456634521486,0.1365397870540619,0.7718629837036133,0.42609931945800783,0.12725263833999634,0.7547097206115723,0.601,,,,,,
127,134,6700,-80.92567884024835,0.017221931368112564,0.017221931368112564,0.1665424108505249,0.2935792350769043,0.12688061594963074,0.7358166575431824,0.45808761596679687,0.13309280574321747,0.7997936010360718,0.598,,,,,,
128,135,6750,-96.9267577866819,0.013330468907952309,0.013330468907952309,0.15050628781318665,0.26859867095947265,0.11116068810224533,0.5443080067634583,0.42545509338378906,0.1267249435186386,0.7247662544250488,0.595,,,,,,
129,136,6800,-54.83953978911973,0.01400282233953476,0.01400282233953476,0.2116287648677826,0.2719103813171387,0.12572990357875824,0.6954870820045471,0.45414573669433594,0.11259479075670242,0.770745038986206,0.5920000000000001,,,,,,
130,137,6850,-143.70593774044536,0.010068321600556374,0.010068321600556374,0.06444774568080902,0.2998325729370117,0.14065240323543549,0.7444018721580505,0.4212009048461914,0.14934323728084564,0.9398428797721863,0.589,,,,,,
131,138,6900,-60.49967981653994,0.018409132957458496,0.018409132957458496,0.22206303477287292,0.2777359390258789,0.13497142493724823,0.7004739046096802,0.46498497009277345,0.12399570643901825,0.761616587638855,0.586,,,,,,
132,139,6950,-126.66967759476248,0.013501063920557499,0.013501063920557499,0.23980672657489777,0.281564998626709,0.10749524086713791,0.5602123737335205,0.46310325622558596,0.09294536709785461,0.6678810119628906,0.583,,,,,,
133,140,7000,-67.89853053386669,0.010873849503695965,0.010873849503695965,0.12564416229724884,0.29563953399658205,0.12453470379114151,0.7284539937973022,0.4330553436279297,0.1342504918575287,0.7644591331481934,0.58,,,,,,
134,141,7050,-112.69414265863186,0.011768486350774765,0.011768486350774765,0.10774190723896027,0.27907035827636717,0.10735428333282471,0.6418384313583374,0.4093871307373047,0.12456443905830383,0.7192428708076477,0.577,,,,,,
135,142,7100,-79.85040503951382,0.01674836128950119,0.01674836128950119,0.11974971741437912,0.3253582000732422,0.12125156074762344,0.6460728049278259,0.473092155456543,0.13064536452293396,0.7893031239509583,0.5740000000000001,,,,,,
136,143,7150,-78.10365478284056,0.011950855143368244,0.011950855143368244,0.10423227399587631,0.30406200408935546,0.10591684281826019,0.5640922784805298,0.4169380569458008,0.10565812140703201,0.7182655334472656,0.571,,,,,,
137,144,7200,-78.12173937829334,0.014442933723330498,0.014442933723330498,0.12500636279582977,0.3268112564086914,0.11192423105239868,0.6971984505653381,0.46628196716308595,0.10237634181976318,0.8224132061004639,0.5680000000000001,,,,,,
138,145,7250,-62.892809172884085,0.01077752374112606,0.01077752374112606,0.11350300163030624,0.3248750686645508,0.1070888340473175,0.6992769837379456,0.46251846313476563,0.10439082980155945,0.7293137311935425,0.565,,,,,,
139,146,7300,-66.16288629767973,0.014439523220062256,0.014439523220062256,0.18297573924064636,0.32859657287597654,0.12867507338523865,0.6874490976333618,0.5052606964111328,0.09330127388238907,0.773051381111145,0.5619999999999999,,,,,,
140,147,7350,-102.91491795211536,0.016316130757331848,0.016316130757331848,0.17619653046131134,0.3255335235595703,0.1366346776485443,0.8012614250183105,0.4881128692626953,0.12885728478431702,0.7829521894454956,0.5589999999999999,,,,,,
141,148,7400,-80.03140851512107,0.012291394174098969,0.012291394174098969,0.1439054012298584,0.34854942321777344,0.13401851058006287,0.6961575150489807,0.46535942077636716,0.11259175091981888,0.8099422454833984,0.556,,,,,,
142,149,7450,-69.34385325469067,0.014153626747429371,0.014153626747429371,0.09228735417127609,0.3867394256591797,0.13717757165431976,0.9615803360939026,0.5050535583496094,0.13609880208969116,0.9605998992919922,0.5529999999999999,,,,,,
143,150,7500,-48.9937294400917,0.010027105920016766,0.010027105920016766,0.0846189558506012,0.29227415084838865,0.09589731693267822,0.588824987411499,0.4029538345336914,0.10601162165403366,0.6643394827842712,0.55,1.2494061761967032,4,0.618,0.842,-113.59433396275043,-113.5943339627504
144,151,7550,-89.86329636064141,0.01674327626824379,0.01674327626824379,0.16735954582691193,0.3876181411743164,0.13659285008907318,0.9620953798294067,0.46809677124023436,0.18966907262802124,0.9608191847801208,0.547,,,,,,
145,152,7600,-78.16352832765457,0.01311588753014803,0.01311588753014803,0.10781566798686981,0.36259788513183594,0.12653368711471558,0.7215451002120972,0.47977291107177733,0.10192225128412247,0.8227729797363281,0.5439999999999999,,,,,,
146,153,7650,-37.78945874919873,0.01083847414702177,0.01083847414702177,0.09685753285884857,0.3675812149047852,0.1423576921224594,0.7087734937667847,0.45477756500244143,0.14316841959953308,0.8070403933525085,0.5409999999999999,,,,,,
147,154,7700,-49.686297539125235,0.01335219293832779,0.01335219293832779,0.12574699521064758,0.33276756286621095,0.11382300406694412,0.6327280402183533,0.4115394973754883,0.09318125247955322,0.6569425463676453,0.538,,,,,,
148,155,7750,-95.39089568112513,0.016955727711319923,0.016955727711319923,0.20023667812347412,0.329366455078125,0.1372881531715393,0.7002419233322144,0.4945887756347656,0.1294507533311844,0.7368351221084595,0.5349999999999999,,,,,,
149,156,7800,-85.65424444685128,0.012961375527083874,0.012961375527083874,0.13961787521839142,0.3565970993041992,0.134489506483078,0.8716525435447693,0.49551136016845704,0.13102000951766968,0.7813339233398438,0.532,,,,,,
150,157,7850,-69.70010142028777,0.013317444361746311,0.013317444361746311,0.1441352665424347,0.3454563140869141,0.12608753144741058,0.6801134943962097,0.4824761962890625,0.13425950706005096,0.8347193002700806,0.529,,,,,,
151,158,7900,-66.993552553971,0.00953014474362135,0.00953014474362135,0.0646236315369606,0.3384168243408203,0.11793254315853119,0.7117868661880493,0.43011280059814455,0.10734904557466507,0.8043258190155029,0.526,,,,,,
152,159,7950,-37.93775433530837,0.015130789019167423,0.015130789019167423,0.07719521969556808,0.3462162780761719,0.11279065907001495,0.6701440811157227,0.435487174987793,0.12962424755096436,0.7101345658302307,0.5229999999999999,,,,,,
153,160,8000,-97.17395939456382,0.01096385344862938,0.01096385344862938,0.10477113723754883,0.3382048416137695,0.12522733211517334,0.9432904720306396,0.41166378021240235,0.11770430207252502,0.9612554311752319,0.52,,,,,,
154,161,8050,-58.741806006584994,0.012582700699567795,0.012582700699567795,0.10658738762140274,0.3304569244384766,0.1121281310915947,0.6004489064216614,0.41391231536865236,0.12997418642044067,0.6775352954864502,0.517,,,,,,
155,162,8100,-63.237336909315395,0.01317689660936594,0.01317689660936594,0.13946573436260223,0.37242218017578127,0.15129542350769043,0.8107421398162842,0.4559610366821289,0.13855141401290894,0.833861768245697,0.514,,,,,,
156,163,8150,-72.7757197888858,0.008730978704988956,0.008730978704988956,0.09195590019226074,0.34083927154541016,0.12409012019634247,0.6712538599967957,0.40684974670410157,0.14463916420936584,0.770880937576294,0.511,,,,,,
157,164,8200,-87.09815124093495,0.013644623570144176,0.013644623570144176,0.1160646602511406,0.3455978012084961,0.12552841007709503,0.8975009322166443,0.46353233337402344,0.14954474568367004,0.9537984132766724,0.508,,,,,,
158,165,8250,-87.9840173311548,0.01267092302441597,0.01267092302441597,0.16358838975429535,0.3689566421508789,0.12881146371364594,0.8012428283691406,0.4226519775390625,0.12014671415090561,0.7744544148445129,0.5049999999999999,,,,,,
159,166,8300,-75.59241018759084,0.015136796049773693,0.015136796049773693,0.11194994300603867,0.35530773162841794,0.11324580013751984,0.6929668188095093,0.4356090545654297,0.1436578780412674,0.757175087928772,0.502,,,,,,
160,167,8350,-39.80439048325094,0.012234481982886791,0.012234481982886791,0.14609254896640778,0.35363094329833983,0.12548281252384186,0.6895394325256348,0.4177409744262695,0.10869181901216507,0.7636297345161438,0.499,,,,,,
161,168,8400,-86.99030978574064,0.016881678253412247,0.016881678253412247,0.27344223856925964,0.3862257766723633,0.12693700194358826,0.7739294171333313,0.43213912963867185,0.1340489238500595,0.7891910076141357,0.4959999999999999,,,,,,
162,169,8450,-91.14999087000825,0.010788075625896454,0.010788075625896454,0.14238718152046204,0.34863460540771485,0.12389283627271652,0.6631567478179932,0.48095733642578126,0.11077291518449783,0.7082047462463379,0.493,,,,,,
163,170,8500,-54.80059990573758,0.013652818277478218,0.013652818277478218,0.10871454328298569,0.3644179153442383,0.11610136181116104,0.6429813504219055,0.4918228530883789,0.12829197943210602,0.7262166142463684,0.49,,,,,,
164,171,8550,-42.26237971273479,0.014742753468453884,0.014742753468453884,0.1209557056427002,0.3347963333129883,0.12008145451545715,0.70412677526474,0.4704608154296875,0.1343907117843628,0.7108500003814697,0.487,,,,,,
165,172,8600,-61.76753223507782,0.009905790910124779,0.009905790910124779,0.08556344360113144,0.34551860809326174,0.10853073000907898,0.5797476172447205,0.45814994812011717,0.09003507345914841,0.7178006172180176,0.484,,,,,,
166,173,8650,-64.42830630782916,0.014141393825411797,0.014141393825411797,0.14611640572547913,0.33304271697998045,0.11187905818223953,0.6603714227676392,0.40466358184814455,0.13864032924175262,0.696134626865387,0.481,,,,,,
167,174,8700,-92.34253370386666,0.012949232012033463,0.012949232012033463,0.19289566576480865,0.38223312377929686,0.14108458161354065,0.7947100400924683,0.4485045623779297,0.10906115174293518,0.907843828201294,0.478,,,,,,
168,175,8750,-84.07960092070635,0.013777014799416065,0.013777014799416065,0.09974317252635956,0.34645748138427734,0.10838553309440613,0.6381247043609619,0.46574546813964846,0.1132165864109993,0.7068618535995483,0.475,1.4810549574926373,5,0.324,0.628,-106.95593270271215,-106.95593270271215
169,176,8800,-74.63001308031836,0.014429355040192604,0.014429355040192604,0.15157075226306915,0.3207829284667969,0.09913326799869537,0.5883306860923767,0.3821432113647461,0.14797855913639069,0.7596349120140076,0.472,,,,,,
170,177,8850,-97.69197902224805,0.014744823798537254,0.014744823798537254,0.15708591043949127,0.3539538192749023,0.10980059951543808,0.6897554993629456,0.4959557342529297,0.12060682475566864,0.7483611106872559,0.469,,,,,,
171,178,8900,-68.93426758743573,0.013863635249435902,0.013863635249435902,0.0988503098487854,0.3480619812011719,0.14116819202899933,0.7785654067993164,0.4672109603881836,0.13727538287639618,0.9054909348487854,0.46599999999999997,,,,,,
172,179,8950,-89.51619133570945,0.012914009392261505,0.012914009392261505,0.19058869779109955,0.3932941436767578,0.13487927615642548,0.7932356595993042,0.4676353073120117,0.13820724189281464,0.8720133304595947,0.46299999999999997,,,,,,
173,180,9000,-43.07779941554197,0.01852312684059143,0.01852312684059143,0.12698768079280853,0.36033775329589846,0.11624430119991302,0.6406782269477844,0.4531142425537109,0.157797172665596,0.8049525618553162,0.45999999999999996,,,,,,
174,181,9050,-75.02164696655333,0.01051145326346159,0.01051145326346159,0.07602386921644211,0.3253327941894531,0.11008705943822861,0.6344399452209473,0.4124748992919922,0.14226742088794708,0.8623412251472473,0.45699999999999996,,,,,,
175,182,9100,-92.33945442532546,0.014489050023257732,0.014489050023257732,0.09180387109518051,0.37268043518066407,0.13057734072208405,0.7100896239280701,0.5035791397094727,0.13374929130077362,0.7926384806632996,0.45399999999999996,,,,,,
176,183,9150,-39.694685164457404,0.012815067544579506,0.012815067544579506,0.10597492009401321,0.35111480712890625,0.11045848578214645,0.6077187061309814,0.4392933654785156,0.1245964989066124,0.7424801588058472,0.45099999999999996,,,,,,
177,184,9200,-81.40797806923268,0.014322892762720585,0.014322892762720585,0.07481134682893753,0.37180164337158206,0.12633898854255676,0.7714824676513672,0.46485836029052735,0.14586400985717773,0.8276597857475281,0.44800000000000006,,,,,,
178,185,9250,-72.13566653636948,0.015130025334656239,0.015130025334656239,0.16212861239910126,0.35156158447265623,0.13347339630126953,0.744826078414917,0.4289298248291016,0.1470010131597519,0.7846283912658691,0.44499999999999995,,,,,,
179,186,9300,-48.16616536000223,0.009914580732584,0.009914580732584,0.07409784197807312,0.352331657409668,0.11235640197992325,0.5995186567306519,0.4428125762939453,0.11195298284292221,0.8248673677444458,0.44199999999999995,,,,,,
180,187,9350,-36.8660262195396,0.012284457683563232,0.012284457683563232,0.06488393992185593,0.36610610961914064,0.10865399986505508,0.609860360622406,0.48579849243164064,0.10843554884195328,0.7674568891525269,0.43900000000000006,,,,,,
181,188,9400,-61.47229284145136,0.010065947659313679,0.010065947659313679,0.08871994912624359,0.33348861694335935,0.10322306305170059,0.6510456800460815,0.4256668472290039,0.1082485094666481,0.6659401059150696,0.43599999999999994,,,,,,
182,189,9450,-94.45869101865121,0.012396829202771187,0.012396829202771187,0.10060462355613708,0.3596421051025391,0.11335437744855881,0.6786882281303406,0.46131889343261717,0.11826509237289429,0.6913446187973022,0.43299999999999994,,,,,,
183,190,9500,-72.90802892987547,0.013509698212146759,0.013509698212146759,0.12736691534519196,0.318410758972168,0.13959304988384247,0.6990900039672852,0.3919532775878906,0.13112762570381165,0.6627262830734253,0.43000000000000005,,,,,,
184,191,9550,-60.90992916234702,0.014908995479345322,0.014908995479345322,0.1340407133102417,0.31721012115478514,0.11536963284015656,0.6400717496871948,0.4536547088623047,0.14839495718479156,0.8000352382659912,0.42699999999999994,,,,,,
185,192,9600,-66.1861057137023,0.014713245443999767,0.014713245443999767,0.14098285138607025,0.34606929779052736,0.10763330012559891,0.6030254364013672,0.43845066070556643,0.1298493891954422,0.7066011428833008,0.42399999999999993,,,,,,
186,193,9650,-67.41482953985577,0.015645699575543404,0.015645699575543404,0.13355278968811035,0.31453771591186525,0.10845008492469788,0.6440478563308716,0.3962115478515625,0.13313761353492737,0.7667145729064941,0.42100000000000004,,,,,,
187,194,9700,-138.0483675745679,0.010855534113943577,0.010855534113943577,0.08914661407470703,0.35029705047607423,0.13063010573387146,0.7098103165626526,0.4444122314453125,0.15330852568149567,0.8933438062667847,0.41800000000000004,,,,,,
188,195,9750,-65.69356670758434,0.011418798007071018,0.011418798007071018,0.07588896155357361,0.3170433807373047,0.10387396067380905,0.6187602281570435,0.42648998260498044,0.12219585478305817,0.7014563083648682,0.4149999999999999,,,,,,
189,196,9800,-214.59973768658915,0.009723219089210033,0.009723219089210033,0.06811107695102692,0.32006202697753905,0.1114596500992775,0.5476024150848389,0.41274932861328123,0.10805457085371017,0.6893023252487183,0.41200000000000003,,,,,,
190,197,9850,-60.03336842189688,0.010718567296862602,0.010718567296862602,0.15664918720722198,0.3227017211914063,0.10717574506998062,0.745969295501709,0.3732445526123047,0.13644033670425415,0.8167542815208435,0.40900000000000003,,,,,,
191,198,9900,-99.19283707792735,0.010820895433425903,0.010820895433425903,0.10740673542022705,0.3439476013183594,0.12679553031921387,0.7114030122756958,0.442742919921875,0.13094055652618408,0.8249009847640991,0.4059999999999999,,,,,,
192,199,9950,-35.00244090458977,0.011532404460012913,0.011532404460012913,0.14195246994495392,0.30264476776123045,0.1088876873254776,0.5868008136749268,0.43279430389404294,0.12453002482652664,0.6702958345413208,0.403,,,,,,
193,200,10000,-59.42995150474993,0.015349317342042923,0.015349317342042923,0.08246885985136032,0.3194087791442871,0.10450194776058197,0.5882286429405212,0.4274704742431641,0.15081006288528442,0.8047875165939331,0.4,1.4224198702694684,5,0.404,0.702,-90.50861945285881,-90.50861945285882
194,201,10050,-68.47337301152335,0.010181711055338383,0.010181711055338383,0.08386307954788208,0.323416748046875,0.1296146661043167,0.7690076231956482,0.4360734176635742,0.16297240555286407,1.1028038263320923,0.3969999999999999,,,,,,
195,202,10100,-64.16165780553514,0.014814503490924835,0.014814503490924835,0.14845970273017883,0.3525740432739258,0.11444593966007233,0.6684329509735107,0.477368049621582,0.14213040471076965,0.8438063859939575,0.394,,,,,,
196,203,10150,-59.45030720215956,0.011123580858111382,0.011123580858111382,0.07637883722782135,0.33977294921875,0.12453536689281464,0.6765263080596924,0.4471148681640625,0.12394514679908752,0.9001436233520508,0.391,,,,,,
197,204,10200,-91.15605495537969,0.014764667488634586,0.014764667488634586,0.1236967220902443,0.34580291748046876,0.12160280346870422,0.6552579402923584,0.45015247344970705,0.13374780118465424,0.7422375679016113,0.3879999999999999,,,,,,
198,205,10250,-65.81470232547697,0.01311654131859541,0.01311654131859541,0.12884463369846344,0.3191118812561035,0.1022007092833519,0.6333990693092346,0.4587979507446289,0.10254031419754028,0.7518438100814819,0.385,,,,,,
199,206,10300,-73.35557921081516,0.015384435653686523,0.015384435653686523,0.21609866619110107,0.3379185104370117,0.10328936576843262,0.6201181411743164,0.5130374145507812,0.10557083785533905,0.7929304838180542,0.382,,,,,,
200,207,10350,-73.9291484029128,0.014523135498166084,0.014523135498166084,0.0951380655169487,0.37502029418945315,0.12205705791711807,0.6688908934593201,0.5031757736206055,0.12886632978916168,0.8959201574325562,0.379,,,,,,
201,208,10400,-67.61358421291138,0.012765291146934032,0.012765291146934032,0.11836357414722443,0.3539616775512695,0.11179282516241074,0.6876600980758667,0.48628414154052735,0.11585424840450287,0.9088461399078369,0.376,,,,,,
202,209,10450,-44.527573401189606,0.015182645060122013,0.015182645060122013,0.1253584623336792,0.32056167602539065,0.10587352514266968,0.5994436144828796,0.4244839859008789,0.14754106104373932,0.7176458835601807,0.373,,,,,,
203,210,10500,-58.82665028804158,0.012138583697378635,0.012138583697378635,0.17740318179130554,0.3069717788696289,0.10329798609018326,0.5994079113006592,0.45799034118652343,0.11189492791891098,0.7974302768707275,0.37,,,,,,
204,211,10550,-57.304492863150024,0.011784320697188377,0.011784320697188377,0.08329395949840546,0.35555831909179686,0.10446552187204361,0.6374084949493408,0.45324302673339845,0.106892891228199,0.8299551010131836,0.367,,,,,,
205,212,10600,-101.62674938431657,0.006913759745657444,0.006913759745657444,0.05846230313181877,0.2636473846435547,0.09943529963493347,0.5419102907180786,0.33984611511230467,0.12164641171693802,0.6495122313499451,0.364,,,,,,
206,213,10650,-136.1856189124861,0.013631208799779415,0.013631208799779415,0.1807301938533783,0.25201633453369143,0.10612034052610397,0.5217896103858948,0.3097201156616211,0.16406677663326263,0.6522011756896973,0.361,,,,,,
207,214,10700,-62.929227866825194,0.011190774850547314,0.011190774850547314,0.12208102643489838,0.3324321746826172,0.1194230243563652,0.6354930400848389,0.4184951019287109,0.16432161629199982,0.7582623958587646,0.358,,,,,,
208,215,10750,-62.531613153405026,0.010642793029546738,0.010642793029546738,0.06515876948833466,0.3233144760131836,0.11156698316335678,0.6254094839096069,0.4172325897216797,0.1172741949558258,0.7563298344612122,0.355,,,,,,
209,216,10800,-80.78979383978668,0.01484713889658451,0.01484713889658451,0.18955613672733307,0.3397966766357422,0.1272280216217041,0.6684668064117432,0.49738285064697263,0.11747298389673233,0.7844793796539307,0.352,,,,,,
210,217,10850,-43.94277172648393,0.012914193794131279,0.012914193794131279,0.14083436131477356,0.3177413558959961,0.10925183445215225,0.6460945010185242,0.429049072265625,0.11756894737482071,0.7215200662612915,0.349,,,,,,
211,218,10900,-96.5201519894569,0.015668755397200584,0.015668755397200584,0.07418299466371536,0.3414569091796875,0.10823476314544678,0.6310402750968933,0.4592328262329102,0.13680660724639893,0.7755831480026245,0.346,,,,,,
212,219,10950,-62.99131957856994,0.011555015109479427,0.011555015109479427,0.1199200451374054,0.30585872650146484,0.11191049963235855,0.63047194480896,0.37630409240722656,0.11956816166639328,0.6661744117736816,0.34299999999999997,,,,,,
213,220,11000,-55.05352919837972,0.008746318519115448,0.008746318519115448,0.07747331261634827,0.31798046112060546,0.10051282495260239,0.562140941619873,0.4154983139038086,0.0938219204545021,0.6517471075057983,0.3400000000000001,,,,,,
214,221,11050,-37.62225486803727,0.013770690187811852,0.013770690187811852,0.13691577315330505,0.37541923522949217,0.11522837728261948,0.6815488338470459,0.4577638244628906,0.12429337203502655,0.7830135226249695,0.33699999999999997,,,,,,
215,222,11100,-45.64970226863681,0.012577550485730171,0.012577550485730171,0.09434221684932709,0.32464599609375,0.1017180010676384,0.5698257684707642,0.4443115997314453,0.12070821225643158,0.7089663743972778,0.33399999999999996,,,,,,
216,223,11150,-88.7287249351648,0.013654181733727455,0.013654181733727455,0.1739262342453003,0.3274510955810547,0.1199067085981369,0.705855131149292,0.4401546478271484,0.11933564394712448,0.8429920077323914,0.33100000000000007,,,,,,
217,224,11200,-98.09318041902979,0.009562809020280838,0.009562809020280838,0.0679752379655838,0.3401117706298828,0.11623120307922363,0.6616455316543579,0.4340650939941406,0.14172880351543427,0.8772871494293213,0.32799999999999996,,,,,,
218,225,11250,-54.93797672137954,0.013235288672149181,0.013235288672149181,0.11423324048519135,0.27595638275146483,0.10986427217721939,0.5733104944229126,0.3465766906738281,0.16684922575950623,0.7017616629600525,0.32499999999999996,1.5229769391064973,5,0.358,0.61,-79.58068868639414,-79.58068868639415
219,226,11300,-61.37015766607466,0.009968548081815243,0.009968548081815243,0.09069709479808807,0.3252218246459961,0.0987948551774025,0.6188106536865234,0.4066670989990234,0.12751396000385284,0.6842311024665833,0.32200000000000006,,,,,,
220,227,11350,-90.63054366644903,0.014338650740683079,0.014338650740683079,0.12005764245986938,0.31402624130249024,0.09935787320137024,0.5937358140945435,0.4439295959472656,0.12133607268333435,0.6866225004196167,0.31899999999999995,,,,,,
221,228,11400,-48.28328956361392,0.009902535006403923,0.009902535006403923,0.11120107769966125,0.2837474632263184,0.10102628916501999,0.5706595182418823,0.42469058990478514,0.1168396845459938,0.7046169638633728,0.31599999999999995,,,,,,
222,229,11450,-53.02006087241646,0.006734376773238182,0.006734376773238182,0.08256714791059494,0.28815839767456053,0.11201528459787369,0.5712100267410278,0.41689376831054686,0.1131269708275795,0.7176633477210999,0.31300000000000006,,,,,,
223,230,11500,-46.08871507658805,0.011514646001160145,0.011514646001160145,0.0889546275138855,0.32038341522216796,0.11744235455989838,0.6626164317131042,0.4182612991333008,0.15447671711444855,0.7678632140159607,0.30999999999999994,,,,,,
224,231,11550,-45.18077270381046,0.010879406705498695,0.010879406705498695,0.09085975587368011,0.3184391975402832,0.10006266832351685,0.5875788927078247,0.4189061737060547,0.14793884754180908,0.7781966328620911,0.30699999999999994,,,,,,
225,232,11600,-79.57182737395841,0.011308452114462852,0.011308452114462852,0.14204397797584534,0.28297948837280273,0.09638029336929321,0.5298546552658081,0.4225244140625,0.11218169331550598,0.6825737953186035,0.30400000000000005,,,,,,
226,233,11650,-49.80513505392454,0.008729864843189716,0.008729864843189716,0.07592994719743729,0.3013713645935059,0.104038767516613,0.6803267598152161,0.4060991668701172,0.1325703114271164,0.8369420766830444,0.30100000000000005,,,,,,
227,234,11700,-40.95831338035454,0.014083526097238064,0.014083526097238064,0.18441486358642578,0.29635435104370117,0.10432398319244385,0.5595229864120483,0.45107460021972656,0.16105343401432037,0.7763299942016602,0.29799999999999993,,,,,,
228,235,11750,-50.456980004545045,0.008695939555764198,0.008695939555764198,0.07581889629364014,0.30745941162109375,0.09940401464700699,0.6640658378601074,0.4018074417114258,0.1275317668914795,0.7785226106643677,0.29500000000000004,,,,,,
229,236,11800,-52.990703443608,0.007797779515385628,0.007797779515385628,0.05712832510471344,0.3050836181640625,0.09800577163696289,0.5742069482803345,0.3988355255126953,0.10461704432964325,0.697765588760376,0.29200000000000004,,,,,,
230,237,11850,-46.35591672456326,0.011245667934417725,0.011245667934417725,0.1721406877040863,0.2986676788330078,0.1165502518415451,0.6653134822845459,0.4558765411376953,0.11154807358980179,0.777887761592865,0.2889999999999999,,,,,,
231,238,11900,-63.673449687660025,0.010215900838375092,0.010215900838375092,0.2055579572916031,0.30694883346557617,0.08978530764579773,0.5240950584411621,0.34244590759277344,0.12498510628938675,0.7364591360092163,0.28600000000000003,,,,,,
232,239,11950,-79.32684582823963,0.010978725738823414,0.010978725738823414,0.09211764484643936,0.3204705810546875,0.122124083340168,0.6657239198684692,0.4374151611328125,0.1537790447473526,0.7772766947746277,0.28300000000000003,,,,,,
233,240,12000,-54.34472220485563,0.010374925099313259,0.010374925099313259,0.12140852957963943,0.33164104461669924,0.11032349616289139,0.5978399515151978,0.4206362533569336,0.1435142606496811,0.8101465106010437,0.2799999999999999,,,,,,
234,241,12050,-91.19707989659136,0.008921168744564056,0.008921168744564056,0.06266969442367554,0.32870964050292967,0.1038675606250763,0.6102306246757507,0.44755863189697265,0.1292598992586136,0.8067189455032349,0.277,,,,,,
235,242,12100,-57.313544947979466,0.013095682486891747,0.013095682486891747,0.15623079240322113,0.34459861755371096,0.1066611111164093,0.67256760597229,0.43329811096191406,0.14146575331687927,0.7341902852058411,0.274,,,,,,
236,243,12150,-44.46386848680169,0.00919337011873722,0.00919337011873722,0.07490528374910355,0.33047977447509763,0.12563680112361908,0.6986156702041626,0.4202157974243164,0.13839365541934967,0.8232212066650391,0.2709999999999999,,,,,,
237,244,12200,-47.76992531193835,0.010648339055478573,0.010648339055478573,0.11352347582578659,0.34616321563720703,0.11105989664793015,0.6012701988220215,0.4383384704589844,0.12337233871221542,0.7029674053192139,0.268,,,,,,
238,245,12250,-157.6624002238986,0.008798966184258461,0.008798966184258461,0.07844898104667664,0.265418701171875,0.12310238182544708,0.674541711807251,0.35499961853027345,0.12074695527553558,0.6227585673332214,0.265,,,,,,
239,246,12300,-40.35548406622834,0.010377765633165836,0.010377765633165836,0.1709340512752533,0.27852783203125,0.11548680067062378,0.5903418660163879,0.4384023284912109,0.1064172014594078,0.7306268215179443,0.262,,,,,,
240,247,12350,-51.43379206539182,0.011426111683249474,0.011426111683249474,0.08969322592020035,0.31457719802856443,0.09817539900541306,0.5247660875320435,0.4528132247924805,0.1137763038277626,0.7272616028785706,0.259,,,,,,
241,248,12400,-92.89605771990128,0.012691996060311794,0.012691996060311794,0.13495317101478577,0.3749422836303711,0.09826480597257614,0.6756554841995239,0.45381172180175783,0.12973859906196594,0.7680704593658447,0.256,,,,,,
242,249,12450,-63.03037321341257,0.0102159408852458,0.0102159408852458,0.0737190991640091,0.33988094329833984,0.10905628651380539,0.5986233949661255,0.44034709930419924,0.13623552024364471,0.7467074394226074,0.253,,,,,,
243,250,12500,-70.32009836321623,0.009208522737026215,0.009208522737026215,0.11403750628232956,0.2861682891845703,0.09347765892744064,0.5246135592460632,0.37476280212402346,0.12085049599409103,0.5981447100639343,0.25,1.510135352341794,5,0.3,0.59,-120.59073426057287,-120.59073426057287
244,251,12550,-118.61063220313929,0.008991783484816551,0.008991783484816551,0.07544952630996704,0.31240793228149416,0.10197377949953079,0.697415828704834,0.4168540954589844,0.10759849846363068,0.8272772431373596,0.247,,,,,,
245,252,12600,-116.0337278819124,0.010601631365716457,0.010601631365716457,0.09476710855960846,0.2531637954711914,0.09368426352739334,0.571151614189148,0.37687843322753906,0.13826291263103485,0.6728543639183044,0.244,,,,,,
246,253,12650,-96.79853834734331,0.01387007161974907,0.01387007161974907,0.10291460156440735,0.335921630859375,0.1229986846446991,0.6437973380088806,0.4467694854736328,0.13660679757595062,0.7605472803115845,0.241,,,,,,
247,254,12700,-51.25116943635887,0.011940080672502518,0.011940080672502518,0.14071796834468842,0.2983632469177246,0.11092908680438995,0.603455126285553,0.44033477783203123,0.13858404755592346,0.7208806872367859,0.238,,,,,,
248,255,12750,-45.70444144030483,0.011379062198102474,0.011379062198102474,0.2211340218782425,0.30841938018798826,0.08614087104797363,0.5642392635345459,0.3683785629272461,0.15051384270191193,0.7967200875282288,0.235,,,,,,
249,256,12800,-65.85316252234833,0.008967352099716663,0.008967352099716663,0.09093906730413437,0.30684772491455076,0.09646079689264297,0.5309485793113708,0.3939060592651367,0.12477519363164902,0.6647493243217468,0.23199999999999998,,,,,,
250,257,12850,-44.573472303001296,0.007623029872775078,0.007623029872775078,0.05505535751581192,0.2855046272277832,0.11919817328453064,0.7108103036880493,0.38923980712890627,0.13926301896572113,0.8817058205604553,0.22899999999999998,,,,,,
251,258,12900,-64.85393431001283,0.010994072072207928,0.010994072072207928,0.09075247496366501,0.344989128112793,0.11479528993368149,0.7015368938446045,0.43535953521728515,0.1587606519460678,0.8241910934448242,0.22599999999999998,,,,,,
252,259,12950,-71.96505803089563,0.010900544933974743,0.010900544933974743,0.15704873204231262,0.33393680572509765,0.10400687903165817,0.6339226961135864,0.41172557830810547,0.1627875119447708,0.9125001430511475,0.22299999999999998,,,,,,
253,260,13000,-57.78495850321007,0.008836990222334862,0.008836990222334862,0.0696844756603241,0.28393251419067383,0.11340603977441788,0.5787928104400635,0.38881759643554686,0.10039826482534409,0.7006913423538208,0.21999999999999997,,,,,,
254,261,13050,-41.65326912486531,0.010325447656214237,0.010325447656214237,0.0863422155380249,0.2923081588745117,0.10580401867628098,0.5768625736236572,0.41423477172851564,0.1363464593887329,0.6887612342834473,0.21699999999999997,,,,,,
255,262,13100,-46.691068845069466,0.008556992746889591,0.008556992746889591,0.08062294870615005,0.299189453125,0.12433536350727081,0.5727403163909912,0.38606800079345704,0.13531948626041412,0.7097772359848022,0.21399999999999997,,,,,,
256,263,13150,-256.5412657355571,0.009330445900559425,0.009330445900559425,0.08972659707069397,0.3259281158447266,0.0985489934682846,0.6417649388313293,0.40520736694335935,0.12200701236724854,0.6894645690917969,0.21099999999999997,,,,,,
257,264,13200,-58.36337253274388,0.009047724306583405,0.009047724306583405,0.06532865017652512,0.2900166893005371,0.12517236173152924,0.589529275894165,0.39960693359375,0.15131670236587524,0.7198584079742432,0.20799999999999996,,,,,,
258,265,13250,-85.25474607704714,0.010266005992889404,0.010266005992889404,0.08640974014997482,0.3085784339904785,0.10331981629133224,0.5657747983932495,0.4245722198486328,0.15691082179546356,0.7446479797363281,0.20499999999999996,,,,,,
259,266,13300,-115.390719419033,0.0073163677006959915,0.0073163677006959915,0.055772118270397186,0.23584455490112305,0.08718564361333847,0.48354312777519226,0.3283769989013672,0.0999898761510849,0.5415518283843994,0.20199999999999996,,,,,,
260,267,13350,-64.0842544832549,0.010418414138257504,0.010418414138257504,0.13158810138702393,0.3598154830932617,0.11423147469758987,0.643812358379364,0.46110771179199217,0.10140255093574524,0.7169483304023743,0.19899999999999995,,,,,,
261,268,13400,-90.0736465458946,0.007880594581365585,0.007880594581365585,0.10008728504180908,0.3576717758178711,0.10621195286512375,0.5997681021690369,0.44071651458740235,0.10505452752113342,0.7064518332481384,0.19599999999999995,,,,,,
262,269,13450,-79.6933957653649,0.0070949518121778965,0.0070949518121778965,0.10370302945375443,0.29243629455566406,0.08551611006259918,0.524207353591919,0.4158612823486328,0.08637555688619614,0.6400941610336304,0.19300000000000006,,,,,,
263,270,13500,-44.149350419619005,0.007936757057905197,0.007936757057905197,0.11226092278957367,0.333891716003418,0.09906581044197083,0.6622656583786011,0.44857177734375,0.11738971620798111,0.8071386814117432,0.18999999999999995,,,,,,
264,271,13550,-92.41547796770303,0.008234847337007523,0.008234847337007523,0.09896497428417206,0.32723297119140626,0.09401047229766846,0.5917221307754517,0.40906223297119143,0.12064502388238907,0.7663029432296753,0.18699999999999994,,,,,,
265,272,13600,-45.223762694205405,0.008788686245679855,0.008788686245679855,0.09742755442857742,0.3026587677001953,0.09510111063718796,0.5970385670661926,0.4122695159912109,0.11267488449811935,0.756702184677124,0.18400000000000005,,,,,,
266,273,13650,-81.93134581174296,0.008463382720947266,0.008463382720947266,0.14098931849002838,0.28343957901000977,0.11194731295108795,0.5956313610076904,0.3611881256103516,0.1378634124994278,0.7846629619598389,0.18099999999999994,,,,,,
267,274,13700,-82.40370193200393,0.009766090661287308,0.009766090661287308,0.17832238972187042,0.2836726188659668,0.13736943900585175,0.6602033376693726,0.33327056884765627,0.20480108261108398,0.8050715923309326,0.17799999999999994,,,,,,
268,275,13750,-32.43183952431926,0.011593559756875038,0.011593559756875038,0.16533909738063812,0.28752525329589845,0.11409307271242142,0.6185905337333679,0.3862996292114258,0.15788042545318604,0.8427406549453735,0.17500000000000004,1.5065796082779233,5,0.352,0.624,-59.59469302780256,-59.59469302780256
269,276,13800,-36.5924187411248,0.008702711202204227,0.008702711202204227,0.1586289405822754,0.2720960807800293,0.08873490989208221,0.4867287278175354,0.3356438064575195,0.11903757601976395,0.5550285577774048,0.17199999999999993,,,,,,
270,277,13850,-53.818957820687864,0.010762328281998634,0.010762328281998634,0.15470321476459503,0.3145291709899902,0.09383615851402283,0.587546169757843,0.47639984130859375,0.09521105140447617,0.6740330457687378,0.16899999999999993,,,,,,
271,278,13900,-101.50585262988821,0.0072417063638567924,0.0072417063638567924,0.06276016682386398,0.3058522415161133,0.08063698559999466,0.508942723274231,0.4140785217285156,0.11140341311693192,0.7806137204170227,0.16600000000000004,,,,,,
272,279,13950,-39.14196273306751,0.006974559277296066,0.006974559277296066,0.05508628487586975,0.25551643371582033,0.08852659165859222,0.48962584137916565,0.36860286712646484,0.0953100249171257,0.5984227061271667,0.16299999999999992,,,,,,
273,280,14000,-129.2152496471109,0.00918362382799387,0.00918362382799387,0.0809953510761261,0.27469146728515625,0.11992108821868896,0.5863454341888428,0.39031387329101563,0.1404726356267929,0.8013869524002075,0.15999999999999992,,,,,,
274,281,14050,-56.39705487402742,0.008972189389169216,0.008972189389169216,0.06719466298818588,0.27515228271484377,0.09141054004430771,0.5303891897201538,0.38839962005615236,0.12934812903404236,0.6955509185791016,0.15700000000000003,,,,,,
275,282,14100,-60.02940683676894,0.009437194094061852,0.009437194094061852,0.07792918384075165,0.287802734375,0.12465111166238785,0.6373516917228699,0.3998612976074219,0.13598179817199707,0.927897572517395,0.15400000000000003,,,,,,
276,283,14150,-72.03686297495759,0.00777282752096653,0.00777282752096653,0.0594230480492115,0.28315187454223634,0.09334507584571838,0.5088683366775513,0.3904897689819336,0.11338034272193909,0.7191736698150635,0.1509999999999999,,,,,,
277,284,14200,-33.72863734594109,0.00661485968157649,0.00661485968157649,0.06504202634096146,0.3029555130004883,0.09453856199979782,0.5405676364898682,0.3993371963500977,0.12886810302734375,0.7979863882064819,0.14800000000000002,,,,,,
278,285,14250,-40.02452552315579,0.007090798579156399,0.007090798579156399,0.12866918742656708,0.35969329833984376,0.09703079611063004,0.6005567908287048,0.43274974822998047,0.08960659056901932,0.7986059188842773,0.14500000000000002,,,,,,
279,286,14300,-44.71524837903892,0.009016169235110283,0.009016169235110283,0.13556388020515442,0.26925622940063476,0.09692241251468658,0.5321230292320251,0.41114776611328124,0.11330264806747437,0.691466212272644,0.1419999999999999,,,,,,
280,287,14350,-45.73492247318995,0.011806035414338112,0.011806035414338112,0.142927348613739,0.28478796005249024,0.10687992721796036,0.5882117748260498,0.42908554077148436,0.13186942040920258,0.70749831199646,0.139,,,,,,
281,288,14400,-74.68612882220424,0.008741590194404125,0.008741590194404125,0.1649613380432129,0.2872913360595703,0.11910098046064377,0.6169682145118713,0.3847918319702148,0.1534164696931839,0.7401522994041443,0.136,,,,,,
282,289,14450,-64.81191270029322,0.009742239490151405,0.009742239490151405,0.08953381329774857,0.2997714996337891,0.11955893784761429,0.5837906002998352,0.4244923400878906,0.1368831843137741,0.7734503149986267,0.1329999999999999,,,,,,
283,290,14500,-61.22566540214835,0.008297540247440338,0.008297540247440338,0.08965060114860535,0.27146751403808594,0.11582259833812714,0.5621511936187744,0.3549897003173828,0.16934548318386078,0.7614021301269531,0.13,,,,,,
284,291,14550,-52.972947500151115,0.005458056461066008,0.005458056461066008,0.05489306151866913,0.2702958106994629,0.08267475664615631,0.5002546906471252,0.3857038116455078,0.10306460410356522,0.6609218120574951,0.127,,,,,,
285,292,14600,-43.599015231280134,0.0065306490287184715,0.0065306490287184715,0.04624199494719505,0.31330453872680664,0.08578631281852722,0.5227082371711731,0.4108998107910156,0.08709387481212616,0.649791955947876,0.12399999999999989,,,,,,
286,293,14650,-96.62444053286761,0.006477185525000095,0.006477185525000095,0.05542368441820145,0.3091302490234375,0.08054355531930923,0.5310108661651611,0.4073320388793945,0.10061684995889664,0.6536194682121277,0.121,,,,,,
287,294,14700,-48.107048893613786,0.007409968413412571,0.007409968413412571,0.09039006382226944,0.3142169189453125,0.09747812896966934,0.5222199559211731,0.44123233795166017,0.08838270604610443,0.6853528618812561,0.118,,,,,,
288,295,14750,-113.78326136372024,0.00791310053318739,0.00791310053318739,0.06907909363508224,0.25299131393432617,0.09782290458679199,0.5425743460655212,0.36623081207275393,0.1308392435312271,0.6304459571838379,0.11499999999999999,,,,,,
289,296,14800,-149.7234909313328,0.007622718811035156,0.007622718811035156,0.07177125662565231,0.3013096237182617,0.10490961372852325,0.5750364065170288,0.40899951934814455,0.1228933185338974,0.6823965907096863,0.11199999999999999,,,,,,
290,297,14850,-96.26327334877092,0.008307423442602158,0.008307423442602158,0.11939471960067749,0.2764286231994629,0.0906091257929802,0.5498868227005005,0.4249619674682617,0.09539751708507538,0.6979527473449707,0.10899999999999999,,,,,,
291,298,14900,-88.8319240997181,0.006312382407486439,0.006312382407486439,0.04615774750709534,0.304532470703125,0.08461333066225052,0.53599613904953,0.4026514434814453,0.09657729417085648,0.7596211433410645,0.10599999999999998,,,,,,
292,299,14950,-31.795409540467787,0.006263155955821276,0.006263155955821276,0.09124753624200821,0.2683660888671875,0.07787799090147018,0.4571577310562134,0.371580810546875,0.09138677269220352,0.5916423797607422,0.10299999999999998,,,,,,
293,300,15000,-57.13316718903898,0.007541111204773188,0.007541111204773188,0.06884577870368958,0.29010189056396485,0.10490848869085312,0.5232648849487305,0.3924062728881836,0.11063450574874878,0.7833431959152222,0.1,1.4180405267593914,4,0.368,0.64,-73.27413203309281,-73.27413203309281
