FS-tar/marl-mpe-learning/outputs/qmix_mpe/simple_spread/run007/train_log.csv
update,episode,total_steps,train_team_return,td_loss,grad_norm,q_tot_mean,target_q_tot_mean,epsilon,eval_team_return,eval_mean_agent_return
0,25,2500,-92.6986186319004,,,,,0.9625,-312.56929532837285,-312.5692953283729
1,30,3000,-148.24254941635024,1.7891300916671753,11.60818099975586,1.3229352235794067,3.50911545753479,0.955,,
2,31,3020,-21.434609806557937,1.4620317220687866,10.967984199523926,1.4229817390441895,3.271541118621826,0.9547,,
3,31,3040,-32.80386493813431,1.2093511819839478,10.675378799438477,1.6980962753295898,3.2805349826812744,0.9544,,
4,31,3060,-44.42542670319075,1.14971125125885,11.966300964355469,2.263148784637451,3.761727809906006,0.9541,,
5,31,3080,-77.96186712510882,0.8252769708633423,9.509686470031738,1.7341986894607544,2.9277164936065674,0.9538,,
6,31,3100,-116.85723598271453,0.7643576264381409,7.413578033447266,2.085177421569824,3.02150297164917,0.9535,,
7,32,3120,-20.069353121967115,0.7713632583618164,9.24038314819336,2.4358503818511963,3.458796977996826,0.9532,,
8,32,3140,-46.843602399268406,0.5570321679115295,6.220007419586182,2.545076608657837,3.1917009353637695,0.9529,,
9,32,3160,-64.03243328707465,0.4864785671234131,6.278074264526367,2.2874159812927246,2.9655776023864746,0.9526,,
10,32,3180,-82.63954596291651,0.5377240777015686,6.643233776092529,2.498762607574463,3.1804561614990234,0.9523,,
11,32,3200,-99.35234528265134,0.4882667362689972,4.814210414886475,2.9725489616394043,3.3402421474456787,0.952,,
12,33,3220,-30.067782825104047,0.542510449886322,4.005560398101807,3.0417675971984863,3.286708116531372,0.9517,,
13,33,3240,-63.37619492872474,0.5061444640159607,4.437126636505127,3.33655047416687,3.4354653358459473,0.9514,,
14,33,3260,-103.60979467918831,0.3526262640953064,4.299367904663086,2.908999443054199,3.061738967895508,0.9511000000000001,,
15,33,3280,-153.68062434792645,0.3988514840602875,4.587863922119141,3.220825433731079,3.131666421890259,0.9508,,
16,33,3300,-191.69786038367278,0.3540892004966736,4.336610794067383,3.2339229583740234,3.1341969966888428,0.9505,,
17,34,3320,-23.564817212468053,0.35734817385673523,3.769073009490967,3.2547311782836914,3.166181802749634,0.9502,,
18,34,3340,-46.08446337389881,0.39450013637542725,4.1515655517578125,3.172823190689087,2.9778237342834473,0.9499,,
19,34,3360,-70.3244578028856,0.31194519996643066,3.9490256309509277,3.2912487983703613,3.215463399887085,0.9496,,
20,34,3380,-100.83041053332902,0.38105887174606323,5.068698883056641,3.377150535583496,3.102475166320801,0.9493,,
21,34,3400,-134.092884683491,0.2883884012699127,3.818202257156372,3.317324638366699,3.1079885959625244,0.949,,
22,35,3420,-15.621073735379353,0.35695329308509827,4.74483060836792,3.510385036468506,3.309363842010498,0.9487,,
23,35,3440,-36.918063534515575,0.28137433528900146,4.942955493927002,3.680694818496704,3.427410364151001,0.9484,,
24,35,3460,-58.491819738168395,0.25230860710144043,3.9679887294769287,3.731478691101074,3.5210466384887695,0.9480999999999999,,
25,35,3480,-87.7405901653588,0.30020764470100403,4.030059337615967,3.4065136909484863,3.1781904697418213,0.9478,,
26,35,3500,-130.25889884047623,0.1937456876039505,3.0944340229034424,3.386819839477539,3.2366323471069336,0.9475,,
27,36,3520,-22.590810089039145,0.3023250997066498,3.070711135864258,3.389343738555908,3.193129777908325,0.9472,,
28,36,3540,-45.8593482166207,0.29807913303375244,3.330355644226074,3.5092482566833496,3.282022714614868,0.9469,,
29,36,3560,-82.80777176503646,0.21116980910301208,2.6323394775390625,3.5012614727020264,3.4885241985321045,0.9466,,
30,36,3580,-129.0034120215228,0.267633318901062,2.4872970581054688,3.6249032020568848,3.624107837677002,0.9463,,
31,36,3600,-182.1335522394664,0.28187984228134155,3.8934078216552734,3.46158504486084,3.418471097946167,0.946,,
32,37,3620,-20.232328121534252,0.26556432247161865,4.707006454467773,3.6693673133850098,3.849424362182617,0.9457,,
33,37,3640,-47.88595970262653,0.3082753121852875,4.360489845275879,3.240344285964966,3.3646903038024902,0.9454,,
34,37,3660,-73.07508093997885,0.2140292227268219,3.7561962604522705,3.4192800521850586,3.5132877826690674,0.9451,,
35,37,3680,-110.97377803229512,0.17816303670406342,2.8814563751220703,3.7465076446533203,3.8625683784484863,0.9448,,
36,37,3700,-142.59074379520587,0.13531793653964996,2.490279197692871,3.442106246948242,3.5330119132995605,0.9445,,
37,38,3720,-18.347518161363386,0.3522619307041168,3.1918649673461914,3.9166975021362305,3.8183000087738037,0.9442,,
38,38,3740,-42.90195571910412,0.17275547981262207,2.2572336196899414,3.4790284633636475,3.4780032634735107,0.9439,,
39,38,3760,-69.03258527822429,0.1545366495847702,2.4309940338134766,3.4348573684692383,3.531914710998535,0.9436,,
40,38,3780,-100.137476664871,0.21367187798023224,2.258484125137329,3.6278998851776123,3.607713460922241,0.9433,,
41,38,3800,-137.25979789834292,0.21430814266204834,2.6863210201263428,3.3544089794158936,3.4553914070129395,0.943,,
42,39,3820,-24.649380245412676,0.16055366396903992,2.878721237182617,3.312875747680664,3.4350733757019043,0.9427,,
43,39,3840,-45.16936683282961,0.19091449677944183,4.105548858642578,3.19108510017395,3.132401466369629,0.9424,,
44,39,3860,-69.5520149713638,0.17776823043823242,1.8874684572219849,3.2106029987335205,3.1797244548797607,0.9420999999999999,,
45,39,3880,-98.10960358568806,0.14009571075439453,3.0284945964813232,3.5964205265045166,3.6657328605651855,0.9418,,
46,39,3900,-128.47214622840966,0.15628023445606232,3.4398739337921143,3.799116611480713,3.7330217361450195,0.9415,,
47,40,3920,-12.268548932816651,0.16322292387485504,2.540313959121704,3.55153751373291,3.591684341430664,0.9412,,
48,40,3940,-29.113338557811026,0.168523907661438,3.0466127395629883,3.3283395767211914,3.2364792823791504,0.9409,,
49,40,3960,-43.537237968310954,0.11951326578855515,2.399578809738159,3.13901686668396,3.137822151184082,0.9406,,
50,40,3980,-63.51447637004964,0.14546577632427216,2.3457412719726562,3.742177963256836,3.7435479164123535,0.9403,,
51,40,4000,-87.07104766805188,0.15936613082885742,2.6558473110198975,3.560663938522339,3.4866983890533447,0.94,,
52,41,4020,-17.3327638051383,0.11933048814535141,3.53129506111145,3.85693359375,3.918294906616211,0.9397,,
53,41,4040,-40.62909184382745,0.13891912996768951,2.5574188232421875,3.5291757583618164,3.5224452018737793,0.9394,,
54,41,4060,-58.63488826540383,0.0909944549202919,1.9367495775222778,3.573869228363037,3.583763599395752,0.9391,,
55,41,4080,-77.28914732639504,0.16906940937042236,1.515067219734192,3.4469807147979736,3.3760488033294678,0.9388,,
56,41,4100,-100.19369795384921,0.10245124995708466,1.7718145847320557,3.309814691543579,3.2842280864715576,0.9385,,
57,42,4120,-23.190209267638878,0.13529720902442932,1.4609004259109497,3.4344561100006104,3.3970694541931152,0.9382,,
58,42,4140,-50.15508325322794,0.17088158428668976,1.706459641456604,3.549503803253174,3.442321300506592,0.9379,,
59,42,4160,-87.23898980895495,0.1589796543121338,2.067298650741577,3.484297275543213,3.490206718444824,0.9376,,
60,42,4180,-133.8893821617754,0.10823249816894531,2.581068754196167,3.7695236206054688,3.753202438354492,0.9373,,
61,42,4200,-186.86808042077453,0.12370214611291885,1.77847158908844,3.1659843921661377,3.1492881774902344,0.9369999999999999,,
62,43,4220,-29.6456512544009,0.2018766850233078,2.2132279872894287,3.8757710456848145,3.7878921031951904,0.9367,,
63,43,4240,-56.18496178369082,0.19092212617397308,3.173311948776245,3.6420247554779053,3.5505893230438232,0.9364,,
64,43,4260,-78.49818154137697,0.16655997931957245,2.5554897785186768,4.169316291809082,4.1037373542785645,0.9361,,
65,43,4280,-108.62283079599945,0.18169215321540833,2.2922003269195557,4.185760974884033,4.086174011230469,0.9358,,
66,43,4300,-132.15861924865456,0.10685506463050842,1.9468717575073242,3.412374258041382,3.4167160987854004,0.9355,,
67,44,4320,-8.694413779912008,0.10463715344667435,2.8124496936798096,3.516481399536133,3.4642436504364014,0.9352,,
68,44,4340,-20.81236493347,0.11129510402679443,2.827195405960083,4.100022315979004,4.1559672355651855,0.9349,,
69,44,4360,-34.03148734006862,0.17920581996440887,2.605989933013916,4.084558010101318,4.042235374450684,0.9346,,
70,44,4380,-50.82461664641533,0.10715934634208679,2.4604737758636475,3.636849880218506,3.6562280654907227,0.9343,,
71,44,4400,-79.78994581536129,0.10049162060022354,2.081601619720459,3.846632719039917,3.8806843757629395,0.9339999999999999,,
72,45,4420,-28.90482791044861,0.09372315555810928,2.765752077102661,3.6956052780151367,3.7551119327545166,0.9337,,
73,45,4440,-59.74614704197868,0.08891235291957855,2.001544952392578,3.4263172149658203,3.502166271209717,0.9334,,
74,45,4460,-110.61766905239249,0.30754390358924866,2.6025378704071045,3.958568572998047,3.854018211364746,0.9331,,
75,45,4480,-172.96677915915043,0.1702394038438797,3.7639617919921875,3.948718547821045,3.9595069885253906,0.9328,,
76,45,4500,-223.56581226148933,0.1362367868423462,2.762075424194336,4.3083038330078125,4.362826824188232,0.9325,,
77,46,4520,-17.498795477945457,0.11488212645053864,2.6005802154541016,3.92616605758667,3.912350654602051,0.9322,,
78,46,4540,-37.99721756420849,0.23401999473571777,2.3883750438690186,3.794259786605835,3.6704490184783936,0.9319,,
79,46,4560,-57.43919540269714,0.12730947136878967,2.7151880264282227,3.7524752616882324,3.75905179977417,0.9316,,
80,46,4580,-76.93087051882208,0.07396485656499863,2.728145122528076,3.7924370765686035,3.8010334968566895,0.9313,,
81,46,4600,-98.98767122183638,0.12250649929046631,2.848726749420166,3.7015609741210938,3.65254807472229,0.931,,
82,47,4620,-23.345396368105586,0.17140793800354004,2.470794677734375,3.8836402893066406,3.7926745414733887,0.9307,,
83,47,4640,-48.85546040816363,0.17672662436962128,2.4678781032562256,3.8503479957580566,3.750112771987915,0.9304,,
84,47,4660,-81.3556911297435,0.13379429280757904,1.7966502904891968,3.648599147796631,3.616502285003662,0.9301,,
85,47,4680,-114.40364310220609,0.20929528772830963,1.514609456062317,3.8791606426239014,3.7735466957092285,0.9298,,
86,47,4700,-134.08313100453785,0.09071441739797592,2.103576183319092,4.172347068786621,4.188681602478027,0.9295,,
87,48,4720,-18.54878163679737,0.11739376932382584,2.271841526031494,4.270107269287109,4.225192546844482,0.9292,,
88,48,4740,-44.508301901309885,0.13503748178482056,2.268099069595337,3.728006362915039,3.644866943359375,0.9289000000000001,,
89,48,4760,-69.06014249416899,0.11685676872730255,2.5117313861846924,3.750908851623535,3.735996961593628,0.9286,,
90,48,4780,-90.36431209540216,0.14440932869911194,2.048044204711914,3.8652687072753906,3.8630218505859375,0.9283,,
91,48,4800,-121.27243074913326,0.10085372626781464,3.168747663497925,4.023244857788086,4.095857620239258,0.9279999999999999,,
92,49,4820,-28.50393430015323,0.14112402498722076,1.8248077630996704,4.046826362609863,3.9741172790527344,0.9277,,
93,49,4840,-60.642466737380495,0.14505672454833984,2.4268076419830322,4.089497089385986,4.072049140930176,0.9274,,
94,49,4860,-85.07935322327569,0.09085872769355774,1.380908727645874,3.481947898864746,3.4715638160705566,0.9271,,
95,49,4880,-108.72906858215268,0.19702675938606262,1.9567376375198364,3.6663641929626465,3.5374815464019775,0.9268,,
96,49,4900,-136.1905981940988,0.12361298501491547,2.9765939712524414,3.9608049392700195,3.9986300468444824,0.9265,,
97,50,4920,-22.1912420374038,0.12462887912988663,2.165137767791748,3.8352789878845215,3.775115966796875,0.9262,,
98,50,4940,-48.905266457718646,0.17543356120586395,2.1924374103546143,3.944148063659668,3.8335468769073486,0.9259,,
99,50,4960,-87.20895129662746,0.13208016753196716,2.142812967300415,3.7335376739501953,3.7451412677764893,0.9256,,
100,50,4980,-136.76082294902102,0.09368917346000671,3.089676856994629,4.3651580810546875,4.332464694976807,0.9253,,
101,50,5000,-205.52429546549453,0.12673772871494293,2.896550416946411,3.9773199558258057,3.9749057292938232,0.925,-384.38897312858217,-384.38897312858217
102,51,5020,-18.428329431598694,0.0708920806646347,1.4919241666793823,3.296807289123535,3.269570827484131,0.9247,,
103,51,5040,-35.7691599460766,0.24346046149730682,2.2334651947021484,3.767836570739746,3.6066465377807617,0.9244,,
104,51,5060,-55.82726567462384,0.11930675804615021,1.8928667306900024,4.0191121101379395,3.966391086578369,0.9241,,
105,51,5080,-80.28298288444607,0.15725396573543549,2.0664854049682617,4.15596866607666,4.061627388000488,0.9238,,
106,51,5100,-107.64750590269736,0.05836715176701546,2.2843499183654785,4.3004326820373535,4.291731834411621,0.9235,,
107,52,5120,-35.272262459456684,0.14045262336730957,2.0972845554351807,3.3469088077545166,3.2906861305236816,0.9232,,
108,52,5140,-67.12511213605758,0.2092808485031128,2.6542694568634033,4.420449256896973,4.264839172363281,0.9229,,
109,52,5160,-92.05466194269802,0.09164375066757202,2.1994893550872803,3.5963165760040283,3.623991012573242,0.9226,,
110,52,5180,-120.95308480800949,0.06159912049770355,1.9534412622451782,3.8284647464752197,3.860536575317383,0.9223,,
111,52,5200,-155.0056277632447,0.1375409960746765,2.4337189197540283,3.665156841278076,3.6451358795166016,0.922,,
112,53,5220,-35.50288055519942,0.12549585103988647,1.6718424558639526,3.9208896160125732,3.8762013912200928,0.9217,,
113,53,5240,-60.18962023055331,0.12714457511901855,2.4809765815734863,3.9734692573547363,3.9262092113494873,0.9214,,
114,53,5260,-89.10999907326996,0.11271035671234131,1.2871208190917969,3.4668474197387695,3.419098377227783,0.9211,,
115,53,5280,-115.67656369592946,0.10991405695676804,1.7135889530181885,3.384732723236084,3.3318910598754883,0.9208000000000001,,
116,53,5300,-146.47781032424479,0.09267642349004745,1.6925832033157349,4.181281089782715,4.163405418395996,0.9205,,
117,54,5320,-13.181759257443623,0.18808725476264954,2.2400028705596924,4.26016902923584,4.163369178771973,0.9202,,
118,54,5340,-25.58595031012496,0.11693497747182846,2.192034959793091,3.922039270401001,3.903323173522949,0.9198999999999999,,
119,54,5360,-37.96869512077037,0.06874607503414154,2.097263813018799,4.283283710479736,4.2881059646606445,0.9196,,
120,54,5380,-60.957319594111,0.10434159636497498,1.7679401636123657,3.801669120788574,3.7346084117889404,0.9193,,
121,54,5400,-103.65227869984659,0.18585142493247986,1.6104522943496704,3.989455223083496,3.8644909858703613,0.919,,
122,55,5420,-19.718356603684988,0.09429743140935898,1.8124628067016602,4.243284702301025,4.253283500671387,0.9187,,
123,55,5440,-36.18447851399982,0.17005662620067596,2.08785080909729,4.20637321472168,4.1450934410095215,0.9184,,
124,55,5460,-59.75863678757345,0.09646150469779968,2.488060235977173,3.9294967651367188,3.930220365524292,0.9181,,
125,55,5480,-81.52637874668386,0.08269208669662476,1.838085412979126,4.010948181152344,3.987283229827881,0.9178,,
126,55,5500,-101.4387551671252,0.08341237902641296,1.5791486501693726,3.7616286277770996,3.745352029800415,0.9175,,
127,56,5520,-18.189601184641205,0.1505979746580124,2.5516786575317383,4.100635051727295,4.070553779602051,0.9172,,
128,56,5540,-56.815769590974185,0.2919829785823822,2.189990282058716,5.0679402351379395,4.889815330505371,0.9169,,
129,56,5560,-100.04424764611355,0.06540821492671967,1.7163623571395874,4.3569817543029785,4.380792617797852,0.9166,,
130,56,5580,-141.86534033998043,0.1598142832517624,1.977736473083496,4.146758079528809,4.079408168792725,0.9163,,
131,56,5600,-170.24804741700515,0.2331293523311615,2.1459310054779053,4.2473320960998535,4.0915632247924805,0.916,,
132,57,5620,-16.213140635157313,0.3254123330116272,2.7658636569976807,4.755682945251465,4.489317893981934,0.9157,,
133,57,5640,-39.089648228920964,0.13927322626113892,1.7873756885528564,4.513922691345215,4.458473205566406,0.9154,,
134,57,5660,-63.433515748738984,0.11319659650325775,2.8360462188720703,4.454245090484619,4.3902907371521,0.9151,,
135,57,5680,-87.4715885567664,0.18586988747119904,2.7383463382720947,4.07969856262207,4.006945610046387,0.9148000000000001,,
136,57,5700,-111.29375890698994,0.16094999015331268,2.6929428577423096,3.8922290802001953,3.7889761924743652,0.9145,,
137,58,5720,-20.551011212873252,0.1128847748041153,2.0764734745025635,4.200964450836182,4.196780681610107,0.9142,,
138,58,5740,-46.02559745000137,0.11805032938718796,2.5467207431793213,4.054845809936523,4.053463459014893,0.9139,,
139,58,5760,-67.63994712977278,0.19650855660438538,3.519195318222046,4.451698303222656,4.336256504058838,0.9136,,
140,58,5780,-85.94970790783582,0.0726006031036377,2.3136062622070312,3.7797648906707764,3.8222453594207764,0.9133,,
141,58,5800,-116.82268489425888,0.07716879993677139,2.128816604614258,4.164676666259766,4.20206356048584,0.913,,
142,59,5820,-20.701986315821948,0.10860378295183182,2.178452968597412,3.997205972671509,3.968858480453491,0.9127,,
143,59,5840,-46.34217045986036,0.21638748049736023,1.9809516668319702,4.264480113983154,4.108484268188477,0.9124,,
144,59,5860,-80.8374092943125,0.05002576485276222,1.1600563526153564,3.78204345703125,3.8317079544067383,0.9121,,
145,59,5880,-111.78096863076848,0.06485302746295929,2.2926816940307617,4.742040157318115,4.751380920410156,0.9117999999999999,,
146,59,5900,-147.93853753473468,0.09655579924583435,2.521631956100464,4.4174418449401855,4.344974994659424,0.9115,,
147,60,5920,-14.457481599936948,0.11411970108747482,2.147451400756836,4.2642998695373535,4.198125839233398,0.9112,,
148,60,5940,-34.8545565209531,0.10299590229988098,2.2696661949157715,4.491578102111816,4.443068981170654,0.9109,,
149,60,5960,-56.76937044352131,0.17859312891960144,1.8450247049331665,4.518762588500977,4.3987836837768555,0.9106,,
150,60,5980,-80.21410639221983,0.30392205715179443,1.8906084299087524,4.567629337310791,4.304413795471191,0.9103,,
151,60,6000,-103.36168287231662,0.16089843213558197,1.558642029762268,4.045459747314453,3.958193302154541,0.91,,
152,61,6020,-16.37729497314823,0.04430783540010452,1.5634502172470093,3.465324878692627,3.497699022293091,0.9097,,
153,61,6040,-37.110383125412056,0.1352909952402115,3.6947154998779297,4.73469352722168,4.737832546234131,0.9094,,
154,61,6060,-55.34456099789274,0.12650936841964722,1.5383057594299316,4.421586036682129,4.369538307189941,0.9091,,
155,61,6080,-76.5790422359391,0.07334970682859421,1.2663226127624512,4.245662689208984,4.265539646148682,0.9088,,
156,61,6100,-108.0518903288925,0.1254218965768814,2.0526981353759766,4.116796493530273,4.1262359619140625,0.9085,,
157,62,6120,-14.150601406607983,0.1150178387761116,2.287107229232788,4.209390163421631,4.177833557128906,0.9082,,
158,62,6140,-33.07352882500827,0.10273710638284683,2.6071770191192627,4.318990230560303,4.284269332885742,0.9079,,
159,62,6160,-71.22506641836488,0.044151671230793,1.3761565685272217,4.100320816040039,4.099985599517822,0.9076,,
160,62,6180,-126.56924162247398,0.12876243889331818,2.4044697284698486,4.010790824890137,3.959103584289551,0.9073,,
161,62,6200,-183.0707804334875,0.05668159946799278,1.6425482034683228,3.825617790222168,3.866028308868408,0.907,,
162,63,6220,-21.83956826995137,0.048619821667671204,1.8777920007705688,4.019488334655762,4.0100417137146,0.9067,,
163,63,6240,-58.87098317849716,0.13361859321594238,1.5398757457733154,4.582993507385254,4.501068115234375,0.9064,,
164,63,6260,-111.12402539069134,0.22676609456539154,1.721138834953308,4.144911766052246,4.011643886566162,0.9061,,
165,63,6280,-171.40723968113218,0.07979071885347366,1.8702808618545532,3.8015389442443848,3.8036460876464844,0.9057999999999999,,
166,63,6300,-228.4690385580739,0.1932387351989746,1.8196877241134644,4.603095054626465,4.504645347595215,0.9055,,
167,64,6320,-17.810569823800503,0.10847969353199005,1.6889235973358154,4.71229362487793,4.6991753578186035,0.9052,,
168,64,6340,-31.581428996638017,0.17843151092529297,1.9334509372711182,4.359560489654541,4.240345001220703,0.9049,,
169,64,6360,-46.95904434975241,0.16258355975151062,2.1429388523101807,4.6605987548828125,4.531282901763916,0.9046,,
170,64,6380,-69.38101808474569,0.08640404045581818,1.9296257495880127,4.878638744354248,4.868714332580566,0.9043,,
171,64,6400,-84.21508958669278,0.12050031125545502,2.5289230346679688,4.543997764587402,4.53250789642334,0.904,,
172,65,6420,-11.748771814100966,0.26483389735221863,2.1907620429992676,4.564031600952148,4.346656322479248,0.9037,,
173,65,6440,-27.454229838506343,0.12560920417308807,2.639450788497925,4.294961452484131,4.177201747894287,0.9034,,
174,65,6460,-46.20724708605307,0.08317416906356812,1.9782707691192627,4.552439212799072,4.5620293617248535,0.9031,,
175,65,6480,-67.59871603116726,0.17902415990829468,1.9986722469329834,4.4616827964782715,4.387240886688232,0.9028,,
176,65,6500,-93.53895238836559,0.11289713531732559,1.6004209518432617,3.833714246749878,3.7817978858947754,0.9025,,
177,66,6520,-21.38438280340143,0.09064081311225891,1.4406121969223022,4.013375759124756,3.9812240600585938,0.9022,,
178,66,6540,-45.066568268852016,0.10038688778877258,1.7797901630401611,4.227603912353516,4.153271675109863,0.9019,,
179,66,6560,-70.22890486973881,0.05453266203403473,1.8338980674743652,3.863337993621826,3.890941619873047,0.9016,,
180,66,6580,-97.05347680669558,0.12903518974781036,1.6648578643798828,4.295095443725586,4.223223686218262,0.9013,,
181,66,6600,-134.74230728410183,0.06619817763566971,1.444891333580017,3.7421998977661133,3.728285312652588,0.901,,
182,67,6620,-24.159028599340164,0.0882592648267746,1.410757064819336,4.3720526695251465,4.340191841125488,0.9007,,
183,67,6640,-56.686683358195175,0.16657477617263794,2.6620144844055176,4.303162574768066,4.231781005859375,0.9004,,
184,67,6660,-97.64678286259388,0.14674949645996094,2.4936718940734863,4.6205596923828125,4.571167945861816,0.9001,,
185,67,6680,-155.23215168757065,0.1500007063150406,2.277040481567383,3.9734606742858887,3.8847055435180664,0.8997999999999999,,
186,67,6700,-222.03321046881842,0.14031539857387543,2.937944173812866,4.304294586181641,4.289431571960449,0.8995,,
187,68,6720,-21.518432125394327,0.06805723905563354,2.818957805633545,3.7720248699188232,3.7402360439300537,0.8992,,
188,68,6740,-43.07420981120451,0.04870685562491417,3.0561091899871826,4.519124984741211,4.496208190917969,0.8989,,
189,68,6760,-68.88449957144309,0.13965818285942078,3.363804578781128,4.55210018157959,4.565583229064941,0.8986,,
190,68,6780,-97.04113795567726,0.054262176156044006,1.8863818645477295,4.345777988433838,4.385478973388672,0.8983,,
191,68,6800,-132.46705060374907,0.09932190179824829,1.9519349336624146,4.504956245422363,4.506470203399658,0.898,,
192,69,6820,-23.494458590241997,0.05328334867954254,1.5953413248062134,4.566420078277588,4.5614728927612305,0.8976999999999999,,
193,69,6840,-51.09134958390936,0.11054035276174545,2.491187810897827,4.124731540679932,4.0987443923950195,0.8974,,
194,69,6860,-101.72268622763917,0.15642158687114716,2.0762667655944824,4.261018753051758,4.134928226470947,0.8971,,
195,69,6880,-166.3417675346794,0.17473982274532318,2.665208339691162,4.599269390106201,4.527346611022949,0.8968,,
196,69,6900,-231.43324785258034,0.08950238674879074,3.1194450855255127,5.291234970092773,5.263668060302734,0.8965,,
197,70,6920,-15.067614575369692,0.2362004518508911,1.9668678045272827,4.319454193115234,4.156157970428467,0.8962,,
198,70,6940,-28.136013043515,0.14797069132328033,2.3472676277160645,4.109289646148682,4.041586875915527,0.8959,,
199,70,6960,-42.841589016639,0.12115424126386642,1.7491137981414795,4.209971904754639,4.149681091308594,0.8956,,
200,70,6980,-67.99789649379777,0.17919830977916718,2.4841105937957764,4.213278770446777,4.047603607177734,0.8953,,
201,70,7000,-87.177657878942,0.08008435368537903,2.03902268409729,4.394022464752197,4.3768744468688965,0.895,,
202,71,7020,-23.559009260787327,0.16216668486595154,2.419184684753418,4.753736972808838,4.6698455810546875,0.8947,,
203,71,7040,-46.881697623818575,0.12195482850074768,2.4026265144348145,4.6697235107421875,4.61711311340332,0.8944,,
204,71,7060,-69.41199291852627,0.10733432322740555,2.094773530960083,4.602116584777832,4.553445339202881,0.8941,,
205,71,7080,-99.88495829944787,0.0808582603931427,2.385262966156006,4.221814155578613,4.242652416229248,0.8938,,
206,71,7100,-140.91175305214884,0.10048813372850418,2.215407609939575,4.607405185699463,4.597745895385742,0.8935,,
207,72,7120,-26.07930152851083,0.15697132050991058,1.959668517112732,4.358206272125244,4.282960891723633,0.8932,,
208,72,7140,-55.327286247956856,0.20053008198738098,2.740776300430298,4.79789924621582,4.696441173553467,0.8929,,
209,72,7160,-88.68679722475352,0.12238842993974686,2.0832319259643555,4.092841625213623,3.9987404346466064,0.8926000000000001,,
210,72,7180,-126.79452430497163,0.04502046853303909,1.8633908033370972,4.321807861328125,4.331098556518555,0.8923,,
211,72,7200,-171.78215930924645,0.10994291305541992,2.278423309326172,4.429052829742432,4.375349998474121,0.892,,
212,73,7220,-25.782445773976175,0.1039666011929512,2.4862723350524902,4.265899181365967,4.18599796295166,0.8916999999999999,,
213,73,7240,-50.31371300996645,0.1946682333946228,2.0243332386016846,4.188100337982178,4.0343170166015625,0.8914,,
214,73,7260,-80.5049387850507,0.10434309393167496,2.5495543479919434,4.563297271728516,4.548487663269043,0.8911,,
215,73,7280,-108.74143709259252,0.19399243593215942,2.6703832149505615,4.378076553344727,4.261209487915039,0.8908,,
216,73,7300,-129.32171304290782,0.15380139648914337,1.682510256767273,4.789026260375977,4.712316036224365,0.8905,,
217,74,7320,-25.80853000938543,0.06690914928913116,2.2985782623291016,4.347305774688721,4.344681262969971,0.8902,,
218,74,7340,-56.16213344651746,0.09390580654144287,2.572798490524292,4.884631156921387,4.852588653564453,0.8899,,
219,74,7360,-91.57962863267332,0.0630561038851738,1.339584469795227,4.1703338623046875,4.139552593231201,0.8896,,
220,74,7380,-129.5283677088481,0.13214218616485596,2.7189011573791504,4.642304420471191,4.588206768035889,0.8893,,
221,74,7400,-157.502305402875,0.13426288962364197,2.3267877101898193,4.410861492156982,4.344688415527344,0.889,,
222,75,7420,-19.940737827424133,0.10548283904790878,2.7035701274871826,5.118841171264648,5.087092399597168,0.8887,,
223,75,7440,-53.08073440672651,0.1729550063610077,2.2851650714874268,5.142839431762695,5.023444175720215,0.8884,,
224,75,7460,-79.0104486279558,0.10100571811199188,1.9187248945236206,4.887466907501221,4.831111431121826,0.8881,,
225,75,7480,-104.4033030997277,0.06193602830171585,1.8720779418945312,4.9031901359558105,4.9277753829956055,0.8878,,
226,75,7500,-134.0612514078027,0.16020052134990692,1.504150629043579,4.425480842590332,4.323321342468262,0.8875,-375.4780265759614,-375.4780265759614
227,76,7520,-15.554774229036987,0.15549150109291077,1.8895013332366943,4.743542194366455,4.66667366027832,0.8872,,
228,76,7540,-41.26323201793573,0.08054719120264053,2.0747029781341553,4.847654342651367,4.855555534362793,0.8869,,
229,76,7560,-79.09919480531484,0.0596398301422596,2.054962635040283,4.783852577209473,4.814181327819824,0.8866,,
230,76,7580,-137.8410242941233,0.088235042989254,2.819127082824707,4.7035064697265625,4.669093132019043,0.8863,,
231,76,7600,-207.01252771806173,0.05734147131443024,2.4209342002868652,4.646218299865723,4.702218055725098,0.886,,
232,77,7620,-21.22218938959839,0.12890170514583588,2.6864330768585205,4.839805603027344,4.821435928344727,0.8857,,
233,77,7640,-46.01114341770481,0.26139184832572937,3.9369266033172607,5.796697616577148,5.756455898284912,0.8854,,
234,77,7660,-67.79556727753794,0.12160401046276093,2.3072755336761475,4.9533257484436035,4.88153076171875,0.8851,,
235,77,7680,-99.35724211825462,0.14951057732105255,4.008482456207275,4.945229530334473,4.923288345336914,0.8848,,
236,77,7700,-142.5359837619051,0.21332018077373505,3.223759174346924,5.40049934387207,5.249752998352051,0.8845000000000001,,
237,78,7720,-38.86751481731527,0.12293926626443863,2.3489718437194824,4.976123809814453,4.918678283691406,0.8842,,
238,78,7740,-87.17950785617586,0.2025163620710373,2.325944185256958,5.047128200531006,4.852571487426758,0.8839,,
239,78,7760,-154.1928055583445,0.06383653730154037,2.671492576599121,5.337911128997803,5.328932762145996,0.8835999999999999,,
240,78,7780,-226.01959944010738,0.13447976112365723,2.4945175647735596,5.372607231140137,5.257719039916992,0.8833,,
241,78,7800,-305.8143450698986,0.19726668298244476,2.8296098709106445,5.363642692565918,5.216673374176025,0.883,,
242,79,7820,-18.42331078817775,0.09161493182182312,2.5139553546905518,4.445113182067871,4.389497756958008,0.8827,,
243,79,7840,-36.34149149839381,0.10697683691978455,7.189692974090576,6.487869739532471,6.417866230010986,0.8824,,
244,79,7860,-51.357261910743624,0.10233371704816818,2.100907802581787,4.930447578430176,4.934342384338379,0.8821,,
245,79,7880,-67.82281767767746,0.14885558187961578,2.8633124828338623,4.941756725311279,4.922181129455566,0.8818,,
246,79,7900,-88.42331490367786,0.08239569514989853,2.9953243732452393,4.804243087768555,4.864980697631836,0.8815,,
247,80,7920,-7.882233324567188,0.18143190443515778,4.6336588859558105,5.543376445770264,5.485296249389648,0.8812,,
248,80,7940,-19.291915296235565,0.05601607263088226,4.488274097442627,5.734251022338867,5.736629009246826,0.8809,,
249,80,7960,-36.485098570883295,0.07686722278594971,3.0972676277160645,5.002771377563477,5.0586395263671875,0.8806,,
250,80,7980,-54.50041648179803,0.15891794860363007,1.3868930339813232,4.409090042114258,4.317594528198242,0.8803,,
251,80,8000,-89.79817749373642,0.07301092147827148,3.4980218410491943,5.782116889953613,5.785678386688232,0.88,,
252,81,8020,-39.30786044905165,0.05387815088033676,3.0144081115722656,5.089407920837402,5.0888166427612305,0.8797,,
253,81,8040,-66.19890282581237,0.1921498030424118,2.1132287979125977,4.767406463623047,4.595431327819824,0.8794,,
254,81,8060,-81.17786976204398,0.14069941639900208,3.2614963054656982,5.485405921936035,5.349137783050537,0.8791,,
255,81,8080,-99.16904587140066,0.13689640164375305,1.9410679340362549,4.828583717346191,4.730010986328125,0.8788,,
256,81,8100,-130.07729569363644,0.1401667445898056,2.3629376888275146,5.359142780303955,5.306914329528809,0.8785,,
257,82,8120,-20.654906168110234,0.09118881821632385,2.025045156478882,5.109936714172363,5.102744102478027,0.8782,,
258,82,8140,-44.0663707374338,0.3115321397781372,4.330655574798584,5.596494674682617,5.394235610961914,0.8779,,
259,82,8160,-69.83723697311987,0.04856129735708237,3.1285994052886963,5.8353400230407715,5.86953592300415,0.8775999999999999,,
260,82,8180,-105.9649932623616,0.08156292140483856,5.14778995513916,4.952526092529297,5.019969940185547,0.8773,,
261,82,8200,-165.45296449842215,0.17768153548240662,2.8906102180480957,5.462666034698486,5.345586776733398,0.877,,
262,83,8220,-20.767530295360555,0.08756029605865479,2.07698130607605,4.967811107635498,4.934957504272461,0.8767,,
263,83,8240,-42.27918343446876,0.10456410050392151,3.455669403076172,4.95659875869751,4.881966590881348,0.8764,,
264,83,8260,-67.5922127131941,0.14579984545707703,3.3974432945251465,5.388955116271973,5.280674934387207,0.8761,,
265,83,8280,-94.90116224816833,0.04713493958115578,1.8688400983810425,5.014199733734131,5.013949394226074,0.8758,,
266,83,8300,-113.2630602682973,0.10413340479135513,3.4420154094696045,5.324121475219727,5.263471603393555,0.8755,,
267,84,8320,-9.52978443203334,0.0629209503531456,1.8425244092941284,4.692956447601318,4.725912570953369,0.8752,,
268,84,8340,-18.526499973423633,0.03523121401667595,1.8794891834259033,5.040432929992676,5.084489822387695,0.8749,,
269,84,8360,-29.670445564296397,0.10660157352685928,2.932586669921875,5.205655574798584,5.140237331390381,0.8746,,
270,84,8380,-57.02257046183337,0.17049209773540497,4.42561674118042,5.8331122398376465,5.762680530548096,0.8743,,
271,84,8400,-97.71080621860294,0.15106572210788727,4.305753231048584,5.6863555908203125,5.7010955810546875,0.874,,
272,85,8420,-23.696306687753847,0.3825739324092865,3.2338204383850098,5.481884479522705,5.138476848602295,0.8737,,
273,85,8440,-66.99112264512794,0.13371260464191437,2.2217469215393066,5.556835174560547,5.469601154327393,0.8734,,
274,85,8460,-125.13947435839711,0.1372491419315338,3.3588366508483887,5.889715194702148,5.79044246673584,0.8731,,
275,85,8480,-173.6824974691362,0.150229811668396,2.5410609245300293,4.882294654846191,4.747223377227783,0.8728,,
276,85,8500,-215.98007827170156,0.13688433170318604,2.6358375549316406,5.141552448272705,5.044102668762207,0.8725,,
277,86,8520,-24.112797523708153,0.3249140977859497,3.678333044052124,6.028444290161133,5.792448997497559,0.8722,,
278,86,8540,-49.48705008131407,0.09193705022335052,2.2052106857299805,5.4183526039123535,5.335973739624023,0.8719,,
279,86,8560,-71.67331029398031,0.08322732150554657,2.2739124298095703,5.492135047912598,5.491684913635254,0.8715999999999999,,
280,86,8580,-94.37305148227959,0.15798945724964142,2.0394017696380615,4.88337516784668,4.792210578918457,0.8713,,
281,86,8600,-123.19817658584277,0.052068665623664856,3.536534547805786,5.323237419128418,5.304697513580322,0.871,,
282,87,8620,-21.009327303537958,0.14635176956653595,3.1943185329437256,5.860507965087891,5.783609867095947,0.8707,,
283,87,8640,-33.412063232446,0.2659892141819,3.1087324619293213,5.4487528800964355,5.201105117797852,0.8704000000000001,,
284,87,8660,-52.14693712464018,0.15295831859111786,2.518545150756836,5.225193023681641,5.117286205291748,0.8701,,
285,87,8680,-88.6415123373506,0.3229648172855377,2.958112955093384,5.8794684410095215,5.615041255950928,0.8698,,
286,87,8700,-133.63167795686172,0.05297422409057617,3.1144344806671143,5.8865203857421875,5.907445907592773,0.8694999999999999,,
287,88,8720,-22.268433211676655,0.06884241849184036,3.014190435409546,5.297601699829102,5.336062431335449,0.8692,,
288,88,8740,-48.73884508046297,0.06808213889598846,3.7623958587646484,5.301478385925293,5.330805778503418,0.8689,,
289,88,8760,-84.10309476869512,0.15055812895298004,2.5243659019470215,5.088037014007568,4.989969253540039,0.8686,,
290,88,8780,-135.47782857136042,0.36419808864593506,3.3773460388183594,5.348518371582031,5.027322292327881,0.8683,,
291,88,8800,-191.7161448822192,0.2547653317451477,3.049788475036621,5.8390398025512695,5.625970363616943,0.868,,
292,89,8820,-23.696999124623865,0.18375736474990845,2.012021064758301,5.398372173309326,5.262886047363281,0.8677,,
293,89,8840,-45.53628102253413,0.11235643178224564,2.4471983909606934,5.264324188232422,5.181366920471191,0.8674,,
294,89,8860,-69.27207414419507,0.0828024297952652,4.025869369506836,5.967244625091553,5.91617488861084,0.8671,,
295,89,8880,-93.09556245807835,0.25632259249687195,3.1432297229766846,5.522634029388428,5.339583873748779,0.8668,,
296,89,8900,-119.68386663946343,0.04119304567575455,1.9192869663238525,5.539124965667725,5.557560920715332,0.8665,,
297,90,8920,-9.22252830652166,0.04799118638038635,2.8670246601104736,5.813019752502441,5.7989959716796875,0.8662,,
298,90,8940,-25.829922604394422,0.2433563768863678,2.0860068798065186,5.796265125274658,5.627845287322998,0.8659,,
299,90,8960,-47.469442039579754,0.15773388743400574,1.6283290386199951,4.7953782081604,4.685373306274414,0.8655999999999999,,
300,90,8980,-80.11239991439838,0.13277795910835266,2.2852940559387207,5.697461128234863,5.638085842132568,0.8653,,
301,90,9000,-132.86295463460405,0.2499123215675354,2.6625375747680664,5.4030866622924805,5.229927062988281,0.865,,
302,91,9020,-17.53371865986713,0.13355988264083862,1.6629283428192139,5.253439426422119,5.196366786956787,0.8647,,
303,91,9040,-41.52965989689791,0.07009336352348328,2.64784836769104,5.465571880340576,5.488691806793213,0.8644000000000001,,
304,91,9060,-60.55023962139337,0.06345556676387787,2.461594343185425,5.208268642425537,5.202008247375488,0.8641,,
305,91,9080,-93.37862849337246,0.06218351051211357,1.8420305252075195,5.150528430938721,5.109184741973877,0.8638,,
306,91,9100,-126.91029059067881,0.03419884294271469,2.359999656677246,5.241988182067871,5.228531360626221,0.8634999999999999,,
307,92,9120,-17.806139498602025,0.18497435748577118,2.214162826538086,6.006101608276367,5.875523090362549,0.8632,,
308,92,9140,-40.25415217136431,0.1470223367214203,2.5866405963897705,5.276212215423584,5.184937953948975,0.8629,,
309,92,9160,-74.88926899737878,0.09384862333536148,2.0751795768737793,5.246984958648682,5.232321262359619,0.8626,,
310,92,9180,-106.98306541855234,0.12112671136856079,2.6136021614074707,5.2069854736328125,5.129875183105469,0.8623000000000001,,
311,92,9200,-151.52134957880114,0.0666467547416687,2.1481635570526123,5.842366695404053,5.779898166656494,0.862,,
312,93,9220,-11.16951856396592,0.2526684105396271,2.2878432273864746,5.445565700531006,5.234954833984375,0.8617,,
313,93,9240,-44.1444164351788,0.18026386201381683,2.2422356605529785,5.691267013549805,5.54967737197876,0.8613999999999999,,
314,93,9260,-87.4654298958643,0.1502804309129715,2.7018818855285645,6.230292797088623,6.1451239585876465,0.8611,,
315,93,9280,-136.51155177732488,0.06345809996128082,1.896227478981018,4.8590803146362305,4.8498101234436035,0.8608,,
316,93,9300,-196.43320603560286,0.04327220842242241,2.9724183082580566,5.691853046417236,5.7540693283081055,0.8605,,
317,94,9320,-18.52950442353224,0.07378842681646347,3.0117413997650146,5.894051551818848,5.898285865783691,0.8602,,
318,94,9340,-37.14990273309758,0.2851450741291046,2.9810869693756104,5.528704643249512,5.311705112457275,0.8599,,
319,94,9360,-59.63301125038417,0.13167883455753326,2.1559948921203613,5.458475589752197,5.376808166503906,0.8596,,
320,94,9380,-93.78892247729276,0.040061309933662415,1.2963606119155884,5.58188533782959,5.599465370178223,0.8593,,
321,94,9400,-136.09143179218606,0.10530281066894531,1.9835188388824463,5.231119155883789,5.162492275238037,0.859,,
322,95,9420,-24.8487458571854,0.09479130804538727,3.2164201736450195,5.176153182983398,5.100125789642334,0.8587,,
323,95,9440,-51.231034773146696,0.2890356183052063,2.6649961471557617,5.673449993133545,5.4322991371154785,0.8584,,
324,95,9460,-90.01876603489637,0.18343305587768555,2.1336073875427246,5.69960355758667,5.58223295211792,0.8581,,
325,95,9480,-144.6112166726485,0.11865469813346863,1.3103952407836914,4.994607448577881,4.927493572235107,0.8578,,
326,95,9500,-208.6479707476626,0.09070868045091629,2.4061379432678223,5.255067348480225,5.22300386428833,0.8575,,
327,96,9520,-25.394316360306444,0.10045380145311356,2.181192636489868,5.030178546905518,5.02629280090332,0.8572,,
328,96,9540,-45.70942601078173,0.07203631848096848,2.233457565307617,5.017275810241699,5.0239644050598145,0.8569,,
329,96,9560,-71.89724154944285,0.08937254548072815,2.6039562225341797,5.590152263641357,5.598381996154785,0.8566,,
330,96,9580,-104.51516939885175,0.040577806532382965,2.623789072036743,5.5392584800720215,5.575300216674805,0.8563,,
331,96,9600,-143.5736162509193,0.1946607381105423,2.528090476989746,5.904354095458984,5.723822116851807,0.856,,
332,97,9620,-38.73536635925844,0.3294343650341034,3.803739547729492,6.040794372558594,5.706057071685791,0.8557,,
333,97,9640,-74.49950304675782,0.12536421418190002,3.711900234222412,6.381257057189941,6.270302772521973,0.8553999999999999,,
334,97,9660,-90.87390065983926,0.34923768043518066,2.9365718364715576,5.852230072021484,5.542137622833252,0.8551,,
335,97,9680,-125.19076585777306,0.049506280571222305,3.774683713912964,5.723033428192139,5.7359185218811035,0.8548,,
336,97,9700,-166.88962449038783,0.04603501409292221,3.3463809490203857,4.893914222717285,4.983885288238525,0.8545,,
337,98,9720,-17.184735682271405,0.07760685682296753,4.467921257019043,5.8626604080200195,5.944338798522949,0.8542,,
338,98,9740,-37.55215992477065,0.3217492997646332,2.2764201164245605,5.433318138122559,5.198881149291992,0.8539,,
339,98,9760,-57.917801274171524,0.10084191709756851,2.6820244789123535,6.038872241973877,6.039402484893799,0.8536,,
340,98,9780,-77.59488384984736,0.08397410809993744,3.034860134124756,5.168424129486084,5.110245704650879,0.8533,,
341,98,9800,-96.99701481619577,0.1393396258354187,2.362701654434204,5.528198719024658,5.412710666656494,0.853,,
342,99,9820,-22.315896220482944,0.24437721073627472,2.412593126296997,5.078822612762451,4.85200834274292,0.8527,,
343,99,9840,-48.53346901268875,0.2873803377151489,3.1127920150756836,5.916414260864258,5.643938064575195,0.8524,,
344,99,9860,-76.42918668664345,0.09791404008865356,3.0972542762756348,5.293188095092773,5.262761116027832,0.8521,,
345,99,9880,-103.94666186909474,0.16599997878074646,2.553016424179077,5.410267353057861,5.3347296714782715,0.8518,,
346,99,9900,-138.69718355391186,0.20489849150180817,2.0886712074279785,5.234066963195801,5.100644588470459,0.8514999999999999,,
347,100,9920,-13.527215524538786,0.034634288400411606,1.1844836473464966,4.907271862030029,4.945188045501709,0.8512,,
348,100,9940,-35.1553727978545,0.07007430493831635,2.718223810195923,5.433408260345459,5.444997310638428,0.8509,,
349,100,9960,-64.32848707878561,0.13753241300582886,2.6604716777801514,5.369903087615967,5.3250956535339355,0.8506,,
350,100,9980,-117.65467953012549,0.17689186334609985,1.7846499681472778,5.2372870445251465,5.075254440307617,0.8503000000000001,,
351,100,10000,-180.59619995435574,0.14325693249702454,2.2872512340545654,6.100759983062744,5.960644721984863,0.85,-467.6560424581433,-467.6560424581433
352,101,10020,-17.754161394253725,0.13943146169185638,2.4457130432128906,5.825403690338135,5.670247554779053,0.8497,,
353,101,10040,-43.484427299241275,0.16634877026081085,2.2378756999969482,5.960302352905273,5.808176040649414,0.8493999999999999,,
354,101,10060,-83.93595684676585,0.13659659028053284,3.6476542949676514,6.298733234405518,6.136081218719482,0.8491,,
355,101,10080,-110.86836742965826,0.13382914662361145,2.5075085163116455,5.579401969909668,5.494288921356201,0.8488,,
356,101,10100,-135.08392726226663,0.06437651813030243,2.961252450942993,5.865695953369141,5.8641791343688965,0.8485,,
357,102,10120,-27.20595133131362,0.1771959662437439,2.2924537658691406,4.947885990142822,4.844361305236816,0.8482000000000001,,
358,102,10140,-77.85923396795882,0.21632425487041473,2.075068235397339,5.711142063140869,5.57275915145874,0.8479,,
359,102,10160,-140.6063836159302,0.1289883255958557,2.346123695373535,5.8164496421813965,5.75926399230957,0.8476,,
360,102,10180,-211.8766819602567,0.07316181063652039,1.7651655673980713,5.778562545776367,5.742558479309082,0.8472999999999999,,
361,102,10200,-280.32411619285426,0.057226985692977905,2.867250442504883,5.652064323425293,5.682541370391846,0.847,,
362,103,10220,-17.325103788076355,0.09408887475728989,3.361375331878662,5.710124969482422,5.65974760055542,0.8467,,
363,103,10240,-34.88773481701062,0.07532910257577896,2.6272528171539307,6.2484893798828125,6.224730491638184,0.8464,,
364,103,10260,-68.63552155802897,0.034440748393535614,1.6323120594024658,5.329994201660156,5.361974716186523,0.8461,,
365,103,10280,-126.07801970919448,0.3543299436569214,2.968754529953003,7.077280044555664,6.724400043487549,0.8458,,
366,103,10300,-199.27821056989242,0.2862633466720581,2.019563913345337,5.252331733703613,5.016561508178711,0.8455,,
367,104,10320,-28.175132143602706,0.22043654322624207,2.6068949699401855,5.86523962020874,5.6677632331848145,0.8452,,
368,104,10340,-63.00226012485035,0.3913044035434723,2.053830623626709,5.7629475593566895,5.451434135437012,0.8449,,
369,104,10360,-106.08734042006462,0.16764162480831146,2.317779541015625,5.461297988891602,5.3686041831970215,0.8446,,
370,104,10380,-135.5113644129662,0.09424784779548645,5.410505294799805,6.268122673034668,6.304285049438477,0.8443,,
371,104,10400,-153.24367833530783,0.19919103384017944,2.4224393367767334,6.167061805725098,6.03617525100708,0.844,,
372,105,10420,-17.76826405918793,0.13215644657611847,1.8919453620910645,5.70991325378418,5.676113128662109,0.8437,,
373,105,10440,-48.20189500078269,0.038108646869659424,2.1759631633758545,5.326581001281738,5.343950271606445,0.8434,,
374,105,10460,-93.29500300038607,0.09293247759342194,2.477196455001831,5.360625267028809,5.261226654052734,0.8431,,
375,105,10480,-119.43319599465435,0.1051800325512886,3.4599905014038086,6.475432395935059,6.445652961730957,0.8428,,
376,105,10500,-147.10461174922582,0.25770705938339233,3.4206771850585938,6.1822662353515625,5.95188570022583,0.8425,,
377,106,10520,-22.710190556960193,0.12238459289073944,2.550302505493164,5.578535556793213,5.474188327789307,0.8422,,
378,106,10540,-48.97816845604606,0.153858482837677,3.667219638824463,6.182849884033203,6.1122589111328125,0.8419,,
379,106,10560,-79.97229047040882,0.45744651556015015,3.247957706451416,6.166710376739502,5.815088748931885,0.8416,,
380,106,10580,-111.85106065576029,0.13152416050434113,3.8669049739837646,6.521047592163086,6.500144958496094,0.8412999999999999,,
381,106,10600,-141.23483017109584,0.12197128683328629,1.8375465869903564,5.879563331604004,5.823524475097656,0.841,,
382,107,10620,-33.192955212332144,0.05387816205620766,1.921120047569275,5.9135589599609375,5.904743194580078,0.8407,,
383,107,10640,-82.05119416752049,0.07595765590667725,3.746882915496826,6.28868293762207,6.303992748260498,0.8404,,
384,107,10660,-151.84828495446084,0.12203416228294373,1.9199024438858032,5.745638847351074,5.657641410827637,0.8401,,
385,107,10680,-227.59049441861887,0.0906674861907959,3.9128222465515137,6.55988883972168,6.465149402618408,0.8398,,
386,107,10700,-299.3717615549602,0.0868171751499176,3.427090883255005,5.95552921295166,5.837154388427734,0.8395,,
387,108,10720,-22.255001712836382,0.047238342463970184,3.7209155559539795,5.97274112701416,5.988358497619629,0.8392,,
388,108,10740,-38.99990016889119,0.1260918229818344,2.2709076404571533,6.5235066413879395,6.419105052947998,0.8389,,
389,108,10760,-53.52341376375707,0.17276038229465485,2.925640344619751,5.541509628295898,5.342273712158203,0.8386,,
390,108,10780,-75.82804591947213,0.20185492932796478,4.2702765464782715,6.4922943115234375,6.332459926605225,0.8383,,
391,108,10800,-105.27423305303827,0.16464027762413025,2.62107253074646,5.816658973693848,5.685518741607666,0.838,,
392,109,10820,-16.851755573241885,0.04660222679376602,2.5268688201904297,6.202098846435547,6.201109409332275,0.8377,,
393,109,10840,-28.51204887360479,0.11559750884771347,2.5125081539154053,6.112931251525879,6.049962520599365,0.8374,,
394,109,10860,-50.404568696459734,0.28634583950042725,2.1905295848846436,5.4659423828125,5.255643844604492,0.8371,,
395,109,10880,-71.85752499678465,0.373603492975235,3.4363715648651123,6.297082424163818,6.0362982749938965,0.8368,,
396,109,10900,-104.52086039695294,0.16006754338741302,4.467575550079346,6.041659355163574,6.047740936279297,0.8365,,
397,110,10920,-21.773290764610763,0.10321055352687836,2.471677303314209,6.689774513244629,6.681657791137695,0.8362,,
398,110,10940,-54.67873352536767,0.17993509769439697,2.1133108139038086,5.519467353820801,5.406960487365723,0.8359,,
399,110,10960,-76.9483538039194,0.0940844938158989,2.58837890625,5.105373382568359,5.0885443687438965,0.8356,,
400,110,10980,-108.80077072752988,0.3428674340248108,3.074160099029541,6.385611057281494,6.066131114959717,0.8352999999999999,,
401,110,11000,-147.95413812445437,0.0473502092063427,2.8848495483398438,6.716917991638184,6.719534873962402,0.835,,
402,111,11020,-18.090431977687224,0.0978044867515564,2.6419310569763184,6.459320545196533,6.401821136474609,0.8347,,
403,111,11040,-41.791282428693165,0.20967546105384827,1.9620059728622437,5.4024658203125,5.248857021331787,0.8344,,
404,111,11060,-70.85049170205791,0.1462078094482422,2.1239709854125977,5.858603477478027,5.719079971313477,0.8341000000000001,,
405,111,11080,-115.93123814280247,0.15344829857349396,2.4257912635803223,6.228959083557129,6.096738338470459,0.8338,,
406,111,11100,-171.0218940512063,0.19718994200229645,3.3740930557250977,6.454782009124756,6.314820289611816,0.8335,,
407,112,11120,-21.386766612419528,0.0934600979089737,1.7638146877288818,5.544439315795898,5.508244514465332,0.8331999999999999,,
408,112,11140,-47.45094087499447,0.11120052635669708,2.5258424282073975,5.988326072692871,5.98013973236084,0.8329,,
409,112,11160,-93.7496094528847,0.25963422656059265,2.0027780532836914,6.522370338439941,6.347323894500732,0.8326,,
410,112,11180,-161.01396424982377,0.23105570673942566,2.6329762935638428,6.185337066650391,6.044895648956299,0.8323,,
411,112,11200,-245.3222174218887,0.18962949514389038,1.607495903968811,5.9900593757629395,5.851855754852295,0.832,,
412,113,11220,-20.097141975072766,0.05269395932555199,1.9835686683654785,6.1203694343566895,6.128136157989502,0.8317,,
413,113,11240,-32.54515717720016,0.09461843967437744,1.3918147087097168,5.898664474487305,5.857941150665283,0.8314,,
414,113,11260,-54.255491485870515,0.18751400709152222,2.6054365634918213,5.741973876953125,5.615784645080566,0.8311,,
415,113,11280,-78.49602806847051,0.1010429859161377,1.9608362913131714,5.676562786102295,5.599724769592285,0.8308,,
416,113,11300,-113.11818085504176,0.19022522866725922,3.343127489089966,6.238687038421631,6.0563459396362305,0.8305,,
417,114,11320,-13.606487834849933,0.03990917652845383,2.668872594833374,5.86833381652832,5.8465352058410645,0.8302,,
418,114,11340,-39.1856129495555,0.06784656643867493,2.1507387161254883,6.247292518615723,6.219391822814941,0.8299,,
419,114,11360,-62.9511066154478,0.03270977735519409,1.921602725982666,5.661271572113037,5.6951704025268555,0.8296,,
420,114,11380,-100.17995823641492,0.09501054137945175,4.767959117889404,6.370039939880371,6.382741451263428,0.8292999999999999,,
421,114,11400,-144.47885748935758,0.220058873295784,1.8464032411575317,6.6058669090271,6.435541152954102,0.829,,
422,115,11420,-11.06968385205159,0.06059986352920532,1.4402697086334229,5.551310062408447,5.525296211242676,0.8287,,
423,115,11440,-32.56203872959054,0.24254430830478668,2.3962671756744385,7.104587078094482,6.881107330322266,0.8284,,
424,115,11460,-56.23845100150204,0.17044785618782043,2.673553943634033,6.7222676277160645,6.582963466644287,0.8281000000000001,,
425,115,11480,-103.87656225736751,0.09055979549884796,2.6713457107543945,6.296169757843018,6.257885932922363,0.8278,,
426,115,11500,-166.78329926545652,0.21909575164318085,1.6504521369934082,5.947775363922119,5.777897834777832,0.8275,,
427,116,11520,-20.848631172393326,0.035985421389341354,1.9609977006912231,6.082852840423584,6.0983805656433105,0.8271999999999999,,
428,116,11540,-56.100619923168225,0.20626486837863922,1.7959808111190796,5.8017354011535645,5.669358730316162,0.8269,,
429,116,11560,-100.74463469595189,0.24360890686511993,2.741088390350342,6.22476863861084,6.03615140914917,0.8266,,
430,116,11580,-163.59150737565983,0.08374828100204468,1.8091740608215332,5.948981285095215,5.948235034942627,0.8263,,
431,116,11600,-249.02296427017583,0.04715248569846153,3.0832300186157227,6.114714622497559,6.1565446853637695,0.8260000000000001,,
432,117,11620,-31.29839272361552,0.08086011558771133,1.7880593538284302,5.343018054962158,5.327630996704102,0.8257,,
433,117,11640,-74.73117161964963,0.09119518101215363,2.009190082550049,6.123251438140869,6.065146446228027,0.8254,,
434,117,11660,-121.53850028408499,0.10659404844045639,2.523159980773926,5.462715148925781,5.36417293548584,0.8251,,
435,117,11680,-167.75256082831115,0.23954081535339355,2.7141687870025635,6.470514297485352,6.210015773773193,0.8248,,
436,117,11700,-195.92344585519612,0.30467459559440613,2.6807003021240234,6.249907970428467,5.992463111877441,0.8245,,
437,118,11720,-31.496998623161208,0.05137701705098152,1.584948182106018,5.355194091796875,5.340054035186768,0.8242,,
438,118,11740,-65.48467844188035,0.10366926342248917,2.024480104446411,6.029499530792236,5.998496055603027,0.8239,,
439,118,11760,-141.7712214072404,0.2941854000091553,2.9150421619415283,6.482881546020508,6.28046989440918,0.8236,,
440,118,11780,-247.04540635882637,0.09886617213487625,3.392469644546509,5.747817039489746,5.790836811065674,0.8233,,
441,118,11800,-367.1606526087283,0.20372864603996277,2.5828306674957275,6.329380512237549,6.174685478210449,0.823,,
442,119,11820,-21.271493138993257,0.19335661828517914,3.858779191970825,6.59299373626709,6.5269083976745605,0.8227,,
443,119,11840,-58.17988943061036,0.07495687156915665,3.5286998748779297,6.444590091705322,6.392349720001221,0.8224,,
444,119,11860,-93.39986186279519,0.3858431279659271,3.422849416732788,6.015270709991455,5.648251533508301,0.8221,,
445,119,11880,-125.50753537590172,0.15390194952487946,2.812230348587036,6.001173496246338,5.811854362487793,0.8218,,
446,119,11900,-183.37176088553727,0.08867909014225006,4.03381872177124,6.827073097229004,6.755799293518066,0.8215,,
447,120,11920,-15.63535331441805,0.32263466715812683,3.0365588665008545,6.381165027618408,6.077999591827393,0.8212,,
448,120,11940,-43.06201437738918,0.09606298804283142,4.100234031677246,6.763428688049316,6.742198944091797,0.8209,,
449,120,11960,-78.25581631788725,0.21300557255744934,3.9929685592651367,7.125811576843262,6.975246429443359,0.8206,,
450,120,11980,-123.79043110946469,0.1164512112736702,3.5496461391448975,6.718072891235352,6.710066318511963,0.8203,,
451,120,12000,-182.44604238730557,0.03801296278834343,2.4088709354400635,6.0044779777526855,6.07667875289917,0.82,,
452,121,12020,-24.463474263929214,0.10909561067819595,3.914801597595215,7.07591438293457,7.05047607421875,0.8197,,
453,121,12040,-54.33137445226008,0.12835857272148132,6.649219036102295,6.951855659484863,6.971382141113281,0.8194,,
454,121,12060,-98.30938656469365,0.17938175797462463,3.101275682449341,6.344228744506836,6.170952320098877,0.8190999999999999,,
455,121,12080,-140.03396993816656,0.09054094552993774,3.055455207824707,6.412302017211914,6.324389457702637,0.8188,,
456,121,12100,-207.24167016645455,0.07530836760997772,2.472776174545288,6.274317741394043,6.212669372558594,0.8185,,
457,122,12120,-33.93474587341706,0.09111769497394562,3.987755298614502,7.557445526123047,7.545501708984375,0.8182,,
458,122,12140,-78.37150826443647,0.14468304812908173,3.5966851711273193,6.564446926116943,6.487983703613281,0.8179,,
459,122,12160,-132.71028204739375,0.08220630139112473,3.395829200744629,6.75202751159668,6.674229621887207,0.8176,,
460,122,12180,-182.89447228410137,0.25595375895500183,3.691946506500244,7.3676347732543945,7.142866611480713,0.8172999999999999,,
461,122,12200,-232.14493362688407,0.27003201842308044,3.1283202171325684,6.293967247009277,6.016913890838623,0.817,,
462,123,12220,-30.418250139108153,0.16515880823135376,3.6122307777404785,6.810137748718262,6.669750690460205,0.8167,,
463,123,12240,-72.26882870005615,0.07465047389268875,4.421989917755127,7.261086940765381,7.271079063415527,0.8164,,
464,123,12260,-123.51334976546508,0.12243390083312988,2.8402435779571533,6.894923686981201,6.801219463348389,0.8161,,
465,123,12280,-189.6787209238048,0.19284114241600037,5.490447998046875,6.856873989105225,6.7602643966674805,0.8158,,
466,123,12300,-278.1314806292388,0.22264231741428375,3.521003246307373,6.840714931488037,6.7353363037109375,0.8155,,
467,124,12320,-21.49273438531184,0.1329561322927475,2.631577730178833,7.029714584350586,6.984753608703613,0.8151999999999999,,
468,124,12340,-55.692401421201325,0.10010945051908493,2.5081284046173096,6.376359462738037,6.394564628601074,0.8149,,
469,124,12360,-108.67086457166835,0.16505186259746552,3.4143941402435303,7.004058837890625,6.886221885681152,0.8146,,
470,124,12380,-171.9289323660659,0.13109007477760315,2.9008095264434814,7.55274772644043,7.528112888336182,0.8143,,
471,124,12400,-237.9547355835306,0.18517857789993286,2.8722405433654785,6.863019943237305,6.73828125,0.8140000000000001,,
472,125,12420,-43.9873081748422,0.10123255848884583,2.6123909950256348,6.099794387817383,5.978679180145264,0.8137,,
473,125,12440,-105.43395615603694,0.17492392659187317,2.9408159255981445,6.696506023406982,6.534003257751465,0.8134,,
474,125,12460,-155.43533416774795,0.21265165507793427,4.413374423980713,6.896520614624023,6.668936729431152,0.8130999999999999,,
475,125,12480,-203.21985097320524,0.09972629696130753,4.832915782928467,6.912747859954834,6.828756809234619,0.8128,,
476,125,12500,-256.8753661268924,0.18498556315898895,2.47658634185791,6.221765518188477,6.056280136108398,0.8125,-670.4412455788166,-670.4412455788167
477,126,12520,-33.7839355962913,0.14292149245738983,5.180135250091553,7.008871078491211,7.000420570373535,0.8122,,
478,126,12540,-88.99004573557865,0.061575997620821,3.875690460205078,6.433724880218506,6.496509552001953,0.8119000000000001,,
479,126,12560,-133.87209500730356,0.11367648839950562,3.6456491947174072,7.772217750549316,7.7618184089660645,0.8116,,
480,126,12580,-166.97202585095957,0.07213791459798813,2.2574117183685303,7.614946365356445,7.619316101074219,0.8113,,
481,126,12600,-195.38382616352678,0.14584025740623474,2.2835981845855713,6.698420524597168,6.6591973304748535,0.8109999999999999,,
482,127,12620,-26.612361074021813,0.14725461602210999,3.415259599685669,7.127241134643555,7.090392589569092,0.8107,,
483,127,12640,-48.22056126632565,0.2525695264339447,3.7361409664154053,6.96286153793335,6.731846809387207,0.8104,,
484,127,12660,-78.37492240127008,0.10932648181915283,3.910641670227051,7.53170919418335,7.442275047302246,0.8101,,
485,127,12680,-124.52295600013112,0.16354408860206604,3.5396833419799805,6.497013092041016,6.359799385070801,0.8098,,
486,127,12700,-183.88180235923605,0.18916931748390198,4.804930686950684,7.213296890258789,7.133463382720947,0.8095,,
487,128,12720,-27.03114790624023,0.03378875553607941,2.088975667953491,6.713024616241455,6.750873565673828,0.8092,,
488,128,12740,-54.505268212356356,0.039435986429452896,3.447558641433716,7.405177116394043,7.460885047912598,0.8089,,
489,128,12760,-97.50318043636679,0.0648193433880806,3.108060359954834,6.051179885864258,6.1001176834106445,0.8086,,
490,128,12780,-167.24969702364186,0.06813250482082367,2.6807026863098145,6.892431735992432,6.875566005706787,0.8083,,
491,128,12800,-254.2130882558217,0.15489593148231506,3.9018726348876953,7.305747032165527,7.1907854080200195,0.808,,
492,129,12820,-22.315398153830976,0.5007026195526123,3.46742582321167,6.8708086013793945,6.385699272155762,0.8077,,
493,129,12840,-54.745849003648864,0.05225526541471481,3.944906711578369,7.694943904876709,7.725157737731934,0.8074,,
494,129,12860,-94.05812211329692,0.12317902594804764,4.342177867889404,7.271800994873047,7.211946487426758,0.8071,,
495,129,12880,-132.85492174861895,0.09736279398202896,1.8320503234863281,7.192224025726318,7.132205963134766,0.8068,,
496,129,12900,-170.33857727776663,0.05912303552031517,2.1174705028533936,7.3086256980896,7.259230613708496,0.8065,,
497,130,12920,-19.391594051964947,0.5077002048492432,3.7330076694488525,7.537910461425781,7.120565414428711,0.8062,,
498,130,12940,-37.62945703379668,0.1933710128068924,3.837803602218628,7.827450752258301,7.63795280456543,0.8059,,
499,130,12960,-64.01264970332652,0.08103804290294647,4.5531463623046875,6.509044170379639,6.533103942871094,0.8056,,
500,130,12980,-108.37606220233397,0.042349256575107574,2.4402711391448975,6.482370376586914,6.500720500946045,0.8053,,
501,130,13000,-151.50546667592306,0.08355308324098587,4.201499938964844,7.574462890625,7.595719337463379,0.8049999999999999,,
502,131,13020,-19.71348910218871,0.12384236603975296,3.578646659851074,7.6599016189575195,7.575020790100098,0.8047,,
503,131,13040,-53.104680757296265,0.34285324811935425,3.9130008220672607,7.7335405349731445,7.438036918640137,0.8044,,
504,131,13060,-117.87096167777644,0.09346389025449753,1.7411648035049438,6.572709560394287,6.54516077041626,0.8041,,
505,131,13080,-193.45513016163525,0.059607669711112976,5.880181312561035,7.746363639831543,7.759756088256836,0.8038,,
506,131,13100,-259.59353705434336,0.04383322224020958,3.311769723892212,7.391428470611572,7.420040130615234,0.8035,,
507,132,13120,-11.917786198213319,0.11715634912252426,2.4275360107421875,7.404873847961426,7.322255611419678,0.8032,,
508,132,13140,-30.455637467794144,0.2175297886133194,3.855238437652588,7.612452030181885,7.455070972442627,0.8029,,
509,132,13160,-51.99072777516045,0.13642920553684235,3.16681170463562,6.616031646728516,6.485309600830078,0.8026,,
510,132,13180,-91.33095825214734,0.3660058081150055,6.997457981109619,8.217260360717773,7.900051593780518,0.8023,,
511,132,13200,-122.08961530530016,0.22484882175922394,2.19502329826355,7.433777809143066,7.276625156402588,0.802,,
512,133,13220,-25.50048934165456,0.4727586805820465,6.564399719238281,7.952332496643066,7.671331882476807,0.8017,,
513,133,13240,-63.77167972865095,0.18647632002830505,6.30627965927124,7.039973258972168,7.010637283325195,0.8014,,
514,133,13260,-126.78235115141912,0.13784582912921906,3.8793699741363525,7.687143325805664,7.645384788513184,0.8011,,
515,133,13280,-205.2336518284572,0.26033321022987366,2.9084179401397705,6.943309307098389,6.751996040344238,0.8008,,
516,133,13300,-285.879410170393,0.26224809885025024,4.580814361572266,7.661865711212158,7.4142866134643555,0.8005,,
517,134,13320,-20.238439916332343,0.5312089920043945,7.279870986938477,7.899845123291016,7.397967338562012,0.8002,,
518,134,13340,-40.33306091864271,0.48556917905807495,5.324148654937744,8.619138717651367,8.154255867004395,0.7999,,
519,134,13360,-73.54423300179397,0.20678308606147766,5.184080600738525,8.74482536315918,8.625432968139648,0.7996,,
520,134,13380,-129.77329140234096,0.11161628365516663,3.687182903289795,7.0031890869140625,6.996463298797607,0.7993,,
521,134,13400,-198.2049532919851,0.12294953316450119,3.5214684009552,6.474908828735352,6.426209449768066,0.7989999999999999,,
522,135,13420,-23.403896783110156,0.2852291464805603,3.6304352283477783,6.969563007354736,6.778000354766846,0.7987,,
523,135,13440,-51.05435195466261,0.2492440789937973,3.403761863708496,7.261177062988281,7.1160173416137695,0.7984,,
524,135,13460,-86.34420117317946,0.28493398427963257,2.57714581489563,7.635390758514404,7.404299736022949,0.7981,,
525,135,13480,-159.74666494772623,0.18211419880390167,3.6542351245880127,7.791231632232666,7.657229423522949,0.7978000000000001,,
526,135,13500,-259.094861399092,0.1039876863360405,4.001424312591553,8.058963775634766,8.000862121582031,0.7975,,
527,136,13520,-21.5088515920478,0.6075069308280945,3.768533706665039,7.609819412231445,7.075489044189453,0.7972,,
528,136,13540,-47.43529782016328,0.42769962549209595,3.500674247741699,7.154466152191162,6.749911308288574,0.7968999999999999,,
529,136,13560,-98.78339922741846,0.10469638556241989,6.836050510406494,8.621175765991211,8.515522003173828,0.7966,,
530,136,13580,-173.69915844919444,0.10275285691022873,4.6092071533203125,8.38255786895752,8.345693588256836,0.7963,,
531,136,13600,-260.97768858520396,0.546350359916687,4.074980735778809,7.487203598022461,6.936514854431152,0.796,,
532,137,13620,-26.416252210781945,0.29557666182518005,4.71382999420166,8.486525535583496,8.293163299560547,0.7957,,
533,137,13640,-47.1301904760086,0.29004624485969543,5.9341301918029785,7.947015762329102,7.767364978790283,0.7954,,
534,137,13660,-77.96931064053452,0.2169068604707718,7.156167984008789,8.32465934753418,8.248038291931152,0.7951,,
535,137,13680,-126.66705766363258,0.27531805634498596,3.0002598762512207,7.893195152282715,7.618673324584961,0.7948,,
536,137,13700,-196.6257609901411,0.1505773663520813,6.430383205413818,9.841299057006836,9.782177925109863,0.7945,,
537,138,13720,-23.651853098816648,0.48070281744003296,6.773148536682129,8.592192649841309,8.191341400146484,0.7942,,
538,138,13740,-62.15840107741314,0.18993990123271942,9.637880325317383,7.745959758758545,7.575112342834473,0.7939,,
539,138,13760,-108.00428471574979,0.15279041230678558,3.77006459236145,7.890592098236084,7.8029255867004395,0.7936,,
540,138,13780,-151.65956260659755,0.11537519097328186,4.336482048034668,8.25861930847168,8.282451629638672,0.7933,,
541,138,13800,-199.11891371922533,0.2736949622631073,6.016400337219238,8.286700248718262,8.210968017578125,0.7929999999999999,,
542,139,13820,-28.017014012163653,0.3922840356826782,15.16351318359375,9.344834327697754,9.30693244934082,0.7927,,
543,139,13840,-83.61505585593885,0.16161157190799713,4.175004959106445,7.593923568725586,7.588870048522949,0.7924,,
544,139,13860,-151.01605197931994,0.29442811012268066,3.76387882232666,7.45068883895874,7.204926490783691,0.7921,,
545,139,13880,-232.41523161369344,0.4507678747177124,5.568508625030518,9.881335258483887,9.43366527557373,0.7918000000000001,,
546,139,13900,-329.32292529561306,0.27793848514556885,4.48168420791626,8.190486907958984,7.903216361999512,0.7915,,
547,140,13920,-17.385246389186086,0.15004797279834747,7.112639904022217,7.746096134185791,7.614181041717529,0.7912,,
548,140,13940,-32.35138095745343,0.5013943910598755,5.122739791870117,7.482400417327881,7.035436153411865,0.7908999999999999,,
549,140,13960,-48.985199710057174,0.19045592844486237,5.358928680419922,8.16076374053955,8.089481353759766,0.7906,,
550,140,13980,-70.4421085040624,0.20132926106452942,3.4660162925720215,7.069947719573975,6.947725296020508,0.7903,,
551,140,14000,-111.91231325257013,0.09872414171695709,7.500393390655518,7.89245080947876,8.02674674987793,0.79,,
552,141,14020,-20.30853606915426,0.15390336513519287,5.217374801635742,8.046679496765137,8.082714080810547,0.7897000000000001,,
553,141,14040,-37.64861819162297,0.11267250776290894,3.3052079677581787,7.928323268890381,7.956112384796143,0.7894,,
554,141,14060,-65.75660448742255,0.25370362401008606,3.3572452068328857,7.571967601776123,7.403984546661377,0.7891,,
555,141,14080,-102.90485090955,0.09303558617830276,7.644907474517822,9.134769439697266,9.05565071105957,0.7888,,
556,141,14100,-161.73977047386265,0.4480586647987366,6.403870582580566,8.4575777053833,8.022456169128418,0.7885,,
557,142,14120,-25.26867593589418,0.1320880651473999,3.356858968734741,7.777628421783447,7.615508556365967,0.7882,,
558,142,14140,-38.748926412552095,0.03935554251074791,3.3615877628326416,6.898594379425049,6.873371601104736,0.7879,,
559,142,14160,-61.84194917108851,0.5555306673049927,5.3341383934021,8.42701244354248,7.912702560424805,0.7876,,
560,142,14180,-97.59725912528776,0.08232138305902481,3.7795214653015137,7.940646648406982,7.90139627456665,0.7873,,
561,142,14200,-120.82842256174261,0.29935020208358765,8.83582878112793,8.024622917175293,7.886983871459961,0.787,,
562,143,14220,-28.03728444764393,0.12211935222148895,5.364209175109863,7.630687236785889,7.631434440612793,0.7867,,
563,143,14240,-78.70459268594813,0.2849760353565216,3.2088229656219482,7.944247722625732,7.734846591949463,0.7864,,
564,143,14260,-149.93185632078504,0.10015756636857986,6.3072686195373535,7.960909843444824,7.90299129486084,0.7861,,
565,143,14280,-236.2375933490468,0.12185011059045792,4.673788547515869,7.594018936157227,7.486728668212891,0.7858,,
566,143,14300,-335.6038009182091,0.17390629649162292,4.545962333679199,9.27142333984375,9.172004699707031,0.7855,,
567,144,14320,-31.900780993220685,0.29466062784194946,3.6688125133514404,8.224925994873047,8.022714614868164,0.7852,,
568,144,14340,-62.71773656911627,0.24598164856433868,3.5854194164276123,8.813793182373047,8.705480575561523,0.7849,,
569,144,14360,-98.12382640460756,0.10881055146455765,3.1827712059020996,8.000204086303711,7.9700798988342285,0.7846,,
570,144,14380,-133.03621872999372,0.08390355855226517,5.99564790725708,7.755442142486572,7.815375328063965,0.7843,,
571,144,14400,-173.86811217779442,0.0582943819463253,5.099729061126709,7.814875602722168,7.851805686950684,0.784,,
572,145,14420,-25.619471793678947,0.0824241116642952,3.5867128372192383,8.53475570678711,8.481907844543457,0.7837,,
573,145,14440,-64.64497565614143,0.14228636026382446,4.17376708984375,8.387216567993164,8.242644309997559,0.7834,,
574,145,14460,-111.66696221880055,0.3515920042991638,5.400606155395508,9.01865005493164,8.688369750976562,0.7831,,
575,145,14480,-185.46769286347646,0.045344553887844086,4.17095422744751,7.639326572418213,7.587699890136719,0.7827999999999999,,
576,145,14500,-273.4728219654318,0.06607552617788315,6.5924272537231445,8.591695785522461,8.562833786010742,0.7825,,
577,146,14520,-21.79757155264377,0.04664935544133186,3.972971200942993,7.644359588623047,7.681883811950684,0.7822,,
578,146,14540,-64.15864331740575,0.2817334830760956,5.649234771728516,7.686056613922119,7.533976078033447,0.7819,,
579,146,14560,-108.69796310433975,0.43426695466041565,4.988591194152832,8.53382682800293,8.214007377624512,0.7816,,
580,146,14580,-148.76636268875697,0.07213504612445831,7.246441841125488,8.861334800720215,8.946401596069336,0.7813,,
581,146,14600,-203.75147610383598,0.360950767993927,2.9364635944366455,8.465275764465332,8.195534706115723,0.7809999999999999,,
582,147,14620,-18.528139866337597,0.2648889124393463,3.2524495124816895,7.310132026672363,7.082887649536133,0.7807,,
583,147,14640,-44.91554272683059,0.20006263256072998,8.986599922180176,8.48060417175293,8.272733688354492,0.7804,,
584,147,14660,-71.94373835767692,0.19780269265174866,9.682622909545898,8.846434593200684,8.669206619262695,0.7801,,
585,147,14680,-118.06169395385085,0.1326151341199875,3.145271062850952,7.549522876739502,7.46738862991333,0.7798,,
586,147,14700,-160.49826516690533,0.09176290035247803,3.146314859390259,8.323278427124023,8.323070526123047,0.7795,,
587,148,14720,-26.431903123441213,0.11578353494405746,10.214763641357422,8.573525428771973,8.688567161560059,0.7792,,
588,148,14740,-68.91820760167208,0.4160606265068054,5.8609514236450195,8.271321296691895,8.076167106628418,0.7788999999999999,,
589,148,14760,-103.8448360547385,0.1090238094329834,5.564724922180176,8.441375732421875,8.466599464416504,0.7786,,
590,148,14780,-136.28600223524347,0.2640632688999176,4.009476184844971,8.604182243347168,8.396469116210938,0.7783,,
591,148,14800,-170.92021969324932,0.4355925917625427,8.172636032104492,7.644867897033691,7.167827606201172,0.778,,
592,149,14820,-17.817746540431116,0.31861600279808044,6.199051380157471,8.305322647094727,8.000443458557129,0.7777000000000001,,
593,149,14840,-48.372599744040464,0.522159993648529,5.803836822509766,7.944290637969971,7.426941871643066,0.7774,,
594,149,14860,-92.22784525730809,0.20905333757400513,3.6911118030548096,8.403783798217773,8.266839027404785,0.7771,,
595,149,14880,-138.84884715059738,0.4411641061306,4.119894981384277,9.059000015258789,8.712651252746582,0.7767999999999999,,
596,149,14900,-180.9681885937907,0.05049145221710205,5.358710289001465,8.811013221740723,8.906319618225098,0.7765,,
597,150,14920,-23.439770482886694,0.19562764465808868,5.040166854858398,10.061168670654297,9.978279113769531,0.7762,,
598,150,14940,-39.32711082112401,0.06094096973538399,8.570822715759277,8.938224792480469,8.998249053955078,0.7759,,
599,150,14960,-73.73745883673709,0.11236611008644104,3.055027723312378,8.198235511779785,8.112116813659668,0.7756000000000001,,
600,150,14980,-150.8691939530532,0.5096307992935181,6.690620422363281,9.859637260437012,9.295138359069824,0.7753,,
601,150,15000,-244.72242288232422,0.09376358240842819,5.887852191925049,8.719279289245605,8.610981941223145,0.775,-834.4208848482215,-834.4208848482212
602,151,15020,-28.945880817574647,0.15146395564079285,6.639338970184326,8.497945785522461,8.367033004760742,0.7746999999999999,,
603,151,15040,-62.324237663311486,0.341568261384964,5.1547722816467285,10.247386932373047,9.928600311279297,0.7744,,
604,151,15060,-96.65352313100772,0.07761012762784958,5.116058349609375,7.999630928039551,8.081916809082031,0.7741,,
605,151,15080,-147.8537263429554,0.1914723962545395,5.067732334136963,8.60594367980957,8.557788848876953,0.7738,,
606,151,15100,-222.73347759130434,0.06148830056190491,5.5005202293396,8.723255157470703,8.814974784851074,0.7735000000000001,,
607,152,15120,-26.896754004305766,0.2987463176250458,5.8980584144592285,8.670062065124512,8.52428913116455,0.7732,,
608,152,15140,-54.04670251279312,0.21500974893569946,4.624336242675781,9.25938606262207,9.143241882324219,0.7728999999999999,,
609,152,15160,-83.41838734557011,0.4231325089931488,6.694677352905273,9.508337020874023,9.095782279968262,0.7726,,
610,152,15180,-126.08720672949549,0.032740067690610886,2.153662919998169,6.826962947845459,6.821579456329346,0.7723,,
611,152,15200,-183.8406664177898,0.5544390678405762,9.18484878540039,10.066391944885254,9.519179344177246,0.772,,
612,153,15220,-13.056246115241342,0.36402428150177,3.0579488277435303,8.57634449005127,8.314096450805664,0.7717,,
613,153,15240,-37.87653373631497,0.3173114061355591,5.980759143829346,7.933453559875488,7.720003128051758,0.7714,,
614,153,15260,-73.58452937070797,0.21517331898212433,4.0512542724609375,8.375000953674316,8.224736213684082,0.7711,,
615,153,15280,-120.10989786961261,0.18126708269119263,6.519400596618652,8.005489349365234,7.972467422485352,0.7708,,
616,153,15300,-175.40435942355504,0.24824810028076172,5.076687335968018,8.578716278076172,8.426249504089355,0.7705,,
617,154,15320,-18.921702303191463,0.23554974794387817,5.667289733886719,8.888534545898438,8.660394668579102,0.7702,,
618,154,15340,-50.85201353967909,0.41217270493507385,7.347424507141113,9.489060401916504,9.058018684387207,0.7699,,
619,154,15360,-98.57500686889122,0.14498263597488403,6.903701305389404,9.289482116699219,9.217482566833496,0.7696,,
620,154,15380,-173.89430853711656,0.0634111762046814,4.267061710357666,8.327964782714844,8.348902702331543,0.7693,,
621,154,15400,-271.49169217890034,0.1014656350016594,5.074580669403076,8.99342155456543,8.967171669006348,0.769,,
622,155,15420,-36.60280285727762,0.16932064294815063,4.921254634857178,9.245118141174316,9.167749404907227,0.7686999999999999,,
623,155,15440,-81.31075477298685,0.26646825671195984,3.938669204711914,7.93701696395874,7.740767002105713,0.7684,,
624,155,15460,-145.97657497737114,0.33188849687576294,4.6088690757751465,9.598418235778809,9.342312812805176,0.7681,,
625,155,15480,-225.11314882958487,0.14602403342723846,4.4643144607543945,9.685955047607422,9.56494140625,0.7678,,
626,155,15500,-327.7852762626976,0.14389769732952118,4.056008338928223,8.425819396972656,8.32459545135498,0.7675,,
627,156,15520,-19.08333823968749,0.221067875623703,4.348297595977783,9.836437225341797,9.664353370666504,0.7672,,
628,156,15540,-39.18064664917391,0.6512297987937927,7.565793514251709,10.124382972717285,9.549196243286133,0.7669,,
629,156,15560,-61.228760335524555,0.47534599900245667,5.032262802124023,9.023650169372559,8.654953002929688,0.7666,,
630,156,15580,-115.94751271876892,0.12610793113708496,4.499859809875488,8.996003150939941,8.961136817932129,0.7663,,
631,156,15600,-196.72767458706957,0.19401045143604279,5.219357013702393,9.252335548400879,9.203363418579102,0.766,,
632,157,15620,-20.619835739220257,0.14583276212215424,5.907041072845459,9.892663955688477,9.822819709777832,0.7656999999999999,,
633,157,15640,-38.49876647626563,0.15751291811466217,4.360918045043945,9.95461654663086,9.875473976135254,0.7654,,
634,157,15660,-72.75077039568745,0.22318799793720245,3.516646385192871,9.40799331665039,9.268847465515137,0.7651,,
635,157,15680,-117.03711194036883,0.11494408547878265,2.805995225906372,8.765462875366211,8.705307960510254,0.7648,,
636,157,15700,-144.3815641097172,0.3771436810493469,6.6024885177612305,11.321564674377441,11.0184326171875,0.7645,,
637,158,15720,-18.66766933255419,0.4140118658542633,4.149847507476807,8.61298656463623,8.281874656677246,0.7642,,
638,158,15740,-58.81269246254159,0.25058677792549133,3.6210479736328125,8.146933555603027,7.982213973999023,0.7639,,
639,158,15760,-125.12744164383344,0.2012932002544403,4.3546142578125,8.948874473571777,8.817477226257324,0.7636000000000001,,
640,158,15780,-193.2577071307665,0.11479699611663818,3.8998353481292725,8.532556533813477,8.481504440307617,0.7633,,
641,158,15800,-273.76442452281435,0.1742129772901535,6.3185014724731445,9.84174919128418,9.81684398651123,0.763,,
642,159,15820,-19.762087499345185,0.16723637282848358,6.374844551086426,9.479093551635742,9.334676742553711,0.7626999999999999,,
643,159,15840,-50.391088637856484,0.49667853116989136,7.004383563995361,10.105789184570312,9.633001327514648,0.7624,,
644,159,15860,-97.94043165234959,0.20569077134132385,3.3900914192199707,8.503686904907227,8.339154243469238,0.7621,,
645,159,15880,-181.5510048320302,0.3308103680610657,8.41496467590332,10.345547676086426,10.197509765625,0.7618,,
646,159,15900,-241.74800699280598,0.06269240379333496,7.618116855621338,10.542922019958496,10.60197639465332,0.7615,,
647,160,15920,-17.594175970956645,0.11176324635744095,5.041683197021484,10.533087730407715,10.467989921569824,0.7612,,
648,160,15940,-39.83019714130707,0.1118922159075737,7.339811325073242,10.226304054260254,10.147907257080078,0.7609,,
649,160,15960,-93.85611335237692,0.3635120391845703,8.826835632324219,11.980300903320312,11.673166275024414,0.7605999999999999,,
650,160,15980,-188.05634812650237,0.11600616574287415,5.582067489624023,9.575183868408203,9.500751495361328,0.7603,,
651,160,16000,-310.1236848976283,0.5405415892601013,4.502948760986328,9.855408668518066,9.428898811340332,0.76,,
652,161,16020,-19.023697524373432,0.17091889679431915,7.790631294250488,8.267472267150879,8.266170501708984,0.7597,,
653,161,16040,-38.80623984927567,0.27661943435668945,5.303898811340332,9.988778114318848,9.834005355834961,0.7594000000000001,,
654,161,16060,-62.72596429379957,0.2622925639152527,7.187675476074219,10.602469444274902,10.471498489379883,0.7591,,
655,161,16080,-112.32688621169223,0.058039478957653046,3.5007975101470947,8.565143585205078,8.536223411560059,0.7587999999999999,,
656,161,16100,-152.37333436627497,0.16109789907932281,7.179891109466553,8.3246431350708,8.172502517700195,0.7585,,
657,162,16120,-19.5195519635437,0.0846199244260788,8.551980972290039,9.312309265136719,9.238709449768066,0.7582,,
658,162,16140,-72.48065901723585,0.3228306472301483,8.831518173217773,9.635917663574219,9.346424102783203,0.7579,,
659,162,16160,-143.23312207756,0.15630269050598145,3.750136137008667,9.519064903259277,9.462450981140137,0.7576,,
660,162,16180,-207.77520161305443,0.1387014240026474,10.143067359924316,9.77991771697998,9.866132736206055,0.7573,,
661,162,16200,-263.495123815084,0.8901189565658569,8.22203540802002,9.22562313079834,8.510030746459961,0.757,,
662,163,16220,-13.934320372470252,0.14543938636779785,6.442218780517578,9.182470321655273,9.145418167114258,0.7567,,
663,163,16240,-37.1748488976115,0.268485426902771,4.801453590393066,9.283703804016113,9.105342864990234,0.7564,,
664,163,16260,-59.96064794411149,0.11220051348209381,4.726330280303955,9.113452911376953,9.045989990234375,0.7561,,
665,163,16280,-100.30764710517231,0.18235962092876434,5.964003562927246,8.949766159057617,8.75586223602295,0.7558,,
666,163,16300,-152.08610978245764,0.24767616391181946,15.988459587097168,10.40924072265625,10.147689819335938,0.7555000000000001,,
667,164,16320,-22.02592708031318,0.39776116609573364,7.254352569580078,10.178608894348145,9.805975914001465,0.7552,,
668,164,16340,-46.803021119761404,0.11268027126789093,6.103358745574951,9.352452278137207,9.291327476501465,0.7549,,
669,164,16360,-75.25981450000947,0.061130668967962265,5.4655303955078125,9.506702423095703,9.579350471496582,0.7545999999999999,,
670,164,16380,-104.65385506672915,0.35877981781959534,11.86309814453125,9.796135902404785,9.665558815002441,0.7543,,
671,164,16400,-143.53089497596358,0.18984171748161316,8.088603973388672,10.086721420288086,10.085665702819824,0.754,,
672,165,16420,-23.01039764350787,0.20308983325958252,8.417855262756348,10.254324913024902,10.154319763183594,0.7537,,
673,165,16440,-61.77199977245848,0.3855953812599182,4.90659761428833,8.754955291748047,8.412668228149414,0.7534,,
674,165,16460,-111.10562436364518,0.23568247258663177,7.3286895751953125,9.469868659973145,9.287578582763672,0.7531,,
675,165,16480,-156.38151982267206,0.31402209401130676,7.283668041229248,10.761975288391113,10.549098014831543,0.7528,,
676,165,16500,-204.7072251628315,0.4806983470916748,7.961901664733887,11.823315620422363,11.390121459960938,0.7525,,
677,166,16520,-21.099209185642117,0.30276599526405334,4.856789588928223,10.230216979980469,9.998401641845703,0.7522,,
678,166,16540,-47.54194854839332,0.07979114353656769,6.695023059844971,9.60344409942627,9.6499605178833,0.7519,,
679,166,16560,-79.21075729234585,0.2726002037525177,7.0003132820129395,9.713744163513184,9.587287902832031,0.7515999999999999,,
680,166,16580,-116.46936241817191,0.5757209062576294,7.491113185882568,9.928183555603027,9.51516056060791,0.7513,,
681,166,16600,-157.57547968046353,0.12101935595273972,7.656646728515625,10.355535507202148,10.355473518371582,0.751,,
682,167,16620,-24.73710794492474,0.39086654782295227,6.874701976776123,10.15546989440918,9.78750228881836,0.7506999999999999,,
683,167,16640,-63.74353874525581,0.3034011125564575,9.983879089355469,10.843746185302734,10.511377334594727,0.7504,,
684,167,16660,-140.10823065929614,0.11761727184057236,10.25029468536377,11.173384666442871,11.058979034423828,0.7501,,
685,167,16680,-247.25234604297515,0.2174462378025055,5.179117679595947,9.075340270996094,8.872093200683594,0.7498,,
686,167,16700,-374.0392043112722,0.07749933004379272,8.138975143432617,10.64111328125,10.732288360595703,0.7495,,
687,168,16720,-39.49208308172766,0.06659272313117981,8.4937105178833,9.229652404785156,9.312836647033691,0.7492,,
688,168,16740,-104.27901178065031,0.2826659083366394,9.809154510498047,10.576542854309082,10.55221939086914,0.7488999999999999,,
689,168,16760,-180.7992269614533,0.12899662554264069,7.875401973724365,9.754612922668457,9.798787117004395,0.7485999999999999,,
690,168,16780,-258.8750257680914,0.11786817014217377,5.187014102935791,10.045530319213867,9.998822212219238,0.7483,,
691,168,16800,-371.5180678842762,0.7573291659355164,6.807634353637695,8.915237426757812,8.162698745727539,0.748,,
692,169,16820,-29.257990815783195,0.4468635618686676,12.191801071166992,12.085132598876953,11.624077796936035,0.7477,,
693,169,16840,-52.51276822052869,0.07007681578397751,5.124842643737793,10.092025756835938,10.054792404174805,0.7474000000000001,,
694,169,16860,-85.39988838328404,0.2616101801395416,7.474723815917969,11.794400215148926,11.651590347290039,0.7471,,
695,169,16880,-132.05754357438667,0.08969715982675552,7.7485246658325195,10.432817459106445,10.379733085632324,0.7468,,
696,169,16900,-194.146448610091,0.21078842878341675,7.5253400802612305,10.5836181640625,10.537282943725586,0.7464999999999999,,
697,170,16920,-16.0027086956771,0.7218228578567505,4.36337947845459,10.36276626586914,9.793668746948242,0.7462,,
698,170,16940,-37.98174312721859,0.18962052464485168,6.196113109588623,9.826157569885254,9.804616928100586,0.7459,,
699,170,16960,-87.46255738539094,0.722161054611206,9.705231666564941,11.512650489807129,10.967379570007324,0.7456,,
700,170,16980,-175.64268185209318,0.3435419797897339,7.707011699676514,11.321575164794922,11.046271324157715,0.7453000000000001,,
701,170,17000,-266.0752425460899,0.4169480502605438,4.920719623565674,9.049066543579102,8.71733570098877,0.745,,
702,171,17020,-13.681000093745798,0.12768910825252533,5.09099006652832,10.730074882507324,10.679746627807617,0.7446999999999999,,
703,171,17040,-32.79715431099497,0.2702889144420624,4.219427585601807,10.397465705871582,10.193577766418457,0.7444,,
704,171,17060,-70.82736633711532,0.04531745985150337,4.0656561851501465,9.381357192993164,9.424595832824707,0.7441,,
705,171,17080,-142.6049506075672,0.6989704966545105,5.98486328125,11.410382270812988,10.803261756896973,0.7438,,
706,171,17100,-252.7566597265004,0.22400134801864624,6.794510841369629,9.722591400146484,9.55803108215332,0.7435,,
707,172,17120,-39.151025112861994,0.16440966725349426,11.178980827331543,11.885405540466309,11.885432243347168,0.7432,,
708,172,17140,-67.5689241221671,0.4998704493045807,7.052367687225342,9.890073776245117,9.441912651062012,0.7429,,
709,172,17160,-94.39239418273553,0.06959594786167145,6.340228080749512,11.22014331817627,11.200789451599121,0.7426,,
710,172,17180,-121.6314363132025,0.6556611657142639,8.150078773498535,11.111477851867676,10.458085060119629,0.7423,,
711,172,17200,-142.38862827636925,0.5597729682922363,6.141434192657471,11.378449440002441,10.88145637512207,0.742,,
712,173,17220,-17.80599173670263,0.055719953030347824,6.896276473999023,10.02044677734375,10.073548316955566,0.7417,,
713,173,17240,-54.15522875301785,0.19702814519405365,5.629598617553711,11.099982261657715,10.95661735534668,0.7414000000000001,,
714,173,17260,-106.067021406507,0.20245695114135742,5.173645496368408,11.844900131225586,11.721332550048828,0.7411,,
715,173,17280,-181.38081111211764,0.17668141424655914,4.385129928588867,10.522767066955566,10.350934982299805,0.7408,,
716,173,17300,-273.6832141253293,0.39158836007118225,5.8205718994140625,10.225502014160156,9.85097599029541,0.7404999999999999,,
717,174,17320,-23.476650915764335,0.5429621934890747,7.1904191970825195,12.323785781860352,11.84623908996582,0.7402,,
718,174,17340,-68.94053602323703,0.5181474685668945,4.02108097076416,9.566591262817383,9.13963508605957,0.7399,,
719,174,17360,-142.98121289646056,0.16652348637580872,5.27817964553833,10.397743225097656,10.343001365661621,0.7396,,
720,174,17380,-235.74095106975807,1.2939445972442627,5.750814437866211,9.523078918457031,8.350022315979004,0.7393,,
721,174,17400,-344.4407700372656,0.20260857045650482,10.408968925476074,10.729827880859375,10.740845680236816,0.739,,
722,175,17420,-37.208796452686144,0.41562649607658386,6.830780506134033,9.97970199584961,9.659669876098633,0.7386999999999999,,
723,175,17440,-96.10621752166921,0.3806377351284027,7.1286725997924805,11.6013765335083,11.295737266540527,0.7384,,
724,175,17460,-193.2926694962729,0.19661307334899902,4.441717147827148,10.14907169342041,9.97966194152832,0.7381,,
725,175,17480,-325.5823690041677,1.127755880355835,12.125249862670898,11.892899513244629,10.757061958312988,0.7378,,
726,175,17500,-483.94305573470086,0.7056711316108704,7.078065395355225,9.811629295349121,9.137487411499023,0.7375,-833.0434428088798,-833.0434428088798
727,176,17520,-27.200473005167204,0.6989966630935669,6.637181282043457,11.681981086730957,11.04587173461914,0.7372000000000001,,
728,176,17540,-68.05563356918842,0.31603366136550903,17.686668395996094,12.196083068847656,12.15644645690918,0.7369,,
729,176,17560,-144.2852054112178,0.3363567888736725,4.471567630767822,9.4530668258667,9.230907440185547,0.7365999999999999,,
730,176,17580,-237.92535356124145,0.29591748118400574,4.574007034301758,9.590397834777832,9.355600357055664,0.7363,,
731,176,17600,-359.74780556313965,0.05372651666402817,5.202685832977295,9.100154876708984,9.150369644165039,0.736,,
732,177,17620,-35.797261701388436,0.4558519423007965,7.317988395690918,12.249921798706055,11.973814964294434,0.7357,,
733,177,17640,-74.76115197918939,0.4812421500682831,11.722597122192383,12.174285888671875,11.727974891662598,0.7354,,
734,177,17660,-129.4640278836419,0.21038803458213806,9.641189575195312,11.3164644241333,11.112451553344727,0.7351,,
735,177,17680,-210.74544248891982,0.186743825674057,3.6108639240264893,10.962581634521484,10.841592788696289,0.7347999999999999,,
736,177,17700,-334.00346379605645,0.48251277208328247,10.368642807006836,12.48591136932373,12.084067344665527,0.7344999999999999,,
737,178,17720,-33.22596371704992,0.17300820350646973,4.825126647949219,10.383842468261719,10.282398223876953,0.7342,,
738,178,17740,-77.18538528067053,0.3559005856513977,7.154440879821777,10.213172912597656,9.975632667541504,0.7339,,
739,178,17760,-124.42295860087195,0.36581718921661377,13.452917098999023,12.094124794006348,11.962779998779297,0.7336,,
740,178,17780,-179.62742729208188,0.19471010565757751,10.067533493041992,11.11013126373291,11.131845474243164,0.7333000000000001,,
741,178,17800,-257.808382972591,0.270865261554718,5.694472312927246,10.667435646057129,10.499993324279785,0.733,,
742,179,17820,-24.466514859343885,0.7545127868652344,10.840413093566895,12.652892112731934,11.924144744873047,0.7327,,
743,179,17840,-63.85964981533313,0.1528521478176117,6.94974422454834,10.02500057220459,9.843851089477539,0.7323999999999999,,
744,179,17860,-116.49279657069923,0.14108192920684814,8.027061462402344,10.574687957763672,10.448400497436523,0.7321,,
745,179,17880,-191.8353981308849,0.11620055884122849,8.237153053283691,11.021441459655762,10.9263916015625,0.7318,,
746,179,17900,-317.9927313030695,0.6220228672027588,6.838893890380859,12.41710376739502,11.941248893737793,0.7315,,
747,180,17920,-19.877840674033077,1.367395043373108,8.127493858337402,12.00561809539795,10.750824928283691,0.7312,,
748,180,17940,-67.00416101012642,0.6218975186347961,9.74877643585205,11.775379180908203,11.30820083618164,0.7309,,
749,180,17960,-149.04723825699276,0.25804466009140015,10.637413024902344,11.738940238952637,11.656449317932129,0.7305999999999999,,
750,180,17980,-259.4320722616696,0.6435566544532776,7.97005033493042,12.821569442749023,12.294596672058105,0.7303,,
751,180,18000,-374.3513082352514,0.2767491936683655,7.6233086585998535,10.429231643676758,10.17927360534668,0.73,,
752,181,18020,-25.431815598975717,0.240056574344635,9.716050148010254,11.767568588256836,11.558223724365234,0.7297,,
753,181,18040,-61.99915259876322,0.1823556125164032,11.14508056640625,11.551313400268555,11.348675727844238,0.7294,,
754,181,18060,-115.69688651252692,0.2559519112110138,8.364055633544922,11.173972129821777,10.941946983337402,0.7291000000000001,,
755,181,18080,-185.2059741899505,0.2977147698402405,8.670821189880371,12.761617660522461,12.608420372009277,0.7288,,
756,181,18100,-266.4967267574725,0.40850430727005005,9.405379295349121,12.479122161865234,12.27160358428955,0.7284999999999999,,
757,182,18120,-19.13290284309861,0.3159252405166626,7.214867115020752,10.125823974609375,9.999345779418945,0.7282,,
758,182,18140,-42.32977924934221,0.21049751341342926,6.0795135498046875,11.254104614257812,11.182746887207031,0.7279,,
759,182,18160,-73.36988329259479,0.38286924362182617,4.936312198638916,10.243875503540039,9.990031242370605,0.7276,,
760,182,18180,-98.49121972313478,1.3142573833465576,13.10713005065918,13.989601135253906,12.698049545288086,0.7273000000000001,,
761,182,18200,-122.45984629703932,0.556490957736969,10.58276081085205,13.355023384094238,12.877058982849121,0.727,,
762,183,18220,-18.648076630436258,0.3046915829181671,7.694437026977539,14.146146774291992,13.960004806518555,0.7267,,
763,183,18240,-62.53045840958197,0.2215176522731781,3.2429351806640625,9.067907333374023,8.920795440673828,0.7263999999999999,,
764,183,18260,-137.81754809122475,0.7618030905723572,7.158140659332275,11.470924377441406,10.783735275268555,0.7261,,
765,183,18280,-246.68436167308832,0.06448708474636078,4.5502214431762695,12.861059188842773,12.882912635803223,0.7258,,
766,183,18300,-358.8363702052451,0.1622973382472992,7.505016326904297,12.499324798583984,12.465149879455566,0.7255,,
767,184,18320,-24.62892722367648,0.1033448874950409,9.072038650512695,11.78264045715332,11.816201210021973,0.7252,,
768,184,18340,-71.28151466578122,0.32764625549316406,4.5425615310668945,11.640158653259277,11.348355293273926,0.7249,,
769,184,18360,-120.70108588307792,0.08052678406238556,6.193537712097168,10.72602367401123,10.624297142028809,0.7246,,
770,184,18380,-179.52546991575065,0.08472125232219696,7.070934772491455,11.026896476745605,11.001962661743164,0.7242999999999999,,
771,184,18400,-253.15159989897631,0.06032976508140564,5.854759693145752,10.034981727600098,10.023370742797852,0.724,,
772,185,18420,-16.774466435149904,0.09135092794895172,9.675640106201172,12.84472370147705,12.801544189453125,0.7237,,
773,185,18440,-36.84553439112726,0.6386529803276062,6.990344047546387,12.744693756103516,12.192852020263672,0.7234,,
774,185,18460,-59.84621080702532,0.31572288274765015,8.405298233032227,10.742847442626953,10.57353687286377,0.7231000000000001,,
775,185,18480,-99.38479081017238,0.0657796636223793,10.323131561279297,11.558012008666992,11.679758071899414,0.7228,,
776,185,18500,-176.56198415169501,0.10137571394443512,5.628937244415283,12.272703170776367,12.243776321411133,0.7224999999999999,,
777,186,18520,-18.546832746011432,0.4541197419166565,5.476536750793457,11.112530708312988,10.811829566955566,0.7222,,
778,186,18540,-52.57233586735543,0.7887934446334839,7.090566635131836,12.527116775512695,11.82811450958252,0.7219,,
779,186,18560,-80.50002064490414,0.33938315510749817,5.597213268280029,10.845108032226562,10.542915344238281,0.7216,,
780,186,18580,-103.95757816457298,0.40095800161361694,6.731805801391602,11.685596466064453,11.3683443069458,0.7213,,
781,186,18600,-133.19524814481088,0.9451453685760498,9.851302146911621,13.587356567382812,12.652569770812988,0.721,,
782,187,18620,-14.948922175245038,0.1395806521177292,5.349030494689941,10.304702758789062,10.239883422851562,0.7206999999999999,,
783,187,18640,-39.326189966247526,0.30064883828163147,9.966151237487793,12.790861129760742,12.675360679626465,0.7203999999999999,,
784,187,18660,-67.87545055350017,0.16136954724788666,11.146489143371582,12.25262451171875,12.336628913879395,0.7201,,
785,187,18680,-114.12412669867003,0.13018596172332764,7.364622592926025,13.915298461914062,13.990677833557129,0.7198,,
786,187,18700,-188.5266015774227,0.3663867115974426,8.988771438598633,11.494677543640137,11.116475105285645,0.7195,,
787,188,18720,-18.182159678087345,0.5348513722419739,9.971954345703125,11.150988578796387,10.610048294067383,0.7192000000000001,,
788,188,18740,-40.180914814750075,0.08163874596357346,7.706162929534912,10.943739891052246,10.865032196044922,0.7189,,
789,188,18760,-90.40450817394093,0.14030854403972626,8.37989330291748,11.276012420654297,11.248817443847656,0.7186,,
790,188,18780,-174.2162072539017,0.09434769302606583,9.668172836303711,11.062396049499512,11.073471069335938,0.7182999999999999,,
791,188,18800,-278.6518799715434,0.8856632113456726,6.342904567718506,12.379430770874023,11.617063522338867,0.718,,
792,189,18820,-14.94181974134569,0.9093211889266968,7.039109230041504,12.871907234191895,12.067425727844238,0.7177,,
793,189,18840,-44.232085699060676,0.1809271275997162,11.682059288024902,15.986356735229492,15.94629192352295,0.7174,,
794,189,18860,-74.37172302179101,0.179629847407341,5.460249900817871,9.779633522033691,9.671380996704102,0.7171,,
795,189,18880,-105.97534060287607,0.17816542088985443,6.544912338256836,11.943310737609863,11.841744422912598,0.7168,,
796,189,18900,-161.5512076974203,0.29727208614349365,7.6485161781311035,11.647086143493652,11.455965995788574,0.7164999999999999,,
797,190,18920,-18.129582189760473,0.14187116920948029,6.360442161560059,9.520637512207031,9.545015335083008,0.7162,,
798,190,18940,-37.44107088584907,0.19456440210342407,7.108826637268066,12.132732391357422,12.115824699401855,0.7159,,
799,190,18960,-74.51877288406578,1.3691513538360596,7.379011631011963,12.582404136657715,11.277103424072266,0.7156,,
800,190,18980,-150.27471494469643,0.05941856652498245,6.181793689727783,12.39536190032959,12.441247940063477,0.7153,,
801,190,19000,-235.57881481790952,0.18543167412281036,8.491240501403809,12.530623435974121,12.39339828491211,0.7150000000000001,,
802,191,19020,-26.41950034854487,0.23717941343784332,5.529868125915527,12.161352157592773,11.976797103881836,0.7147,,
803,191,19040,-71.71634362765506,0.39030978083610535,5.111728668212891,13.049579620361328,12.74100112915039,0.7143999999999999,,
804,191,19060,-146.0435041651441,0.0667961910367012,7.050833225250244,11.642362594604492,11.604203224182129,0.7141,,
805,191,19080,-252.09859845309398,0.3497229814529419,9.374489784240723,13.863678932189941,13.690778732299805,0.7138,,
806,191,19100,-359.73469849424055,0.20007912814617157,4.892962455749512,11.698756217956543,11.569393157958984,0.7135,,
807,192,19120,-25.880045309783966,0.3075343370437622,6.267738342285156,11.63301944732666,11.392400741577148,0.7132000000000001,,
808,192,19140,-81.84271131557058,0.23948045074939728,6.886383056640625,11.95315933227539,11.770536422729492,0.7129,,
809,192,19160,-171.9272266676272,0.4719375669956207,10.249065399169922,13.647300720214844,13.31214427947998,0.7125999999999999,,
810,192,19180,-271.6557086996245,0.9688888192176819,11.465373039245605,12.495095252990723,11.531229972839355,0.7122999999999999,,
811,192,19200,-390.8854934167133,0.9712051153182983,10.905776023864746,12.957174301147461,12.033573150634766,0.712,,
812,193,19220,-33.5885642234549,0.12882521748542786,9.090452194213867,12.55197811126709,12.573734283447266,0.7117,,
813,193,19240,-68.13230567544754,0.42028409242630005,11.714545249938965,11.782647132873535,11.550371170043945,0.7114,,
814,193,19260,-105.37107470521762,0.35381725430488586,5.875008583068848,10.844090461730957,10.60944938659668,0.7111000000000001,,
815,193,19280,-164.78764384907066,0.2869565486907959,10.232426643371582,12.870560646057129,12.736485481262207,0.7108,,
816,193,19300,-240.76477224157597,0.34706103801727295,7.601492881774902,10.752161979675293,10.418331146240234,0.7105,,
817,194,19320,-24.74300249662597,0.8908438682556152,11.223544120788574,14.54086685180664,13.70907211303711,0.7101999999999999,,
818,194,19340,-62.515354457448545,0.5937092304229736,6.199227333068848,13.537548065185547,13.015378952026367,0.7099,,
819,194,19360,-140.71889388568033,0.5774972438812256,5.075246810913086,12.357979774475098,11.863140106201172,0.7096,,
820,194,19380,-252.18361934684106,0.4584946930408478,7.37014627456665,11.023829460144043,10.700287818908691,0.7093,,
821,194,19400,-386.13656367051004,0.4279351830482483,10.063135147094727,12.207831382751465,11.991528511047363,0.7090000000000001,,
822,195,19420,-35.888805627217465,0.2686917781829834,14.196246147155762,13.420878410339355,13.438560485839844,0.7087,,
823,195,19440,-111.90633676675843,0.1379740685224533,4.901028156280518,13.153205871582031,13.110310554504395,0.7083999999999999,,
824,195,19460,-201.2313150381777,0.1308445930480957,9.50637435913086,12.561432838439941,12.545869827270508,0.7081,,
825,195,19480,-306.779628548717,0.17239752411842346,8.931204795837402,10.19854736328125,9.964881896972656,0.7078,,
826,195,19500,-411.5536704574254,0.2537751793861389,13.3695707321167,13.966347694396973,13.706520080566406,0.7075,,
827,196,19520,-31.976175876736573,0.5067115426063538,15.319511413574219,14.107123374938965,13.64465045928955,0.7072,,
828,196,19540,-75.46589040928369,0.4326617419719696,7.300215721130371,14.945670127868652,14.624990463256836,0.7069,,
829,196,19560,-158.40924952228386,0.27205854654312134,13.314742088317871,12.058187484741211,11.999524116516113,0.7066,,
830,196,19580,-261.9991744963944,0.14133521914482117,13.864675521850586,11.389813423156738,11.591442108154297,0.7063,,
831,196,19600,-378.47493241560306,0.40105754137039185,19.355627059936523,14.478906631469727,14.449256896972656,0.706,,
832,197,19620,-29.505846222996073,0.25456103682518005,8.860596656799316,11.556535720825195,11.4666109085083,0.7057,,
833,197,19640,-62.06759231421206,0.12600372731685638,9.739665985107422,12.042928695678711,11.962231636047363,0.7054,,
834,197,19660,-109.04173510782213,0.152882382273674,17.999446868896484,14.262630462646484,14.070844650268555,0.7051000000000001,,
835,197,19680,-184.27200251295437,0.2678833305835724,14.043078422546387,13.108573913574219,12.831705093383789,0.7048,,
836,197,19700,-287.7163136109034,0.5351698398590088,8.818659782409668,12.252716064453125,11.940400123596191,0.7045,,
837,198,19720,-29.86616928325607,0.6776291728019714,7.588407516479492,13.481514930725098,12.844355583190918,0.7041999999999999,,
838,198,19740,-57.82199698265732,0.5083334445953369,10.345627784729004,11.799217224121094,11.560779571533203,0.7039,,
839,198,19760,-106.38092850037665,0.5500746369361877,11.882102966308594,12.779967308044434,12.510778427124023,0.7036,,
840,198,19780,-198.688587946929,0.3940633535385132,15.789307594299316,13.5632963180542,13.475173950195312,0.7033,,
841,198,19800,-334.57940335245496,0.260560542345047,9.083781242370605,12.52387523651123,12.52381706237793,0.703,,
842,199,19820,-20.497569348487207,1.0042654275894165,12.843758583068848,12.855722427368164,11.871196746826172,0.7027,,
843,199,19840,-68.57043414096238,0.7138903737068176,14.605019569396973,12.771197319030762,12.065972328186035,0.7023999999999999,,
844,199,19860,-158.8292213197357,1.446808934211731,12.882092475891113,13.093425750732422,11.758234024047852,0.7021,,
845,199,19880,-287.93006813824394,0.06795335561037064,5.029686450958252,13.313018798828125,13.354854583740234,0.7018,,
846,199,19900,-412.9685664746048,0.13768857717514038,13.203405380249023,14.176216125488281,14.33065128326416,0.7015,,
847,200,19920,-28.826358871259828,1.0561039447784424,11.774270057678223,13.781621932983398,13.020262718200684,0.7012,,
