FS-tar/marl-mpe-learning/outputs/qmix_mpe_rnn/simple_spread/run009/train_log.csv
update,episode,total_steps,train_team_return,td_loss,total_loss,grad_norm,q_tot_mean,q_tot_std,q_tot_max,target_q_tot_mean,target_q_tot_std,target_q_tot_max,epsilon,action_entropy_mean,used_action_count_min,max_action_ratio_max,top2_action_ratio_max,eval_team_return,eval_mean_agent_return
1,8,400,-69.28308625868162,0.14044871926307678,0.14044871926307678,1.2451984882354736,0.03451425075531006,0.2528987228870392,0.7236717939376831,0.5769924926757812,0.1371215432882309,0.8476206660270691,0.9873333333333333,,,,,,
2,9,450,-55.054819588432615,0.09977217763662338,0.09977217763662338,1.0055201053619385,0.0561298131942749,0.23653876781463623,0.6453198790550232,0.5194236373901367,0.09674383699893951,0.7515066266059875,0.98575,,,,,,
3,10,500,-90.1210073142406,0.08774999529123306,0.08774999529123306,0.9201310873031616,0.0757358741760254,0.2446274608373642,0.6542700529098511,0.509203872680664,0.11243559420108795,0.7280089855194092,0.9841666666666666,,,,,,
4,11,550,-82.55013856133168,0.10419221222400665,0.10419221222400665,1.0837376117706299,0.08395848274230958,0.23445072770118713,0.6177406907081604,0.5752565765380859,0.0791492685675621,0.7261695265769958,0.9825833333333334,,,,,,
5,12,600,-41.74117321975186,0.14083506166934967,0.14083506166934967,1.209352731704712,0.08314859390258789,0.2642250061035156,0.7556519508361816,0.6115230178833008,0.1746976375579834,1.1093136072158813,0.981,,,,,,
6,13,650,-37.2156654024974,0.11623124033212662,0.11623124033212662,1.10916268825531,0.10803966522216797,0.2475857138633728,0.69424968957901,0.6009989929199219,0.12682361900806427,0.8482714891433716,0.9794166666666667,,,,,,
7,14,700,-39.24669748519079,0.1177738606929779,0.1177738606929779,1.0373367071151733,0.10880880355834961,0.26294058561325073,0.7800057530403137,0.5736223983764649,0.1822192668914795,1.109938144683838,0.9778333333333333,,,,,,
8,15,750,-91.54308521547722,0.09697513282299042,0.09697513282299042,0.9833338260650635,0.13222889900207518,0.24610212445259094,0.6938145756721497,0.579693603515625,0.11708167940378189,0.8488109111785889,0.97625,,,,,,
9,16,800,-37.67177469476777,0.12312659621238708,0.12312659621238708,1.1622453927993774,0.14397974014282228,0.2574184536933899,0.8031550645828247,0.6465630340576172,0.14586088061332703,1.1107606887817383,0.9746666666666667,,,,,,
10,17,850,-37.90168757875575,0.10346868634223938,0.10346868634223938,1.0066742897033691,0.14634593963623047,0.2509710490703583,0.8141416907310486,0.592042236328125,0.161390021443367,1.1112406253814697,0.9730833333333333,,,,,,
11,18,900,-51.45331001611667,0.08637893944978714,0.08637893944978714,0.8910830616950989,0.16905044555664062,0.22820447385311127,0.8258544206619263,0.5684897994995117,0.1759561002254486,1.1117664575576782,0.9715,,,,,,
12,19,950,-53.42326801756716,0.07539092749357224,0.07539092749357224,0.8252894878387451,0.1881622314453125,0.22936877608299255,0.721478283405304,0.5664677047729492,0.09440363198518753,0.850338339805603,0.9699166666666666,,,,,,
13,20,1000,-67.77357880842615,0.08480488508939743,0.08480488508939743,0.8501749634742737,0.22275428771972655,0.2595765292644501,0.7506330609321594,0.609703369140625,0.12608453631401062,0.8444429636001587,0.9683333333333334,,,,,,
14,21,1050,-49.52606404925656,0.05859438329935074,0.05859438329935074,0.7066715955734253,0.20991722106933594,0.2175164669752121,0.6875606775283813,0.5564219665527343,0.10672979801893234,0.9060491323471069,0.96675,,,,,,
15,22,1100,-44.377987842370295,0.10277418047189713,0.10277418047189713,1.0629616975784302,0.20486194610595704,0.2452516257762909,0.8666744232177734,0.6318223571777344,0.19624049961566925,1.1142888069152832,0.9651666666666666,,,,,,
16,23,1150,-52.08292236219055,0.0527363121509552,0.0527363121509552,0.6588395833969116,0.24422477722167968,0.21703730523586273,0.7473280429840088,0.5701850891113281,0.1232086569070816,0.9071787595748901,0.9635833333333333,,,,,,
17,24,1200,-55.21530236217387,0.08741728961467743,0.08741728961467743,0.9814018607139587,0.24405967712402343,0.23781485855579376,0.8855863213539124,0.66116455078125,0.1564481109380722,1.1157844066619873,0.962,,,,,,
18,25,1250,-55.503575976183775,0.0756542757153511,0.0756542757153511,0.8640245795249939,0.24966638565063476,0.2241183966398239,0.8959184885025024,0.6274715805053711,0.15948466956615448,1.1165876388549805,0.9604166666666667,0.9867939644509632,3,0.611,0.858,-108.45206853380353,-108.4520685338035
19,26,1300,-53.02410448707843,0.0599035918712616,0.0599035918712616,0.7598904371261597,0.2780483245849609,0.21255651116371155,0.8489174246788025,0.6244770050048828,0.11654186248779297,0.909068763256073,0.9588333333333333,,,,,,
20,27,1350,-61.758772464186755,0.060800742357969284,0.060800742357969284,0.6808764934539795,0.23567195892333984,0.21399812400341034,0.9177130460739136,0.548102798461914,0.16711795330047607,1.1183030605316162,0.95725,,,,,,
21,28,1400,-59.075449286530265,0.04207731410861015,0.04207731410861015,0.5294976830482483,0.286693115234375,0.20343463122844696,0.7972370386123657,0.5635166931152343,0.09581948816776276,0.7909197807312012,0.9556666666666667,,,,,,
22,29,1450,-46.7004566688586,0.04341675341129303,0.04341675341129303,0.5156635642051697,0.2918093490600586,0.2199786901473999,1.0307672023773193,0.549771499633789,0.1167527511715889,0.8881539702415466,0.9540833333333334,,,,,,
23,30,1500,-55.30245967719746,0.036564961075782776,0.036564961075782776,0.4740224778652191,0.29437789916992185,0.20655527710914612,1.0365772247314453,0.5503346252441407,0.12239256501197815,0.8889777660369873,0.9525,,,,,,
24,31,1550,-41.90301163865674,0.040996160358190536,0.040996160358190536,0.5057656764984131,0.2975966644287109,0.21555685997009277,1.042069911956787,0.56252197265625,0.12306026369333267,0.8898223638534546,0.9509166666666666,,,,,,
25,32,1600,-41.79942024863731,0.03861088305711746,0.03861088305711746,0.49021634459495544,0.3269336700439453,0.20034649968147278,0.8202483057975769,0.574345703125,0.09838889539241791,0.7944262027740479,0.9493333333333334,,,,,,
26,33,1650,-47.29681525270494,0.04339686408638954,0.04339686408638954,0.5091038346290588,0.31873382568359376,0.22035379707813263,0.855449914932251,0.5766390228271484,0.13935235142707825,0.8598079085350037,0.94775,,,,,,
27,34,1700,-46.32162334119184,0.03155839815735817,0.03155839815735817,0.41997385025024414,0.3640703582763672,0.19534540176391602,0.9063360691070557,0.5935638046264649,0.12008029222488403,0.915189266204834,0.9461666666666667,,,,,,
28,35,1750,-63.311231569365845,0.04827887937426567,0.04827887937426567,0.6023244857788086,0.35189960479736326,0.21447913348674774,0.9779733419418335,0.62715576171875,0.15357284247875214,1.1261675357818604,0.9445833333333333,,,,,,
29,36,1800,-53.89378778440857,0.027348680421710014,0.027348680421710014,0.33665111660957336,0.32575637817382813,0.189382404088974,1.0621740818023682,0.5214080429077148,0.12218809127807617,0.8942461013793945,0.9430000000000001,,,,,,
30,37,1850,-50.531964752976,0.03357703983783722,0.03357703983783722,0.40882575511932373,0.3977195739746094,0.20831239223480225,1.0472460985183716,0.6346700286865234,0.12190733850002289,0.9717722535133362,0.9414166666666667,,,,,,
31,38,1900,-42.30978533401512,0.037059079855680466,0.037059079855680466,0.4616011679172516,0.35910125732421877,0.2016316056251526,0.9165315628051758,0.5917922973632812,0.12429261952638626,0.8643617033958435,0.9398333333333333,,,,,,
32,39,1950,-54.19089135578976,0.04142354428768158,0.04142354428768158,0.5090394616127014,0.36702877044677734,0.2045985460281372,0.9951951503753662,0.6052309036254883,0.17473866045475006,1.1303510665893555,0.93825,,,,,,
33,40,2000,-30.854950185428404,0.03046017698943615,0.03046017698943615,0.3656384348869324,0.3865039825439453,0.21171239018440247,1.0530011653900146,0.5971435546875,0.12870647013187408,0.974522054195404,0.9366666666666666,,,,,,
34,41,2050,-43.7417323865249,0.03929492086172104,0.03929492086172104,0.5421226024627686,0.3846305847167969,0.19837188720703125,1.0027143955230713,0.6383932876586914,0.15139974653720856,1.1324477195739746,0.9350833333333334,,,,,,
35,42,2100,-51.05553182699718,0.02768377959728241,0.02768377959728241,0.3893599212169647,0.376066780090332,0.18270742893218994,0.9423487186431885,0.5929625320434571,0.10417383909225464,0.8786771893501282,0.9335,,,,,,
36,43,2150,-68.34684766370896,0.03820020332932472,0.03820020332932472,0.4455733299255371,0.38039077758789064,0.2017170786857605,1.010629653930664,0.5956894683837891,0.18096469342708588,1.1345282793045044,0.9319166666666667,,,,,,
37,44,2200,-45.27642457637687,0.01777755469083786,0.01777755469083786,0.17936889827251434,0.4025223541259766,0.16390784084796906,0.8526489734649658,0.5076932525634765,0.1022212952375412,0.8060764074325562,0.9303333333333333,,,,,,
38,45,2250,-54.77408152586985,0.02273622527718544,0.02273622527718544,0.31284016370773315,0.410185661315918,0.19723792374134064,1.125016212463379,0.5941519165039062,0.13872063159942627,0.9248485565185547,0.92875,,,,,,
39,46,2300,-45.16100911708358,0.02104533649981022,0.02104533649981022,0.28186216950416565,0.4028216552734375,0.1807088851928711,0.9193238615989685,0.5672101211547852,0.09996236860752106,0.9060679078102112,0.9271666666666667,,,,,,
40,47,2350,-94.4809705035406,0.023717794567346573,0.023717794567346573,0.23604132235050201,0.45148380279541017,0.2016264945268631,1.081554651260376,0.619112777709961,0.14095818996429443,0.9808895587921143,0.9255833333333333,,,,,,
41,48,2400,-72.02202633892544,0.019568054005503654,0.019568054005503654,0.23546290397644043,0.4353438186645508,0.1975053995847702,1.0812788009643555,0.5807099151611328,0.15322047472000122,0.9270219802856445,0.924,,,,,,
42,49,2450,-59.01901648032874,0.026309167966246605,0.026309167966246605,0.34043610095977783,0.4195235061645508,0.18983668088912964,1.0538666248321533,0.6131388854980468,0.1417200267314911,0.9826282262802124,0.9224166666666667,,,,,,
43,50,2500,-52.896613749950134,0.021284621208906174,0.021284621208906174,0.23975712060928345,0.41101226806640623,0.1778290718793869,1.0497967004776,0.5613790130615235,0.11679795384407043,0.8648843169212341,0.9208333333333334,1.3287440130968513,5,0.517,0.779,-104.15607583067012,-104.15607583067012
44,51,2550,-57.9240065408317,0.022192344069480896,0.022192344069480896,0.21742333471775055,0.4353357696533203,0.17041398584842682,0.9406903982162476,0.5754935455322265,0.12356274574995041,0.8868824243545532,0.91925,,,,,,
45,52,2600,-64.00260244155133,0.01817936636507511,0.01817936636507511,0.1848442703485489,0.4258573532104492,0.18073269724845886,0.9404751062393188,0.5394247436523437,0.14308588206768036,0.9302036166191101,0.9176666666666666,,,,,,
46,53,2650,-51.731984146399995,0.018559206277132034,0.018559206277132034,0.18020117282867432,0.45056560516357425,0.17047500610351562,0.8646485805511475,0.5238496398925782,0.1348782777786255,0.8320491909980774,0.9160833333333334,,,,,,
47,54,2700,-40.37579783923035,0.018979348242282867,0.018979348242282867,0.15551166236400604,0.42721649169921877,0.1705521047115326,0.9550607204437256,0.5219002151489258,0.13024504482746124,0.7949655055999756,0.9145,,,,,,
48,55,2750,-67.70694246495293,0.01679406687617302,0.01679406687617302,0.167404443025589,0.44857608795166015,0.16883675754070282,1.0721778869628906,0.5662625885009765,0.10522899776697159,0.9114007949829102,0.9129166666666667,,,,,,
49,56,2800,-36.541281705924774,0.028958169743418694,0.028958169743418694,0.29411351680755615,0.49632118225097654,0.17749238014221191,0.9691452383995056,0.5192921829223632,0.17797501385211945,0.9331189393997192,0.9113333333333333,,,,,,
50,57,2850,-44.617331492050326,0.014023755677044392,0.014023755677044392,0.13102567195892334,0.41041725158691406,0.15964439511299133,1.0320073366165161,0.51963623046875,0.13572977483272552,0.9637129902839661,0.9097500000000001,,,,,,
51,58,2900,-49.60214022343719,0.02570507302880287,0.02570507302880287,0.1716613471508026,0.4574980163574219,0.16888689994812012,0.8879303932189941,0.5543806838989258,0.14459386467933655,0.9147087931632996,0.9081666666666667,,,,,,
52,59,2950,-84.48287372980859,0.016351496800780296,0.016351496800780296,0.178071528673172,0.41339572906494143,0.1607925444841385,0.8956832885742188,0.5436782455444336,0.14234274625778198,0.8927764892578125,0.9065833333333333,,,,,,
53,60,3000,-52.537377173485076,0.03273002430796623,0.03273002430796623,0.21622617542743683,0.49166744232177734,0.16552995145320892,0.8946486711502075,0.5683932876586915,0.16416007280349731,0.8761894702911377,0.905,,,,,,
54,61,3050,-43.65654710112115,0.026109976693987846,0.026109976693987846,0.16269464790821075,0.5021414184570312,0.18101853132247925,1.046523928642273,0.606519660949707,0.12173523753881454,0.8939048647880554,0.9034166666666666,,,,,,
55,62,3100,-43.699690856621565,0.03277427330613136,0.03277427330613136,0.2666518986225128,0.47812129974365236,0.17473052442073822,1.0409348011016846,0.5016058731079102,0.17398561537265778,0.9366912841796875,0.9018333333333334,,,,,,
56,63,3150,-60.92719569552425,0.03285495936870575,0.03285495936870575,0.28326722979545593,0.47441001892089846,0.1573559194803238,1.03444504737854,0.5132123565673828,0.15565770864486694,0.742355465888977,0.90025,,,,,,
57,64,3200,-49.560477800407206,0.03306310251355171,0.03306310251355171,0.2603790760040283,0.48594863891601564,0.1716141253709793,1.0381485223770142,0.5255462646484375,0.15037071704864502,0.8786258697509766,0.8986666666666667,,,,,,
58,65,3250,-37.0462983075619,0.013923222199082375,0.013923222199082375,0.15893319249153137,0.4231312942504883,0.14260275661945343,0.8000525236129761,0.5376630020141602,0.10976309329271317,0.8141953349113464,0.8970833333333333,,,,,,
59,66,3300,-75.14433416378252,0.035691965371370316,0.035691965371370316,0.23142623901367188,0.4973521423339844,0.16277512907981873,0.9665650725364685,0.5576419448852539,0.21617276966571808,1.1520729064941406,0.8955,,,,,,
60,67,3350,-52.166380227652006,0.03182459995150566,0.03182459995150566,0.19976115226745605,0.466146240234375,0.15310484170913696,1.0252915620803833,0.5266693496704101,0.2264537215232849,1.1523361206054688,0.8939166666666667,,,,,,
61,68,3400,-61.88654722640497,0.029799725860357285,0.029799725860357285,0.22538502514362335,0.4711181640625,0.17472386360168457,1.0344054698944092,0.5207101058959961,0.1651955246925354,0.8886415362358093,0.8923333333333333,,,,,,
62,69,3450,-63.1704964221235,0.0185567457228899,0.0185567457228899,0.19722631573677063,0.4719610595703125,0.14243753254413605,0.994441032409668,0.5016209411621094,0.1389612853527069,0.939117968082428,0.89075,,,,,,
63,70,3500,-74.99481187047961,0.04020731523633003,0.04020731523633003,0.2859107553958893,0.455859375,0.15656305849552155,0.9975003004074097,0.47532699584960936,0.20966240763664246,0.9467090368270874,0.8891666666666667,,,,,,
64,71,3550,-69.79642655341485,0.016808195039629936,0.016808195039629936,0.15025050938129425,0.39046760559082033,0.16600890457630157,0.924095869064331,0.5295809936523438,0.17487192153930664,0.9586174488067627,0.8875833333333334,,,,,,
65,72,3600,-42.8602813022641,0.02999904938042164,0.02999904938042164,0.2920385003089905,0.43398792266845704,0.14535747468471527,0.8418691754341125,0.44425315856933595,0.1604434996843338,0.8163151741027832,0.886,,,,,,
66,73,3650,-57.48834127865018,0.02219785749912262,0.02219785749912262,0.1681489646434784,0.44772895812988284,0.16714319586753845,0.9472373723983765,0.559962272644043,0.1564754843711853,0.8903019428253174,0.8844166666666666,,,,,,
67,74,3700,-59.85803607972611,0.018581034615635872,0.018581034615635872,0.15292957425117493,0.3794397354125977,0.13758346438407898,0.9773807525634766,0.4289789962768555,0.1331915557384491,0.6863733530044556,0.8828333333333334,,,,,,
68,75,3750,-43.57156789536837,0.028191037476062775,0.028191037476062775,0.2107912302017212,0.4807326126098633,0.15105515718460083,0.9731297492980957,0.5312365341186523,0.22529923915863037,1.1523213386535645,0.88125,1.489754441177954,5,0.411,0.641,-108.93206664205022,-108.93206664205022
69,76,3800,-56.67453208317864,0.023471646010875702,0.023471646010875702,0.2213350534439087,0.39274105072021487,0.13662241399288177,0.9271835684776306,0.41248790740966795,0.15221013128757477,0.766791582107544,0.8796666666666667,,,,,,
70,77,3850,-50.24370349498799,0.019865863025188446,0.019865863025188446,0.14948193728923798,0.5053691101074219,0.13690103590488434,0.9536480903625488,0.5725193405151368,0.1459769606590271,0.8465383052825928,0.8780833333333333,,,,,,
71,78,3900,-52.117384162508415,0.028532685711979866,0.028532685711979866,0.13403992354869843,0.49151512145996096,0.15100406110286713,0.9497117400169373,0.5805599975585938,0.18822017312049866,0.8952981233596802,0.8765000000000001,,,,,,
72,79,3950,-52.953232993081414,0.021214477717876434,0.021214477717876434,0.13888344168663025,0.4495405578613281,0.16216903924942017,0.956087589263916,0.5145555114746094,0.18318018317222595,0.8258068561553955,0.8749166666666667,,,,,,
73,80,4000,-55.416001402456416,0.02007628045976162,0.02007628045976162,0.1543188989162445,0.37939334869384767,0.14100435376167297,0.8983694314956665,0.42406494140625,0.17207784950733185,0.8202926516532898,0.8733333333333333,,,,,,
74,81,4050,-84.11331338168277,0.026765096932649612,0.026765096932649612,0.23741444945335388,0.4175407791137695,0.16344094276428223,0.957065761089325,0.43653366088867185,0.20741349458694458,0.8824580907821655,0.87175,,,,,,
75,82,4100,-87.73139865133236,0.0323321558535099,0.0323321558535099,0.2436598539352417,0.4425551605224609,0.13685891032218933,0.8602179288864136,0.47272193908691407,0.19860753417015076,0.9478346109390259,0.8701666666666666,,,,,,
76,83,4150,-87.72962059558805,0.023403804749250412,0.023403804749250412,0.131881445646286,0.41004295349121095,0.1422957479953766,0.7953988909721375,0.4681142807006836,0.2197519987821579,0.959493100643158,0.8685833333333334,,,,,,
77,84,4200,-75.31746727905086,0.027889518067240715,0.027889518067240715,0.202861487865448,0.40655227661132814,0.16814827919006348,0.9284427165985107,0.5423061370849609,0.20288465917110443,0.8819726705551147,0.867,,,,,,
78,85,4250,-65.05626609680249,0.02779003418982029,0.02779003418982029,0.35072192549705505,0.39174217224121094,0.15636588633060455,0.9856134057044983,0.3746775436401367,0.1420733779668808,0.6180160045623779,0.8654166666666667,,,,,,
79,86,4300,-41.54337946175379,0.026824582368135452,0.026824582368135452,0.18759283423423767,0.3942446517944336,0.1678747534751892,0.9060391187667847,0.43828826904296875,0.2015158236026764,0.9586634635925293,0.8638333333333333,,,,,,
80,87,4350,-43.778878256488476,0.018502766266465187,0.018502766266465187,0.1810547113418579,0.3782173156738281,0.12895160913467407,0.844609260559082,0.4056509399414063,0.1491122990846634,0.7918392419815063,0.86225,,,,,,
81,88,4400,-70.81479442566823,0.025988172739744186,0.025988172739744186,0.1874609887599945,0.38270462036132813,0.13105803728103638,0.7501518726348877,0.42612194061279296,0.1772117167711258,0.7879759073257446,0.8606666666666667,,,,,,
82,89,4450,-78.98253693614906,0.025429578498005867,0.025429578498005867,0.12410087883472443,0.4006869506835937,0.16136524081230164,0.7975984811782837,0.49240406036376955,0.19299368560314178,0.8270992040634155,0.8590833333333333,,,,,,
83,90,4500,-28.407187010015292,0.029785379767417908,0.029785379767417908,0.28501179814338684,0.3391022872924805,0.11440784484148026,0.8966856598854065,0.33882755279541016,0.18096451461315155,0.6802855730056763,0.8575,,,,,,
84,91,4550,-64.6070579528896,0.037561122328042984,0.037561122328042984,0.38389328122138977,0.39999515533447266,0.1278633326292038,0.8153716921806335,0.3842765808105469,0.2072402387857437,0.8260161876678467,0.8559166666666667,,,,,,
85,92,4600,-57.243396291842316,0.03697161376476288,0.03697161376476288,0.4304978549480438,0.3808084869384766,0.148830384016037,0.9046593904495239,0.33257781982421875,0.1985948234796524,0.8254196643829346,0.8543333333333334,,,,,,
86,93,4650,-87.80350812059004,0.03142532333731651,0.03142532333731651,0.25085610151290894,0.3918423080444336,0.13372957706451416,0.8977957963943481,0.40514068603515624,0.20848777890205383,0.8674888610839844,0.85275,,,,,,
87,94,4700,-52.66442667662015,0.02940208837389946,0.02940208837389946,0.19784782826900482,0.37081806182861327,0.190420001745224,1.0755921602249146,0.41733531951904296,0.24151624739170074,0.9544548392295837,0.8511666666666666,,,,,,
88,95,4750,-65.31974270555716,0.03283882886171341,0.03283882886171341,0.3591766357421875,0.3612252807617187,0.1316746175289154,0.8705896139144897,0.3338355255126953,0.17154142260551453,0.7786839008331299,0.8495833333333334,,,,,,
89,96,4800,-66.92297264883365,0.03252307325601578,0.03252307325601578,0.3567466139793396,0.3501274490356445,0.12532295286655426,0.7445217370986938,0.3227194213867188,0.1661222130060196,0.6726410388946533,0.848,,,,,,
90,97,4850,-122.33869766497413,0.021984729915857315,0.021984729915857315,0.26984840631484985,0.33104667663574217,0.11493074148893356,0.6901869773864746,0.3210886383056641,0.14837907254695892,0.7625336050987244,0.8464166666666667,,,,,,
91,98,4900,-37.25425270505059,0.02210426889359951,0.02210426889359951,0.13957634568214417,0.32661659240722657,0.10548735409975052,0.6852845549583435,0.3669261932373047,0.19975174963474274,0.7661725878715515,0.8448333333333333,,,,,,
92,99,4950,-52.23762698163272,0.02362585999071598,0.02362585999071598,0.18282923102378845,0.31983572006225586,0.134853795170784,0.695697546005249,0.3547898483276367,0.1843862235546112,0.8747795224189758,0.84325,,,,,,
93,100,5000,-78.14705033856998,0.02982533909380436,0.02982533909380436,0.2594965994358063,0.36123100280761716,0.12268440425395966,0.8879063725471497,0.3592874145507812,0.20122294127941132,0.8582634925842285,0.8416666666666667,1.3724683147655707,5,0.477,0.738,-130.05301483781014,-130.05301483781014
94,101,5050,-70.4836378931895,0.031148694455623627,0.031148694455623627,0.337446004152298,0.3251216888427734,0.12746426463127136,0.7976678013801575,0.31317150115966796,0.20982277393341064,0.8183416128158569,0.8400833333333333,,,,,,
95,102,5100,-82.20427252876337,0.03467376530170441,0.03467376530170441,0.4648534953594208,0.3426054000854492,0.11913523077964783,0.690406084060669,0.2786566352844238,0.15576593577861786,0.6482740044593811,0.8385,,,,,,
96,103,5150,-61.72918290093769,0.031110815703868866,0.031110815703868866,0.26530978083610535,0.36284561157226564,0.1399630904197693,0.9941449761390686,0.3723962020874023,0.24005983769893646,0.956308126449585,0.8369166666666666,,,,,,
97,104,5200,-38.34462960025814,0.01991674117743969,0.01991674117743969,0.1950036585330963,0.29446231842041015,0.11764229834079742,0.8136067986488342,0.31486358642578127,0.14948193728923798,0.6101682186126709,0.8353333333333334,,,,,,
98,105,5250,-56.42672920867462,0.023663220927119255,0.023663220927119255,0.11979133635759354,0.31986013412475583,0.12703409790992737,0.9250223636627197,0.38752418518066406,0.1933903992176056,0.8142039179801941,0.83375,,,,,,
99,106,5300,-80.70118176386438,0.027710871770977974,0.027710871770977974,0.21424758434295654,0.32193675994873044,0.12367374449968338,0.7745987176895142,0.3603226089477539,0.1977774053812027,0.7642421126365662,0.8321666666666667,,,,,,
100,107,5350,-71.97446379991888,0.023452403023838997,0.023452403023838997,0.20984691381454468,0.2736961555480957,0.1153339073061943,0.724625825881958,0.29184900283813475,0.18251271545886993,0.7964922189712524,0.8305833333333333,,,,,,
101,108,5400,-61.22290692025939,0.023789865896105766,0.023789865896105766,0.28925836086273193,0.2887295722961426,0.11079492419958115,0.6968721151351929,0.26730741500854494,0.1748950034379959,0.7363646626472473,0.829,,,,,,
102,109,5450,-38.444042036152005,0.02198595553636551,0.02198595553636551,0.19761204719543457,0.2523518753051758,0.11860231310129166,0.7740731835365295,0.26743650436401367,0.17469817399978638,0.7318379878997803,0.8274166666666667,,,,,,
103,110,5500,-53.2959179690979,0.025869369506835938,0.025869369506835938,0.2202489674091339,0.2803379249572754,0.11913778632879257,0.7360994815826416,0.32230377197265625,0.20425064861774445,0.808279812335968,0.8258333333333334,,,,,,
104,111,5550,-48.15869569892405,0.01794004812836647,0.01794004812836647,0.13492807745933533,0.2388978958129883,0.10897216200828552,0.5099362134933472,0.3713165283203125,0.18581461906433105,0.8070061206817627,0.82425,,,,,,
105,112,5600,-51.86503848279318,0.02811450883746147,0.02811450883746147,0.14238858222961426,0.3448737335205078,0.14613968133926392,0.9168756604194641,0.4654026794433594,0.23964019119739532,0.9574843645095825,0.8226666666666667,,,,,,
106,113,5650,-59.6108660871966,0.025166168808937073,0.025166168808937073,0.24222497642040253,0.24929140090942384,0.10608329623937607,0.6454548239707947,0.27455284118652346,0.17485159635543823,0.8302177786827087,0.8210833333333334,,,,,,
107,114,5700,-48.52599241746452,0.02252417802810669,0.02252417802810669,0.15668120980262756,0.2738355827331543,0.13306142389774323,0.9037832021713257,0.41545921325683594,0.21983732283115387,0.9573363065719604,0.8195,,,,,,
108,115,5750,-39.35067473764871,0.019647963345050812,0.019647963345050812,0.18641144037246704,0.22939903259277344,0.13003917038440704,0.7878170013427734,0.2717881202697754,0.16332051157951355,0.6023718118667603,0.8179166666666666,,,,,,
109,116,5800,-40.0890157908279,0.02128196880221367,0.02128196880221367,0.10501789301633835,0.2762413024902344,0.12355937063694,0.7908828258514404,0.36934135437011717,0.16350065171718597,0.7634983658790588,0.8163333333333334,,,,,,
110,117,5850,-61.71143152100405,0.02879222482442856,0.02879222482442856,0.1887563169002533,0.25448524475097656,0.11200693994760513,0.5648925304412842,0.3995027923583984,0.21169079840183258,0.8531858921051025,0.81475,,,,,,
111,118,5900,-80.15431810901738,0.025422558188438416,0.025422558188438416,0.2149050086736679,0.28924013137817384,0.14683391153812408,0.8832796216011047,0.4504096984863281,0.2425096482038498,0.9567720890045166,0.8131666666666667,,,,,,
112,119,5950,-52.377680884982894,0.02202153019607067,0.02202153019607067,0.14261579513549805,0.23216131210327148,0.125535249710083,0.631313681602478,0.3599987411499023,0.16563160717487335,0.7881498336791992,0.8115833333333333,,,,,,
113,120,6000,-51.50852259879985,0.022280478850007057,0.022280478850007057,0.1121266633272171,0.24016691207885743,0.11160669475793839,0.5739134550094604,0.3188591194152832,0.17663055658340454,0.7458518743515015,0.81,,,,,,
114,121,6050,-82.34949105081336,0.02096637897193432,0.02096637897193432,0.2655216157436371,0.23183422088623046,0.12460561096668243,0.6285249590873718,0.24729000091552733,0.1843239963054657,0.613730788230896,0.8084166666666667,,,,,,
115,122,6100,-45.11251074315687,0.018747858703136444,0.018747858703136444,0.11231399327516556,0.25458076477050784,0.10379278659820557,0.5526638031005859,0.31714788436889646,0.16942226886749268,0.7948688268661499,0.8068333333333333,,,,,,
116,123,6150,-87.75581336049417,0.018870964646339417,0.018870964646339417,0.19804009795188904,0.232220401763916,0.11365744471549988,0.5573979616165161,0.38026779174804687,0.14135071635246277,0.8383266925811768,0.80525,,,,,,
117,124,6200,-50.20121655122456,0.01823757402598858,0.01823757402598858,0.12029540538787842,0.2301993751525879,0.1294671595096588,0.5962040424346924,0.34943328857421874,0.157466322183609,0.7625775337219238,0.8036666666666666,,,,,,
118,125,6250,-68.85555249666257,0.030261313542723656,0.030261313542723656,0.33213159441947937,0.21970308303833008,0.11419451981782913,0.5552898645401001,0.43149486541748044,0.20862527191638947,0.836387574672699,0.8020833333333334,1.483155475747667,5,0.441,0.656,-150.8960138149279,-150.8960138149279
119,126,6300,-79.3082189590091,0.0232838224619627,0.0232838224619627,0.16822713613510132,0.24325172424316407,0.12539729475975037,0.7381168603897095,0.3923062896728516,0.15363040566444397,0.7436237931251526,0.8005,,,,,,
120,127,6350,-48.83714039769965,0.019343441352248192,0.019343441352248192,0.22552423179149628,0.2530564308166504,0.11495065689086914,0.6073551177978516,0.42422248840332033,0.146768257021904,0.7773993015289307,0.7989166666666667,,,,,,
121,128,6400,-59.011665690561145,0.02501918375492096,0.02501918375492096,0.2032594084739685,0.2594048309326172,0.14359025657176971,0.8668054342269897,0.42702953338623045,0.22449235618114471,0.9548635482788086,0.7973333333333333,,,,,,
122,129,6450,-42.0579276752041,0.015830688178539276,0.015830688178539276,0.16769646108150482,0.2064634704589844,0.095331110060215,0.49227795004844666,0.33853897094726565,0.17099399864673615,0.7403379678726196,0.79575,,,,,,
123,130,6500,-27.00373302108091,0.022286031395196915,0.022286031395196915,0.13569170236587524,0.23458723068237305,0.10205604881048203,0.5437434315681458,0.3569667053222656,0.18797999620437622,0.7586867809295654,0.7941666666666667,,,,,,
124,131,6550,-69.40573131518305,0.019234467297792435,0.019234467297792435,0.18855339288711548,0.21232702255249022,0.10616370290517807,0.6093264818191528,0.3694449234008789,0.13259734213352203,0.6921771168708801,0.7925833333333334,,,,,,
125,132,6600,-37.95608619385652,0.014616494998335838,0.014616494998335838,0.10291474312543869,0.24932653427124024,0.12685835361480713,0.672273576259613,0.37217327117919924,0.1351272314786911,0.7583457231521606,0.791,,,,,,
126,133,6650,-68.48011963998982,0.011646577157080173,0.011646577157080173,0.07505015283823013,0.24833179473876954,0.10720338672399521,0.5784555077552795,0.33027713775634765,0.13675253093242645,0.9181003570556641,0.7894166666666667,,,,,,
127,134,6700,-66.04513246629386,0.018117981031537056,0.018117981031537056,0.23737303912639618,0.255130500793457,0.10896530747413635,0.6265726685523987,0.43251842498779297,0.15100282430648804,0.8094933032989502,0.7878333333333334,,,,,,
128,135,6750,-96.0884568650432,0.02076016366481781,0.02076016366481781,0.1361761838197708,0.2695181465148926,0.12290541082620621,0.665565013885498,0.40761260986328124,0.1525755524635315,0.7670351266860962,0.78625,,,,,,
129,136,6800,-47.15215808118683,0.019624270498752594,0.019624270498752594,0.1689707487821579,0.2567333221435547,0.12817765772342682,0.6686347723007202,0.4131943130493164,0.1358679085969925,0.7369167804718018,0.7846666666666666,,,,,,
130,137,6850,-80.4966749799397,0.01597864180803299,0.01597864180803299,0.1802435666322708,0.2730537223815918,0.11667360365390778,0.7057300806045532,0.3307809066772461,0.12054549157619476,0.5952482223510742,0.7830833333333334,,,,,,
131,138,6900,-74.11548419634488,0.018824784085154533,0.018824784085154533,0.25339773297309875,0.2681575393676758,0.10268081724643707,0.5562102794647217,0.4518917083740234,0.13436560332775116,0.8661436438560486,0.7815,,,,,,
132,139,6950,-66.94328008563278,0.013475301675498486,0.013475301675498486,0.15256261825561523,0.27576868057250975,0.10755611211061478,0.6259485483169556,0.4157029342651367,0.13645759224891663,0.7564307451248169,0.7799166666666667,,,,,,
133,140,7000,-72.68977526307035,0.01529773510992527,0.01529773510992527,0.15429434180259705,0.24537128448486328,0.12246697396039963,0.5745546817779541,0.3867028045654297,0.15588262677192688,0.762078583240509,0.7783333333333333,,,,,,
134,141,7050,-42.76238919105687,0.015714284032583237,0.015714284032583237,0.13693125545978546,0.22205514907836915,0.10374437272548676,0.5935467481613159,0.35526317596435547,0.12967194616794586,0.7038561105728149,0.77675,,,,,,
135,142,7100,-54.16907611279689,0.015022700652480125,0.015022700652480125,0.14370402693748474,0.2871731948852539,0.11787077784538269,0.6498256325721741,0.43506038665771485,0.1413390040397644,0.7743515968322754,0.7751666666666667,,,,,,
136,143,7150,-80.10522063604411,0.013193326070904732,0.013193326070904732,0.16968196630477905,0.2772252655029297,0.1068776398897171,0.5560972690582275,0.43348045349121095,0.10623481869697571,0.7234230041503906,0.7735833333333333,,,,,,
137,144,7200,-65.92329058063832,0.015534861944615841,0.015534861944615841,0.12114937603473663,0.28270008087158205,0.10694225132465363,0.6321764588356018,0.4094594573974609,0.1264658421278,0.6830796599388123,0.772,,,,,,
138,145,7250,-55.38515817348316,0.01200252864509821,0.01200252864509821,0.06357728689908981,0.31209444046020507,0.09954541176557541,0.6009430885314941,0.42354042053222657,0.13199591636657715,0.7550851106643677,0.7704166666666666,,,,,,
139,146,7300,-52.885769682146886,0.02032857947051525,0.02032857947051525,0.21450333297252655,0.2797804641723633,0.11218086630105972,0.5691335797309875,0.4621334457397461,0.14084501564502716,0.742721438407898,0.7688333333333334,,,,,,
140,147,7350,-56.455931860545334,0.01904754899442196,0.01904754899442196,0.26148203015327454,0.2705820083618164,0.13746415078639984,0.932037889957428,0.4601628875732422,0.18842054903507233,0.9546316862106323,0.76725,,,,,,
141,148,7400,-74.18139201149488,0.014251865446567535,0.014251865446567535,0.21375763416290283,0.2828774642944336,0.11823485046625137,0.579410195350647,0.452889518737793,0.11921220272779465,0.7414541244506836,0.7656666666666667,,,,,,
142,149,7450,-65.19509792760033,0.015156591311097145,0.015156591311097145,0.10317050665616989,0.31643268585205075,0.12839391827583313,0.7128674387931824,0.4074224853515625,0.12829194962978363,0.7258400917053223,0.7640833333333333,,,,,,
143,150,7500,-67.5409644150907,0.013624715618789196,0.013624715618789196,0.16112090647220612,0.2698760223388672,0.09565307945013046,0.5697397589683533,0.41851470947265623,0.1286533921957016,0.680252194404602,0.7625,1.5252541570710594,5,0.402,0.592,-150.23436984420206,-150.23436984420206
144,151,7550,-52.078064927928835,0.011557290330529213,0.011557290330529213,0.1065954938530922,0.33412593841552735,0.10140300542116165,0.6467320322990417,0.44932262420654295,0.12583591043949127,0.7694680690765381,0.7609166666666667,,,,,,
145,152,7600,-79.85529513305326,0.012474915944039822,0.012474915944039822,0.10021619498729706,0.3257571029663086,0.11076941341161728,0.5861075520515442,0.4614476776123047,0.11635418981313705,0.7715559601783752,0.7593333333333333,,,,,,
146,153,7650,-64.26704381384515,0.015155365690588951,0.015155365690588951,0.10602964460849762,0.2990045166015625,0.12504753470420837,0.6546719074249268,0.4243772506713867,0.13019882142543793,0.7717607021331787,0.75775,,,,,,
147,154,7700,-46.098571182220496,0.01413966529071331,0.01413966529071331,0.1348811388015747,0.2953571891784668,0.12149403244256973,0.6281516551971436,0.42255531311035155,0.10996653139591217,0.7706648111343384,0.7561666666666667,,,,,,
148,155,7750,-91.18563308270211,0.013780348002910614,0.013780348002910614,0.21386714279651642,0.310353946685791,0.10621141642332077,0.6146666407585144,0.47420806884765626,0.13092538714408875,0.9234586954116821,0.7545833333333334,,,,,,
149,156,7800,-88.85100709237935,0.018367478623986244,0.018367478623986244,0.18251895904541016,0.3125971412658691,0.14495590329170227,0.9736632704734802,0.46972461700439455,0.1968039870262146,0.9569648504257202,0.753,,,,,,
150,157,7850,-68.1466212829781,0.015183213166892529,0.015183213166892529,0.0928642526268959,0.3059238052368164,0.10657747089862823,0.5800830125808716,0.4117660903930664,0.131840318441391,0.8653241395950317,0.7514166666666666,,,,,,
151,158,7900,-70.72406749159269,0.011876635253429413,0.011876635253429413,0.10225345939397812,0.30486860275268557,0.11548555642366409,0.6040637493133545,0.42337688446044924,0.12505461275577545,0.7459288239479065,0.7498333333333334,,,,,,
152,159,7950,-48.45606800627879,0.016018878668546677,0.016018878668546677,0.17495496571063995,0.3086244010925293,0.12151734530925751,0.6114499568939209,0.46285903930664063,0.12302401661872864,0.7430141568183899,0.7482500000000001,,,,,,
153,160,8000,-56.47901955868323,0.009434645995497704,0.009434645995497704,0.11968209594488144,0.3044890785217285,0.10670572519302368,0.6411548256874084,0.36003105163574217,0.11145418882369995,0.6623594760894775,0.7466666666666667,,,,,,
154,161,8050,-81.91707059453194,0.011234533973038197,0.011234533973038197,0.09481069445610046,0.3040470123291016,0.10667995363473892,0.6203818321228027,0.4128719329833984,0.11176112294197083,0.6460713744163513,0.7450833333333333,,,,,,
155,162,8100,-49.37037145963602,0.014880044385790825,0.014880044385790825,0.11437586694955826,0.34288951873779294,0.1395016312599182,0.8675872087478638,0.47797805786132813,0.13206180930137634,0.9084131717681885,0.7435,,,,,,
156,163,8150,-49.95370608981182,0.010732646100223064,0.010732646100223064,0.07609068602323532,0.3187836074829102,0.11876757442951202,0.6730625033378601,0.43217155456542966,0.13135017454624176,0.764423131942749,0.7419166666666667,,,,,,
157,164,8200,-69.96966191174249,0.013214199803769588,0.013214199803769588,0.16914129257202148,0.2971381950378418,0.11649040132761002,0.6571828722953796,0.448333740234375,0.11298085749149323,0.7671483755111694,0.7403333333333333,,,,,,
158,165,8250,-54.73820474789195,0.014437063597142696,0.014437063597142696,0.1337134838104248,0.3095666313171387,0.1223883181810379,0.6137052774429321,0.3726117706298828,0.09219374507665634,0.6642715930938721,0.73875,,,,,,
159,166,8300,-46.739931323338105,0.01569630205631256,0.01569630205631256,0.14318780601024628,0.3588806915283203,0.11494189500808716,0.6572691202163696,0.4248280715942383,0.13078834116458893,0.7365484237670898,0.7371666666666667,,,,,,
160,167,8350,-52.46918439474764,0.014822829514741898,0.014822829514741898,0.2015121728181839,0.3451850509643555,0.11801772564649582,0.7071354389190674,0.37797855377197265,0.11160112917423248,0.6452890038490295,0.7355833333333334,,,,,,
161,168,8400,-96.48622441575591,0.014037111774086952,0.014037111774086952,0.12300944328308105,0.3813443374633789,0.12617690861225128,0.8684161901473999,0.46026603698730467,0.1269371211528778,0.9125417470932007,0.734,,,,,,
162,169,8450,-75.05787680416557,0.012972928583621979,0.012972928583621979,0.07366154342889786,0.3535559844970703,0.1255933791399002,0.7363603115081787,0.45782405853271485,0.1207197979092598,0.7553873062133789,0.7324166666666667,,,,,,
163,170,8500,-33.28145211855787,0.014316014014184475,0.014316014014184475,0.17877435684204102,0.356810188293457,0.11264879256486893,0.709952175617218,0.5143606185913085,0.11745679378509521,0.7036277055740356,0.7308333333333333,,,,,,
164,171,8550,-67.63178539438505,0.014011995866894722,0.014011995866894722,0.1097053587436676,0.3202669906616211,0.11652375757694244,0.6623979806900024,0.4224878692626953,0.14030034840106964,0.94635009765625,0.72925,,,,,,
165,172,8600,-73.0122312047352,0.011253492906689644,0.011253492906689644,0.08305438607931137,0.36020023345947266,0.1123187467455864,0.7358077168464661,0.43237747192382814,0.12084994465112686,0.7556479573249817,0.7276666666666667,,,,,,
166,173,8650,-72.12956850254439,0.0102402837947011,0.0102402837947011,0.08152623474597931,0.34678375244140625,0.0962071642279625,0.627294659614563,0.43073787689208987,0.10293900221586227,0.7186294198036194,0.7260833333333334,,,,,,
167,174,8700,-53.75024992624556,0.0124569833278656,0.0124569833278656,0.07494022697210312,0.31787954330444335,0.11105559021234512,0.6758813261985779,0.41751590728759763,0.0993727371096611,0.6796594858169556,0.7245,,,,,,
168,175,8750,-86.82401968996236,0.0134589783847332,0.0134589783847332,0.06889349222183228,0.351544189453125,0.11399108916521072,0.694282591342926,0.45568626403808593,0.12112406641244888,0.6992969512939453,0.7229166666666667,1.5302197529874046,5,0.345,0.59,-123.73861119979385,-123.73861119979388
169,176,8800,-86.11211300026574,0.009698753245174885,0.009698753245174885,0.05369159206748009,0.32911468505859376,0.1036679819226265,0.5952693819999695,0.41845367431640623,0.13365262746810913,0.7609587907791138,0.7213333333333334,,,,,,
170,177,8850,-74.72891251460408,0.013545057736337185,0.013545057736337185,0.1274717003107071,0.3681795883178711,0.11499445885419846,0.7617493867874146,0.4411563491821289,0.1500258445739746,0.8502277731895447,0.71975,,,,,,
171,178,8900,-75.29420876131006,0.012882922776043415,0.012882922776043415,0.08429064601659775,0.3415711975097656,0.11989866197109222,0.669477105140686,0.45046703338623045,0.13231663405895233,0.9311630725860596,0.7181666666666666,,,,,,
172,179,8950,-62.66491290217082,0.01239763107150793,0.01239763107150793,0.08840368688106537,0.3512882232666016,0.1509091556072235,0.8200750350952148,0.44017620086669923,0.1476406306028366,0.8941513299942017,0.7165833333333333,,,,,,
173,180,9000,-57.756338107124165,0.015257800929248333,0.015257800929248333,0.09364509582519531,0.3670221710205078,0.12786251306533813,0.5990959405899048,0.48696495056152345,0.14071233570575714,0.8146682977676392,0.7150000000000001,,,,,,
174,181,9050,-72.9410086774109,0.01144346036016941,0.01144346036016941,0.08602462708950043,0.3262524795532227,0.1302710920572281,0.8885715007781982,0.423931884765625,0.14632412791252136,0.9262620210647583,0.7134166666666666,,,,,,
175,182,9100,-72.30772617150781,0.014065095223486423,0.014065095223486423,0.07509801536798477,0.3532560348510742,0.13288907706737518,0.8374536633491516,0.4618826675415039,0.1441827118396759,0.9196851849555969,0.7118333333333333,,,,,,
176,183,9150,-48.494501091840505,0.010531141422688961,0.010531141422688961,0.0937209352850914,0.34584632873535154,0.10584400594234467,0.7037674188613892,0.4233684539794922,0.11815834790468216,0.7367056608200073,0.71025,,,,,,
177,184,9200,-49.85658716647378,0.012821488082408905,0.012821488082408905,0.07773289829492569,0.3563852310180664,0.10627637803554535,0.7012045383453369,0.44427631378173826,0.1255514770746231,0.7094062566757202,0.7086666666666668,,,,,,
178,185,9250,-67.01901464915733,0.011302310042083263,0.011302310042083263,0.0663805678486824,0.3262794494628906,0.10990366339683533,0.6287500262260437,0.43126399993896486,0.11953368782997131,0.823000431060791,0.7070833333333333,,,,,,
179,186,9300,-56.47639395012152,0.010799900628626347,0.010799900628626347,0.09059953689575195,0.324163932800293,0.114357128739357,0.6365230679512024,0.41722908020019533,0.1020481213927269,0.6857545971870422,0.7055,,,,,,
180,187,9350,-40.375536335364245,0.011120570823550224,0.011120570823550224,0.0917029157280922,0.34117233276367187,0.11158443242311478,0.6916783452033997,0.44358642578125,0.0973217561841011,0.6854009628295898,0.7039166666666667,,,,,,
181,188,9400,-52.72730050972945,0.011220525950193405,0.011220525950193405,0.0874834880232811,0.31828399658203127,0.10583889484405518,0.6097397804260254,0.4090172576904297,0.10214509814977646,0.7597756385803223,0.7023333333333333,,,,,,
182,189,9450,-75.48466372916317,0.013429123908281326,0.013429123908281326,0.09538592398166656,0.3658008193969727,0.10631955415010452,0.6747581362724304,0.4547629547119141,0.13454167544841766,0.8992575407028198,0.70075,,,,,,
183,190,9500,-68.52111535325444,0.011557289399206638,0.011557289399206638,0.13025736808776855,0.32279975891113283,0.11678237468004227,0.7414801120758057,0.3853190612792969,0.11528018862009048,0.7147506475448608,0.6991666666666667,,,,,,
184,191,9550,-62.36646012374218,0.00937891099601984,0.00937891099601984,0.046390581876039505,0.3202392196655273,0.09245805442333221,0.5569846034049988,0.40669845581054687,0.11329662054777145,0.6885029077529907,0.6975833333333333,,,,,,
185,192,9600,-41.616135979268165,0.011342382058501244,0.011342382058501244,0.09916023164987564,0.35682010650634766,0.09965822100639343,0.6735895872116089,0.43989585876464843,0.10970372706651688,0.7650645971298218,0.696,,,,,,
186,193,9650,-107.9943062759818,0.009403499774634838,0.009403499774634838,0.06391869485378265,0.3080374526977539,0.10491424053907394,0.6245090961456299,0.4046553421020508,0.0953340232372284,0.6698195934295654,0.6944166666666667,,,,,,
187,194,9700,-92.52059755740488,0.01071325782686472,0.01071325782686472,0.11819722503423691,0.3275305938720703,0.13190871477127075,0.6392375230789185,0.4499675369262695,0.10361099243164062,0.7298495769500732,0.6928333333333334,,,,,,
188,195,9750,-79.03481334685713,0.009636991657316685,0.009636991657316685,0.10673116147518158,0.3167971992492676,0.1009204164147377,0.5621435642242432,0.4421998977661133,0.10059715807437897,0.6939630508422852,0.69125,,,,,,
189,196,9800,-163.28624265301164,0.009839803911745548,0.009839803911745548,0.07873451709747314,0.30752119064331057,0.10239293426275253,0.6617428064346313,0.4116635513305664,0.09040375053882599,0.6554381847381592,0.6896666666666667,,,,,,
190,197,9850,-60.25193180606849,0.009903314523398876,0.009903314523398876,0.1652187705039978,0.3385296630859375,0.09876122325658798,0.6659636497497559,0.3866339111328125,0.1099010556936264,0.6946186423301697,0.6880833333333334,,,,,,
191,198,9900,-76.95645101902882,0.01076229102909565,0.01076229102909565,0.08395858854055405,0.342864990234375,0.09234350174665451,0.6466566324234009,0.4365184783935547,0.1005915030837059,0.7224863767623901,0.6865,,,,,,
192,199,9950,-44.50538351029829,0.011779049411416054,0.011779049411416054,0.08869998157024384,0.33502349853515623,0.12066453695297241,0.7113673090934753,0.4625787353515625,0.10803834348917007,0.755439043045044,0.6849166666666666,,,,,,
193,200,10000,-43.85989224038703,0.011534584686160088,0.011534584686160088,0.11603827774524689,0.3339836883544922,0.09540411829948425,0.5672136545181274,0.4658219909667969,0.10774611681699753,0.8005326986312866,0.6833333333333333,1.5147240811696039,5,0.342,0.585,-128.0016330561202,-128.00163305612017
194,201,10050,-76.33409359110442,0.010490315966308117,0.010490315966308117,0.15870745480060577,0.3122259521484375,0.10868784040212631,0.8694612979888916,0.4611366271972656,0.13433635234832764,1.0567116737365723,0.6817500000000001,,,,,,
195,202,10100,-44.92502464054787,0.013665344566106796,0.013665344566106796,0.1259663850069046,0.35859954833984375,0.13537850975990295,0.8157511949539185,0.5092397689819336,0.14375296235084534,0.9172027707099915,0.6801666666666667,,,,,,
196,203,10150,-63.41153877803693,0.010143959894776344,0.010143959894776344,0.07666876912117004,0.32504150390625,0.11197882890701294,0.649445652961731,0.41753440856933594,0.1095353290438652,0.7459055185317993,0.6785833333333333,,,,,,
197,204,10200,-68.74419180068895,0.010281703434884548,0.010281703434884548,0.0843612551689148,0.35641510009765626,0.1144513413310051,0.6789689064025879,0.4726702880859375,0.1243554949760437,0.8503093719482422,0.677,,,,,,
198,205,10250,-76.35708170995781,0.011968073435127735,0.011968073435127735,0.12509317696094513,0.3369852828979492,0.10992778092622757,0.6610901355743408,0.4682822418212891,0.10237683355808258,0.7232195138931274,0.6754166666666667,,,,,,
199,206,10300,-62.20694666065834,0.01413655187934637,0.01413655187934637,0.16133688390254974,0.36336162567138675,0.0978609248995781,0.609525203704834,0.5079984283447265,0.11817920207977295,0.8086910843849182,0.6738333333333333,,,,,,
200,207,10350,-61.79051846962325,0.016045164316892624,0.016045164316892624,0.10782455652952194,0.35753387451171875,0.12028788030147552,0.7657489776611328,0.4633828735351562,0.12656107544898987,0.8165558576583862,0.67225,,,,,,
201,208,10400,-72.57066490778209,0.011827614158391953,0.011827614158391953,0.07320798188447952,0.35509925842285156,0.10514472424983978,0.6480064392089844,0.4678209686279297,0.09815841168165207,0.6716259717941284,0.6706666666666667,,,,,,
202,209,10450,-74.96658335527478,0.012014022096991539,0.012014022096991539,0.12772542238235474,0.31526023864746094,0.11349549889564514,0.6644851565361023,0.44267509460449217,0.13987092673778534,0.7649451494216919,0.6690833333333334,,,,,,
203,210,10500,-81.53928242948936,0.011368036270141602,0.011368036270141602,0.12659132480621338,0.3329424667358398,0.09669414907693863,0.6654798984527588,0.4607976531982422,0.1186726912856102,0.7646781802177429,0.6675,,,,,,
204,211,10550,-56.311296297104036,0.010651161894202232,0.010651161894202232,0.1344347596168518,0.3467496109008789,0.09846833348274231,0.5888996720314026,0.4172684097290039,0.0990779772400856,0.6548748016357422,0.6659166666666667,,,,,,
205,212,10600,-87.67706528288038,0.009134991094470024,0.009134991094470024,0.13100968301296234,0.3141522216796875,0.09754680097103119,0.6616877317428589,0.3735923767089844,0.12491177022457123,0.6696845293045044,0.6643333333333333,,,,,,
206,213,10650,-75.63562827996529,0.007738539017736912,0.007738539017736912,0.06593403220176697,0.3106990432739258,0.1084815263748169,0.6848273277282715,0.3926300811767578,0.09791285544633865,0.6504723429679871,0.66275,,,,,,
207,214,10700,-49.9691912097829,0.011683131568133831,0.011683131568133831,0.07702694833278656,0.38196285247802736,0.1392705738544464,0.9615378379821777,0.47615875244140626,0.17988444864749908,0.973682701587677,0.6611666666666667,,,,,,
208,215,10750,-82.98593678709663,0.013629765249788761,0.013629765249788761,0.10665322840213776,0.38559558868408206,0.12868139147758484,0.9600959420204163,0.4690868377685547,0.17830730974674225,0.9737305641174316,0.6595833333333334,,,,,,
209,216,10800,-62.03964639460159,0.01592392846941948,0.01592392846941948,0.10057278722524643,0.379589729309082,0.11785131692886353,0.7852360010147095,0.5040236282348632,0.16533415019512177,0.9237522482872009,0.658,,,,,,
210,217,10850,-63.27586116974002,0.009574657306075096,0.009574657306075096,0.07177918404340744,0.341201171875,0.12931904196739197,0.7918003797531128,0.44814754486083985,0.14788244664669037,0.8514354228973389,0.6564166666666666,,,,,,
211,218,10900,-53.04280248184272,0.010936485603451729,0.010936485603451729,0.057073794305324554,0.35630462646484373,0.11615046858787537,0.6689443588256836,0.4493276596069336,0.14423568546772003,0.7625812888145447,0.6548333333333334,,,,,,
212,219,10950,-65.79766346830007,0.011360305361449718,0.011360305361449718,0.08336178213357925,0.32234188079833986,0.14523835480213165,0.8609504699707031,0.44126602172851564,0.12502147257328033,0.8669806718826294,0.65325,,,,,,
213,220,11000,-97.21136275052918,0.009567389264702797,0.009567389264702797,0.055995747447013855,0.33856658935546874,0.10564173758029938,0.6550921201705933,0.4392869186401367,0.09330130368471146,0.698845624923706,0.6516666666666667,,,,,,
214,221,11050,-72.46326789295982,0.014520209282636642,0.014520209282636642,0.13186834752559662,0.38574466705322263,0.11927512288093567,0.7835386991500854,0.46655033111572264,0.15145961940288544,0.9236716032028198,0.6500833333333333,,,,,,
215,222,11100,-42.04393734736821,0.012839454226195812,0.012839454226195812,0.07596239447593689,0.33219203948974607,0.1163337379693985,0.6837396025657654,0.44020370483398436,0.12277583032846451,0.7059509754180908,0.6485000000000001,,,,,,
216,223,11150,-54.332371348504395,0.011426134034991264,0.011426134034991264,0.08130990713834763,0.34752937316894533,0.11341023445129395,0.6713740229606628,0.4434158706665039,0.1205938383936882,0.7445303201675415,0.6469166666666667,,,,,,
217,224,11200,-59.640000367776864,0.0089576980099082,0.0089576980099082,0.07233241200447083,0.3329484176635742,0.11627677828073502,0.6717577576637268,0.4483557891845703,0.11220227926969528,0.7703949213027954,0.6453333333333333,,,,,,
218,225,11250,-64.33901506200885,0.0096243591979146,0.0096243591979146,0.08843394368886948,0.3173892593383789,0.11413741111755371,0.6705384254455566,0.3909525680541992,0.15072309970855713,0.7443402409553528,0.64375,1.5696279591799798,5,0.304,0.515,-111.66937999949224,-111.66937999949224
219,226,11300,-83.80001406713369,0.010547664947807789,0.010547664947807789,0.08149212598800659,0.33447257995605467,0.12230998277664185,0.6308967471122742,0.4203324890136719,0.12410338222980499,0.673263669013977,0.6421666666666668,,,,,,
220,227,11350,-47.11252060248107,0.008919286541640759,0.008919286541640759,0.06897614151239395,0.32989479064941407,0.09762231260538101,0.5806858539581299,0.407769775390625,0.10397929698228836,0.6536543965339661,0.6405833333333333,,,,,,
221,228,11400,-59.63736271009217,0.012024635449051857,0.012024635449051857,0.11238856613636017,0.33612316131591796,0.1104435995221138,0.5896178483963013,0.4708807754516602,0.11993993818759918,0.7504006028175354,0.639,,,,,,
222,229,11450,-44.56600262797411,0.009184714406728745,0.009184714406728745,0.07090269774198532,0.31832242965698243,0.10555100440979004,0.5780343413352966,0.41285297393798825,0.11318221688270569,0.7424617409706116,0.6374166666666667,,,,,,
223,230,11500,-83.84488377601198,0.009291199035942554,0.009291199035942554,0.08028841018676758,0.360520133972168,0.12906625866889954,0.8422756195068359,0.4721542739868164,0.15793584287166595,0.8667159080505371,0.6358333333333333,,,,,,
224,231,11550,-65.2659353591106,0.013735133223235607,0.013735133223235607,0.14101344347000122,0.35230430603027346,0.12150673568248749,0.6894888877868652,0.42343505859375,0.1704266518354416,0.801533579826355,0.63425,,,,,,
225,232,11600,-64.96992572534995,0.01028634887188673,0.01028634887188673,0.11313466727733612,0.3257655715942383,0.09797792881727219,0.6076234579086304,0.45478843688964843,0.11979658156633377,0.7574742436408997,0.6326666666666667,,,,,,
226,233,11650,-79.63469796840722,0.008439858444035053,0.008439858444035053,0.06125922501087189,0.31046199798583984,0.10552512854337692,0.6193429827690125,0.38623580932617185,0.11368105560541153,0.6495692729949951,0.6310833333333334,,,,,,
227,234,11700,-46.77271437764125,0.010705442167818546,0.010705442167818546,0.14452071487903595,0.3173415184020996,0.11014857143163681,0.6158600449562073,0.4512050628662109,0.16293907165527344,0.8005179166793823,0.6295,,,,,,
228,235,11750,-32.33174655947052,0.011771575547754765,0.011771575547754765,0.08116625249385834,0.32527137756347657,0.13085274398326874,0.7647072672843933,0.41908233642578124,0.18388895690441132,0.9214786291122437,0.6279166666666667,,,,,,
229,236,11800,-41.59071017937016,0.010175463743507862,0.010175463743507862,0.07785794883966446,0.3402483367919922,0.11238518357276917,0.6665827035903931,0.4537266540527344,0.12006213515996933,0.7427689433097839,0.6263333333333334,,,,,,
230,237,11850,-61.217686594410296,0.011753649450838566,0.011753649450838566,0.10269656032323837,0.3259867095947266,0.12393106520175934,0.7643734812736511,0.4529850006103516,0.13648132979869843,0.9209977388381958,0.62475,,,,,,
231,238,11900,-58.82209100438201,0.012103131972253323,0.012103131972253323,0.19184663891792297,0.3286246109008789,0.12423159182071686,0.8244050145149231,0.3653960418701172,0.15246455371379852,0.8657686114311218,0.6231666666666666,,,,,,
232,239,11950,-99.07641175052963,0.0135743273422122,0.0135743273422122,0.1127307116985321,0.35031345367431643,0.12314233183860779,0.7635748386383057,0.4722223663330078,0.15601825714111328,0.9205060005187988,0.6215833333333334,,,,,,
233,240,12000,-34.05209984541904,0.010621917434036732,0.010621917434036732,0.07694382965564728,0.3392235946655273,0.11087130010128021,0.6629832983016968,0.43281562805175783,0.11585260182619095,0.707757830619812,0.62,,,,,,
234,241,12050,-72.4969726066482,0.012965211644768715,0.012965211644768715,0.09610991925001144,0.3697166442871094,0.1339072585105896,0.9109070897102356,0.4927759552001953,0.18615026772022247,0.9712563157081604,0.6184166666666666,,,,,,
235,242,12100,-65.63003181437207,0.014581327326595783,0.014581327326595783,0.08689586073160172,0.3928931427001953,0.13848021626472473,0.9093769192695618,0.5238409042358398,0.19712130725383759,0.9710256457328796,0.6168333333333333,,,,,,
236,243,12150,-54.01820874709805,0.0077538685873150826,0.0077538685873150826,0.06097306311130524,0.3420824432373047,0.12780848145484924,0.6457958817481995,0.4559541320800781,0.1092645525932312,0.7182920575141907,0.6152500000000001,,,,,,
237,244,12200,-51.80784066101849,0.009774179197847843,0.009774179197847843,0.07526789605617523,0.3617557144165039,0.11870428174734116,0.7361422777175903,0.4792610168457031,0.09831006079912186,0.8098788261413574,0.6136666666666667,,,,,,
238,245,12250,-73.07942476309844,0.010198526084423065,0.010198526084423065,0.09327856451272964,0.29108943939208987,0.12378133833408356,0.702054500579834,0.38462596893310547,0.11659398674964905,0.7335290908813477,0.6120833333333333,,,,,,
239,246,12300,-54.31699341592032,0.009557821787893772,0.009557821787893772,0.10303515940904617,0.32312206268310545,0.11024413257837296,0.6108096837997437,0.4471402359008789,0.11919266730546951,0.7613853812217712,0.6105,,,,,,
240,247,12350,-52.531333371555306,0.012238744646310806,0.012238744646310806,0.09406294673681259,0.3491885375976562,0.1016511544585228,0.6244563460350037,0.44086589813232424,0.12923257052898407,0.7088502645492554,0.6089166666666667,,,,,,
241,248,12400,-77.97897746204201,0.01241689920425415,0.01241689920425415,0.11672968417406082,0.406558952331543,0.10789866000413895,0.6996680498123169,0.48239841461181643,0.1460302621126175,0.7955633401870728,0.6073333333333333,,,,,,
242,249,12450,-60.80753403361141,0.009243565611541271,0.009243565611541271,0.04573503136634827,0.35660972595214846,0.11528180539608002,0.6632945537567139,0.4554157257080078,0.1344371736049652,0.74370276927948,0.60575,,,,,,
243,250,12500,-50.83330830785986,0.008799243718385696,0.008799243718385696,0.09446503967046738,0.34318912506103516,0.10418074578046799,0.6785480976104736,0.4600850677490234,0.10384243726730347,0.7061409950256348,0.6041666666666667,1.5188779287614367,5,0.398,0.61,-137.64239021418547,-137.64239021418547
244,251,12550,-160.94057026039061,0.009786560200154781,0.009786560200154781,0.11609070748090744,0.3432413101196289,0.10047853738069534,0.6248683929443359,0.41168785095214844,0.1222672164440155,0.7042518854141235,0.6025833333333334,,,,,,
245,252,12600,-58.617084172231785,0.008076977916061878,0.008076977916061878,0.04945455864071846,0.29991525650024414,0.10051178187131882,0.6183035969734192,0.4044660949707031,0.1124391034245491,0.7341305017471313,0.601,,,,,,
246,253,12650,-128.62217966705708,0.010384030640125275,0.010384030640125275,0.08786311000585556,0.34484371185302737,0.09699909389019012,0.6170226335525513,0.4174484634399414,0.11340471357107162,0.7324522137641907,0.5994166666666667,,,,,,
247,254,12700,-49.09822556541124,0.011434588581323624,0.011434588581323624,0.14255891740322113,0.33244613647460936,0.11621015518903732,0.5964189767837524,0.47605770111083984,0.12030699104070663,0.7060286998748779,0.5978333333333333,,,,,,
248,255,12750,-69.21218871178317,0.010673504322767258,0.010673504322767258,0.09607145190238953,0.319212532043457,0.08891776949167252,0.5555568337440491,0.4151430130004883,0.09917884320020676,0.6328209638595581,0.59625,,,,,,
249,256,12800,-99.60791887527604,0.010585189796984196,0.010585189796984196,0.11676424741744995,0.34054782867431643,0.0961746871471405,0.6245198249816895,0.4168561935424805,0.12670762836933136,0.7342160940170288,0.5946666666666667,,,,,,
250,257,12850,-59.21810306518022,0.007867888547480106,0.007867888547480106,0.05064648017287254,0.30149553298950194,0.1027534157037735,0.5837326049804688,0.38924236297607423,0.12237002700567245,0.6900955438613892,0.5930833333333334,,,,,,
251,258,12900,-52.1416756235893,0.009693645872175694,0.009693645872175694,0.09263661503791809,0.3562953567504883,0.09338995069265366,0.6209529638290405,0.46474369049072267,0.141001358628273,0.7921377420425415,0.5915,,,,,,
252,259,12950,-46.72495329793223,0.013447838835418224,0.013447838835418224,0.08857507258653641,0.37780864715576173,0.14010655879974365,0.8929347395896912,0.4699571228027344,0.2079276293516159,0.9668749570846558,0.5899166666666666,,,,,,
253,260,13000,-74.3335100417269,0.008682649582624435,0.008682649582624435,0.06785490363836288,0.3451946258544922,0.09555641561746597,0.6573642492294312,0.4267035675048828,0.09443054348230362,0.7200657725334167,0.5883333333333334,,,,,,
254,261,13050,-43.68034637987243,0.009800177067518234,0.009800177067518234,0.06678049266338348,0.3349675369262695,0.11688448488712311,0.7672041058540344,0.44949047088623045,0.15292516350746155,0.8591063618659973,0.58675,,,,,,
255,262,13100,-66.99768770014944,0.009019986726343632,0.009019986726343632,0.06642806529998779,0.320274658203125,0.11026293784379959,0.5966029167175293,0.41195499420166015,0.11382632702589035,0.671166181564331,0.5851666666666667,,,,,,
256,263,13150,-113.40566606419532,0.0090191550552845,0.0090191550552845,0.06582988053560257,0.3719941711425781,0.11681392043828964,0.6630878448486328,0.4484783935546875,0.11995277553796768,0.7390246391296387,0.5835833333333333,,,,,,
257,264,13200,-46.9124711735777,0.008815080858767033,0.008815080858767033,0.053811121731996536,0.3421072769165039,0.10793852806091309,0.6624380350112915,0.4476448059082031,0.13621295988559723,0.737667441368103,0.5820000000000001,,,,,,
258,265,13250,-67.88254350615894,0.007784342858940363,0.007784342858940363,0.0488765574991703,0.3177770233154297,0.09802695363759995,0.605991542339325,0.4052018356323242,0.1348278522491455,0.709342360496521,0.5804166666666667,,,,,,
259,266,13300,-85.71535508994793,0.008593177422881126,0.008593177422881126,0.04838436469435692,0.2775676727294922,0.09576411545276642,0.5251626968383789,0.3586189651489258,0.12935082614421844,0.6570386290550232,0.5788333333333333,,,,,,
260,267,13350,-77.14616091415319,0.010994862765073776,0.010994862765073776,0.15163280069828033,0.38237686157226564,0.12594029307365417,0.8748512864112854,0.5346507263183594,0.1433541476726532,0.9637411832809448,0.57725,,,,,,
261,268,13400,-67.17523204639076,0.008668589405715466,0.008668589405715466,0.0567774660885334,0.3580341339111328,0.09734221547842026,0.641302764415741,0.45963245391845703,0.09607640653848648,0.6994402408599854,0.5756666666666668,,,,,,
262,269,13450,-79.08281261839065,0.007582496851682663,0.007582496851682663,0.05377859249711037,0.3244609832763672,0.08829914033412933,0.5956137180328369,0.42843822479248045,0.09746583551168442,0.6614504456520081,0.5740833333333334,,,,,,
263,270,13500,-72.23697690826222,0.0074046398513019085,0.0074046398513019085,0.07063467800617218,0.3478271484375,0.08888763934373856,0.6437786221504211,0.4548532104492187,0.09760139137506485,0.6617056131362915,0.5725,,,,,,
264,271,13550,-90.86457453388427,0.009400158189237118,0.009400158189237118,0.0756024643778801,0.37375995635986325,0.10643985867500305,0.6510458588600159,0.45992321014404297,0.09334398061037064,0.7193924188613892,0.5709166666666667,,,,,,
265,272,13600,-45.11444583596998,0.006709348410367966,0.006709348410367966,0.0684233233332634,0.3299232864379883,0.08916133642196655,0.5805678367614746,0.3981542205810547,0.07816942036151886,0.5841631889343262,0.5693333333333334,,,,,,
266,273,13650,-52.694808672632576,0.011389356106519699,0.011389356106519699,0.12419743090867996,0.3635986709594727,0.13475538790225983,0.8688924312591553,0.4765510177612305,0.17501303553581238,0.9610203504562378,0.56775,,,,,,
267,274,13700,-69.3073732438493,0.006975853815674782,0.006975853815674782,0.055597592145204544,0.33408638000488283,0.11829441785812378,0.9108877778053284,0.4408548355102539,0.15370717644691467,1.0308704376220703,0.5661666666666667,,,,,,
268,275,13750,-34.458934469456544,0.010768081992864609,0.010768081992864609,0.07286408543586731,0.351483154296875,0.14165394008159637,0.7309839725494385,0.46706935882568357,0.17052030563354492,0.8328427076339722,0.5645833333333334,1.5796307024390603,5,0.274,0.532,-97.75338354653495,-97.75338354653495
269,276,13800,-52.974109234876785,0.008347111754119396,0.008347111754119396,0.1142827644944191,0.3368748474121094,0.09520233422517776,0.6085240840911865,0.40642112731933594,0.09817153215408325,0.6663951873779297,0.563,,,,,,
270,277,13850,-52.24429597094793,0.009641542099416256,0.009641542099416256,0.07068189233541489,0.32425975799560547,0.08795733004808426,0.542504072189331,0.4236476898193359,0.10401386767625809,0.6691378355026245,0.5614166666666667,,,,,,
271,278,13900,-99.7136481499958,0.008268555626273155,0.008268555626273155,0.07568854093551636,0.34630374908447265,0.09554639458656311,0.6209301948547363,0.4378128814697266,0.09819596260786057,0.6971698999404907,0.5598333333333334,,,,,,
272,279,13950,-81.29462112437257,0.008085349574685097,0.008085349574685097,0.052951913326978683,0.30974109649658205,0.09387291967868805,0.5819635987281799,0.41741085052490234,0.1083688959479332,0.653298556804657,0.55825,,,,,,
273,280,14000,-94.50840898087294,0.009277778677642345,0.009277778677642345,0.05380954593420029,0.312607421875,0.13155071437358856,0.701104998588562,0.4179384231567383,0.15604573488235474,0.772706151008606,0.5566666666666666,,,,,,
274,281,14050,-50.40801102665198,0.008062541484832764,0.008062541484832764,0.09210190922021866,0.3127841377258301,0.08335528522729874,0.5481519103050232,0.386048469543457,0.09408394992351532,0.6279138922691345,0.5550833333333334,,,,,,
275,282,14100,-38.71102537943691,0.008130070753395557,0.008130070753395557,0.05426717549562454,0.3234769058227539,0.10841136425733566,0.763324499130249,0.4134711456298828,0.146116241812706,1.0238181352615356,0.5535000000000001,,,,,,
276,283,14150,-52.478724950724164,0.006829272024333477,0.006829272024333477,0.050054002553224564,0.3396893310546875,0.09028641879558563,0.5839895009994507,0.43733936309814453,0.07108031958341599,0.6890733242034912,0.5519166666666666,,,,,,
277,284,14200,-47.05108978502236,0.006995543837547302,0.006995543837547302,0.04336364567279816,0.34789146423339845,0.10504170507192612,0.6892834901809692,0.44290206909179686,0.10762243717908859,0.7712424397468567,0.5503333333333333,,,,,,
278,285,14250,-47.992480654129814,0.009637508541345596,0.009637508541345596,0.08850491046905518,0.3651160430908203,0.10660847276449203,0.6790968775749207,0.4575808334350586,0.12138322740793228,0.8265784978866577,0.5487500000000001,,,,,,
279,286,14300,-46.748921959849916,0.009192876517772675,0.009192876517772675,0.1406940072774887,0.3229727554321289,0.11422652006149292,0.6358433961868286,0.457619743347168,0.12684178352355957,0.6996473073959351,0.5471666666666667,,,,,,
280,287,14350,-44.20698780562743,0.010988877154886723,0.010988877154886723,0.16321870684623718,0.343059196472168,0.12064528465270996,0.6311416029930115,0.483425407409668,0.12868405878543854,0.7477403879165649,0.5455833333333333,,,,,,
281,288,14400,-74.58789616083394,0.009335041977465153,0.009335041977465153,0.07524029165506363,0.3370783233642578,0.12345411628484726,0.6909336447715759,0.4553088760375977,0.14533330500125885,0.8260620832443237,0.544,,,,,,
282,289,14450,-73.85151355926787,0.007996514439582825,0.007996514439582825,0.04781733825802803,0.3272661590576172,0.09774384647607803,0.6268213391304016,0.43410324096679687,0.09356299787759781,0.6750594973564148,0.5424166666666667,,,,,,
283,290,14500,-98.85358250117595,0.006090220063924789,0.006090220063924789,0.040934477001428604,0.3482466506958008,0.09649932384490967,0.6196740865707397,0.4392093658447266,0.08649922907352448,0.6387867331504822,0.5408333333333333,,,,,,
284,291,14550,-46.28570674831087,0.007859714329242706,0.007859714329242706,0.12698185443878174,0.3266770553588867,0.10068395733833313,0.6028814315795898,0.45223369598388674,0.09628286212682724,0.7154607176780701,0.53925,,,,,,
285,292,14600,-48.019762596217916,0.007375888992100954,0.007375888992100954,0.04998854175209999,0.3377241516113281,0.10682522505521774,0.5719244480133057,0.4404121398925781,0.09922342002391815,0.705583930015564,0.5376666666666667,,,,,,
286,293,14650,-51.987846252791364,0.008299177512526512,0.008299177512526512,0.0692087858915329,0.3374637603759766,0.08732975274324417,0.5594362616539001,0.4294509124755859,0.09251893311738968,0.6286253333091736,0.5360833333333334,,,,,,
287,294,14700,-50.43465850436505,0.0070051769725978374,0.0070051769725978374,0.05766642093658447,0.360533447265625,0.09941437095403671,0.6637951135635376,0.4668369674682617,0.10032013803720474,0.821640133857727,0.5345,,,,,,
288,295,14750,-51.222717264797076,0.0071299090050160885,0.0071299090050160885,0.05382053181529045,0.30430414199829103,0.09973272681236267,0.608806848526001,0.38801319122314454,0.11630187928676605,0.6789942979812622,0.5329166666666667,,,,,,
289,296,14800,-112.43169153105426,0.008779563009738922,0.008779563009738922,0.08804783225059509,0.3303367233276367,0.11179236322641373,0.5923277735710144,0.45265220642089843,0.10817096382379532,0.7900701761245728,0.5313333333333333,,,,,,
290,297,14850,-129.52291376284796,0.009937185794115067,0.009937185794115067,0.14020347595214844,0.3685692596435547,0.11712182313203812,0.8546934127807617,0.5129341506958007,0.1522573083639145,0.9650071263313293,0.5297499999999999,,,,,,
291,298,14900,-71.85970283230851,0.00696040503680706,0.00696040503680706,0.06701720505952835,0.323803596496582,0.09589552134275436,0.6060056090354919,0.41304962158203123,0.09015488624572754,0.6416462659835815,0.5281666666666667,,,,,,
292,299,14950,-61.116649260433796,0.0061764903366565704,0.0061764903366565704,0.06394541263580322,0.3213567352294922,0.08573336899280548,0.5424714088439941,0.42144973754882814,0.07995055615901947,0.6291564106941223,0.5265833333333334,,,,,,
293,300,15000,-67.57539516940126,0.007076323498040438,0.007076323498040438,0.04376979172229767,0.33397598266601564,0.10747944563627243,0.7014564871788025,0.4286570739746094,0.1140015497803688,0.7649928331375122,0.525,1.5533149364452739,5,0.337,0.563,-107.24628724344856,-107.24628724344855
294,301,15050,-71.53966432398629,0.006862263195216656,0.006862263195216656,0.09560651332139969,0.3177100372314453,0.09855248779058456,0.6287078857421875,0.4354266357421875,0.11356984823942184,0.6880759596824646,0.5234166666666666,,,,,,
295,302,15100,-62.65311262657788,0.008827399462461472,0.008827399462461472,0.07978542894124985,0.30933347702026365,0.09944039583206177,0.6025735139846802,0.4223593139648438,0.10317312180995941,0.6408370733261108,0.5218333333333334,,,,,,
296,303,15150,-58.468162166410586,0.009268302470445633,0.009268302470445633,0.1036253422498703,0.3651446533203125,0.10874731838703156,0.7241419553756714,0.4904674530029297,0.11349337548017502,0.8898891806602478,0.5202500000000001,,,,,,
297,304,15200,-58.50550469778706,0.0068006087094545364,0.0068006087094545364,0.06903699785470963,0.3601874923706055,0.11260836571455002,0.8332711458206177,0.4864978790283203,0.12579691410064697,1.004259705543518,0.5186666666666666,,,,,,
298,305,15250,-98.62087184753914,0.012864024378359318,0.012864024378359318,0.14750273525714874,0.41293941497802733,0.15259814262390137,1.0411969423294067,0.5680788421630859,0.20151913166046143,1.2525471448898315,0.5170833333333333,,,,,,
299,306,15300,-61.77059436574265,0.006827743258327246,0.006827743258327246,0.0934443548321724,0.3449266052246094,0.09842746704816818,0.6626716256141663,0.4638162612915039,0.09545401483774185,0.6931958794593811,0.5155000000000001,,,,,,
300,307,15350,-98.00585591556361,0.007857323624193668,0.007857323624193668,0.13042254745960236,0.36674507141113283,0.0998600423336029,0.6275039315223694,0.4273462677001953,0.11294049024581909,0.6773107647895813,0.5139166666666666,,,,,,
301,308,15400,-64.33500061045685,0.008237474597990513,0.008237474597990513,0.06167206913232803,0.3173837089538574,0.11666025221347809,0.5800433158874512,0.4191171264648437,0.08053670823574066,0.6133633255958557,0.5123333333333333,,,,,,
302,309,15450,-48.961005954990455,0.006054891273379326,0.006054891273379326,0.0926419049501419,0.36807506561279296,0.09019368141889572,0.6434474587440491,0.43708126068115233,0.09850627928972244,0.6863495111465454,0.51075,,,,,,
303,310,15500,-132.38247008340537,0.008320230059325695,0.008320230059325695,0.07072483748197556,0.33414443969726565,0.11474110931158066,0.6642404794692993,0.4271303939819336,0.12559598684310913,0.7975062727928162,0.5091666666666667,,,,,,
304,311,15550,-134.6017101897149,0.007789177354425192,0.007789177354425192,0.07029248774051666,0.3682550811767578,0.10404951125383377,0.6371626853942871,0.47337928771972654,0.12152058631181717,0.7221886515617371,0.5075833333333334,,,,,,
305,312,15600,-66.34458532134971,0.009417298249900341,0.009417298249900341,0.1400262862443924,0.37098403930664064,0.11171362549066544,0.7298669815063477,0.4627722930908203,0.12491986155509949,0.8183451890945435,0.506,,,,,,
306,313,15650,-41.660489374540745,0.006415531039237976,0.006415531039237976,0.052606403827667236,0.36088611602783205,0.1091768890619278,0.6532832384109497,0.4611434173583984,0.10936035960912704,0.7298418283462524,0.5044166666666667,,,,,,
307,314,15700,-47.38646226348855,0.007359426002949476,0.007359426002949476,0.07152145355939865,0.3579337692260742,0.09738366305828094,0.668130099773407,0.4550339889526367,0.08666951209306717,0.6666408777236938,0.5028333333333334,,,,,,
308,315,15750,-42.69356102534677,0.006342366337776184,0.006342366337776184,0.1265605241060257,0.379273567199707,0.10497733950614929,0.620512068271637,0.44176162719726564,0.10928139835596085,0.7317404747009277,0.50125,,,,,,
309,316,15800,-54.603991402006116,0.006933373399078846,0.006933373399078846,0.07783062756061554,0.3276995849609375,0.08846129477024078,0.5551655888557434,0.4310416030883789,0.09054552763700485,0.6643050312995911,0.4996666666666667,,,,,,
310,317,15850,-41.662866980705495,0.007470277603715658,0.007470277603715658,0.07954687625169754,0.3920621490478516,0.09753767400979996,0.6610451936721802,0.5153968048095703,0.08573126792907715,0.7920133471488953,0.4980833333333333,,,,,,
311,318,15900,-62.99178311718095,0.006054985336959362,0.006054985336959362,0.03991065174341202,0.36305000305175783,0.1152280792593956,0.6642433404922485,0.46352519989013674,0.08396141976118088,0.6439805030822754,0.49650000000000005,,,,,,
312,319,15950,-42.135954642431614,0.010265892371535301,0.010265892371535301,0.06199679151177406,0.3957649230957031,0.11718181520700455,0.8740284442901611,0.510268669128418,0.16600878536701202,0.951724648475647,0.4949166666666668,,,,,,
313,320,16000,-167.88120793246964,0.00991068221628666,0.00991068221628666,0.11032553762197495,0.3589034652709961,0.09876782447099686,0.6396124362945557,0.4802922058105469,0.14539694786071777,0.8276890516281128,0.4933333333333334,,,,,,
314,321,16050,-65.72346566006333,0.0049524689093232155,0.0049524689093232155,0.03843918815255165,0.3539287567138672,0.09052563458681107,0.6451433897018433,0.4373914337158203,0.10043873637914658,0.744520366191864,0.49175,,,,,,
315,322,16100,-84.51764184486001,0.007011466193944216,0.007011466193944216,0.09565139561891556,0.3645943832397461,0.11207716912031174,0.7251152992248535,0.4332211303710938,0.12556636333465576,0.806611955165863,0.49016666666666675,,,,,,
316,323,16150,-73.6089143723255,0.005576972849667072,0.005576972849667072,0.04222186282277107,0.3147463035583496,0.10082262009382248,0.6237673759460449,0.4085755157470703,0.09790593385696411,0.7414886951446533,0.48858333333333337,,,,,,
317,324,16200,-37.8398133837271,0.008594442158937454,0.008594442158937454,0.07591288536787033,0.3668318176269531,0.11379088461399078,0.6591456532478333,0.45860992431640624,0.11870534718036652,0.8104076981544495,0.487,,,,,,
318,325,16250,-55.18062804608649,0.0072008948773145676,0.0072008948773145676,0.06662546098232269,0.36539573669433595,0.1173885390162468,0.7167122960090637,0.47370223999023436,0.14022763073444366,0.8139586448669434,0.4854166666666667,1.527185211139729,5,0.366,0.591,-96.51111961235033,-96.51111961235033
319,326,16300,-57.19468896910588,0.008064230903983116,0.008064230903983116,0.05629302188754082,0.36487354278564454,0.114618681371212,0.648356556892395,0.46045589447021484,0.110032819211483,0.729356050491333,0.48383333333333334,,,,,,
320,327,16350,-55.830533634517664,0.006576898042112589,0.006576898042112589,0.04631129652261734,0.3572792434692383,0.10620635002851486,0.6586082577705383,0.45701446533203127,0.09178084880113602,0.7136855125427246,0.48224999999999996,,,,,,
321,328,16400,-87.7743140955016,0.009518246166408062,0.009518246166408062,0.08510196954011917,0.37905277252197267,0.09741827100515366,0.6271949410438538,0.4641510772705078,0.09903246909379959,0.6828526258468628,0.4806666666666667,,,,,,
322,329,16450,-114.49124174564953,0.007760182023048401,0.007760182023048401,0.10020523518323898,0.376018180847168,0.10388509929180145,0.7235854864120483,0.498245849609375,0.112966388463974,0.8717734813690186,0.4790833333333333,,,,,,
323,330,16500,-58.79680935900646,0.006514366716146469,0.006514366716146469,0.052920036017894745,0.3267546844482422,0.10358317941427231,0.586451530456543,0.44206794738769534,0.08163118362426758,0.6797011494636536,0.47750000000000004,,,,,,
324,331,16550,-87.84352804315513,0.006796437315642834,0.006796437315642834,0.08616022765636444,0.34836647033691404,0.08972188085317612,0.6502920389175415,0.4369118118286133,0.0989656001329422,0.7690582275390625,0.47591666666666677,,,,,,
325,332,16600,-54.523773195906415,0.009330767206847668,0.009330767206847668,0.05617779120802879,0.41666526794433595,0.13163724541664124,1.0020921230316162,0.5206398391723632,0.16889740526676178,1.2259408235549927,0.4743333333333334,,,,,,
326,333,16650,-60.359913043113515,0.008718937635421753,0.008718937635421753,0.060094065964221954,0.36645515441894533,0.09054948389530182,0.6231008768081665,0.4650760269165039,0.09411760419607162,0.6940881013870239,0.47275,,,,,,
327,334,16700,-29.596662470951948,0.006587773095816374,0.006587773095816374,0.0553247295320034,0.3357080078125,0.10445461422204971,0.5819675326347351,0.4283298873901367,0.08563414961099625,0.6501798629760742,0.47116666666666673,,,,,,
328,335,16750,-80.68796108893493,0.007752735633403063,0.007752735633403063,0.07267933338880539,0.3403820037841797,0.09456762671470642,0.5856049656867981,0.443632698059082,0.10611924529075623,0.6313828229904175,0.46958333333333335,,,,,,
329,336,16800,-55.42137308779408,0.006122663617134094,0.006122663617134094,0.05318310484290123,0.35115268707275393,0.0815771222114563,0.625849187374115,0.4580638885498047,0.07264062762260437,0.6425167918205261,0.46799999999999997,,,,,,
330,337,16850,-72.22179232204513,0.007209435570985079,0.007209435570985079,0.049415670335292816,0.36867996215820314,0.08879433572292328,0.7151646614074707,0.4555266571044922,0.10794927179813385,0.8661043643951416,0.4664166666666667,,,,,,
331,338,16900,-28.857991320230454,0.008311343379318714,0.008311343379318714,0.053618304431438446,0.3651598358154297,0.1440698206424713,0.9922553300857544,0.46966449737548827,0.18622401356697083,1.219843864440918,0.4648333333333333,,,,,,
332,339,16950,-100.22148057555157,0.005643786862492561,0.005643786862492561,0.04604564234614372,0.36091949462890627,0.08608686178922653,0.6070239543914795,0.45218715667724607,0.09587125480175018,0.6693422794342041,0.46325000000000005,,,,,,
333,340,17000,-86.84773834925078,0.007079922128468752,0.007079922128468752,0.06759131699800491,0.357005729675293,0.09353097528219223,0.6068155765533447,0.46593772888183593,0.09833963960409164,0.6826413869857788,0.46166666666666667,,,,,,
334,341,17050,-98.80521607059755,0.008668349124491215,0.008668349124491215,0.06386330723762512,0.39377876281738283,0.1087874099612236,0.8502100110054016,0.4898587417602539,0.14811857044696808,0.9329115152359009,0.4600833333333333,,,,,,
335,342,17100,-77.73601944855486,0.011434576474130154,0.011434576474130154,0.1524038463830948,0.31752983093261716,0.1519092172384262,0.9825297594070435,0.3910599136352539,0.20498508214950562,1.215672492980957,0.4585,,,,,,
336,343,17150,-58.55545825884231,0.0064846547320485115,0.0064846547320485115,0.10112886130809784,0.3407398223876953,0.1156005859375,0.6225037574768066,0.40978519439697264,0.12242913246154785,0.7398455739021301,0.45691666666666675,,,,,,
337,344,17200,-68.84476803988298,0.009595969691872597,0.009595969691872597,0.16387104988098145,0.35620361328125,0.08166102319955826,0.5888293981552124,0.40863842010498047,0.08886978775262833,0.6984986066818237,0.45533333333333337,,,,,,
338,345,17250,-78.84431060871714,0.006068114191293716,0.006068114191293716,0.061585042625665665,0.309290828704834,0.10866591334342957,0.6488028764724731,0.3888685989379883,0.11536461859941483,0.658099889755249,0.4537500000000001,,,,,,
339,346,17300,-85.69156179358164,0.00923886988312006,0.00923886988312006,0.0771445482969284,0.3715814971923828,0.09687767177820206,0.6462297439575195,0.47194122314453124,0.1233726516366005,0.7619644403457642,0.4521666666666667,,,,,,
340,347,17350,-108.1467023728766,0.007066308055073023,0.007066308055073023,0.04345640540122986,0.317864875793457,0.11057428270578384,0.622094988822937,0.41102554321289064,0.13958996534347534,0.7104922533035278,0.45058333333333334,,,,,,
341,348,17400,-106.51603858109581,0.007911933586001396,0.007911933586001396,0.0874638706445694,0.36635074615478513,0.1587352305650711,0.9230334758758545,0.46960174560546875,0.19573695957660675,1.1668521165847778,0.44900000000000007,,,,,,
342,349,17450,-85.15093108471433,0.007120202761143446,0.007120202761143446,0.048207804560661316,0.3416938018798828,0.0997258871793747,0.5905460119247437,0.4376959228515625,0.11652741581201553,0.7607752084732056,0.4474166666666667,,,,,,
343,350,17500,-76.34566547899179,0.007436797488480806,0.007436797488480806,0.05459238961338997,0.39784114837646484,0.10773739963769913,0.6756153106689453,0.49491397857666014,0.09167274087667465,0.7276324033737183,0.4458333333333333,1.5709611671111283,5,0.3,0.547,-92.76900626373691,-92.76900626373691
344,351,17550,-65.2593688981685,0.009306059218943119,0.009306059218943119,0.09835638105869293,0.3514084243774414,0.1107945367693901,0.7725478410720825,0.43981472015380857,0.11059308797121048,0.8018249273300171,0.44425000000000003,,,,,,
345,352,17600,-76.61890200708899,0.007315852679312229,0.007315852679312229,0.04300485923886299,0.3225522994995117,0.10244830697774887,0.5836528539657593,0.4165679550170898,0.10958238691091537,0.6949471235275269,0.44266666666666665,,,,,,
346,353,17650,-51.56891193068811,0.006815806496888399,0.006815806496888399,0.0826534703373909,0.3120750045776367,0.09495282173156738,0.5453548431396484,0.3992641830444336,0.10042832791805267,0.652808427810669,0.44108333333333327,,,,,,
347,354,17700,-70.41868245710222,0.0070941816084086895,0.0070941816084086895,0.059972647577524185,0.33409793853759767,0.09416372328996658,0.6271945238113403,0.44338733673095704,0.08769519627094269,0.6114392280578613,0.4395,,,,,,
348,355,17750,-64.65904711913134,0.007708945777267218,0.007708945777267218,0.08140444755554199,0.34272918701171873,0.1028483659029007,0.6379860639572144,0.45505786895751954,0.1265634447336197,0.7328916788101196,0.43791666666666673,,,,,,
349,356,17800,-58.85211262219851,0.007237870246171951,0.007237870246171951,0.05840088054537773,0.2947764778137207,0.11109684407711029,0.5375548601150513,0.4172769927978516,0.10033006966114044,0.6805285215377808,0.43633333333333335,,,,,,
350,357,17850,-70.02719976477925,0.007268071174621582,0.007268071174621582,0.10529499500989914,0.3397599029541016,0.11072099208831787,0.6195394992828369,0.46990089416503905,0.10500168055295944,0.7000068426132202,0.4347500000000001,,,,,,
351,358,17900,-64.8072691832952,0.006466226186603308,0.006466226186603308,0.06528198719024658,0.3038212013244629,0.11105632036924362,0.5607118606567383,0.41312801361083984,0.095237597823143,0.6176319122314453,0.4331666666666667,,,,,,
352,359,17950,-60.168278221193994,0.006701516918838024,0.006701516918838024,0.0638519823551178,0.3148756408691406,0.14205828309059143,0.8569090366363525,0.417601203918457,0.19047361612319946,1.1590043306350708,0.4315833333333333,,,,,,
353,360,18000,-36.90571386821271,0.005621833261102438,0.005621833261102438,0.050039611756801605,0.3503215789794922,0.10298667103052139,0.5985607504844666,0.4539813232421875,0.08765364438295364,0.6446820497512817,0.43000000000000005,,,,,,
354,361,18050,-48.25262929200414,0.005936214700341225,0.005936214700341225,0.0400264672935009,0.3363748550415039,0.11172764748334885,0.6364066004753113,0.42769546508789064,0.10407184809446335,0.7231441736221313,0.42841666666666667,,,,,,
355,362,18100,-61.496579598054076,0.006251049228012562,0.006251049228012562,0.06541669368743896,0.36440696716308596,0.11732106655836105,0.6719448566436768,0.47834259033203125,0.12713758647441864,0.7248616814613342,0.4268333333333333,,,,,,
356,363,18150,-50.77519457604947,0.007027263753116131,0.007027263753116131,0.06829856336116791,0.32202987670898436,0.10505761206150055,0.5919102430343628,0.4240217590332031,0.11903227120637894,0.7242693901062012,0.42525,,,,,,
357,364,18200,-40.84797069643996,0.006620786152780056,0.006620786152780056,0.06991297751665115,0.37941368103027345,0.12218791246414185,0.8138397932052612,0.4738554763793945,0.13353461027145386,1.071415662765503,0.42366666666666664,,,,,,
358,365,18250,-49.26080854931065,0.008420607075095177,0.008420607075095177,0.1577100306749344,0.3227711868286133,0.1052984818816185,0.6145012378692627,0.47462432861328124,0.11515726149082184,0.8068921566009521,0.42208333333333337,,,,,,
359,366,18300,-60.26518452823196,0.0062601519748568535,0.0062601519748568535,0.0998634621500969,0.32905872344970705,0.09681020677089691,0.5726610422134399,0.45450363159179685,0.09271730482578278,0.6990807056427002,0.4205,,,,,,
360,367,18350,-72.6869092553571,0.005704683717340231,0.005704683717340231,0.06558295339345932,0.30866050720214844,0.08404206484556198,0.5434849858283997,0.40998046875,0.0965082049369812,0.6862812042236328,0.4189166666666667,,,,,,
361,368,18400,-47.960293427742556,0.005330520682036877,0.005330520682036877,0.03886647894978523,0.3511957550048828,0.09355013072490692,0.5810714364051819,0.4367840576171875,0.08060213178396225,0.6307740211486816,0.41733333333333344,,,,,,
362,369,18450,-46.83507319273354,0.0051911394111812115,0.0051911394111812115,0.046628501266241074,0.33965152740478516,0.09382091462612152,0.5914908647537231,0.4367206573486328,0.10534299910068512,0.7040469646453857,0.41575000000000006,,,,,,
363,370,18500,-58.77519546784159,0.006313531193882227,0.006313531193882227,0.059899795800447464,0.3242692565917969,0.1255062222480774,0.8042135238647461,0.4482135391235352,0.15381571650505066,1.0644001960754395,0.4141666666666667,,,,,,
364,371,18550,-61.487430826582454,0.007475276477634907,0.007475276477634907,0.06434683501720428,0.3426881408691406,0.10175439715385437,0.6274142265319824,0.4452345657348633,0.10594063997268677,0.7214886546134949,0.4125833333333334,,,,,,
365,372,18600,-42.45057719395053,0.006275009363889694,0.006275009363889694,0.06596311181783676,0.3594766616821289,0.12266302853822708,0.6754449605941772,0.4435810852050781,0.11252123862504959,0.7150778770446777,0.41100000000000003,,,,,,
366,373,18650,-62.45604749854975,0.006800142582505941,0.006800142582505941,0.0916043370962143,0.3415385818481445,0.10153160244226456,0.7393362522125244,0.4719416809082031,0.11725343018770218,0.9363948702812195,0.40941666666666665,,,,,,
367,374,18700,-34.193185838001384,0.005341256037354469,0.005341256037354469,0.051041483879089355,0.34114784240722656,0.11774825304746628,0.6905176639556885,0.4393267059326172,0.11601129919290543,0.7453310489654541,0.4078333333333334,,,,,,
368,375,18750,-54.355177745200564,0.006355637684464455,0.006355637684464455,0.08988521993160248,0.3644864273071289,0.10004822164773941,0.5650550723075867,0.446277961730957,0.08727150410413742,0.6601065397262573,0.40625,1.5736400318598947,5,0.282,0.526,-81.15503549550304,-81.15503549550304
369,376,18800,-76.88822541680173,0.007319262716919184,0.007319262716919184,0.06059148535132408,0.3628228759765625,0.09268219769001007,0.6285080909729004,0.46491397857666017,0.09743849188089371,0.7446684837341309,0.4046666666666666,,,,,,
370,377,18850,-80.67896492595031,0.00607660599052906,0.00607660599052906,0.05454877018928528,0.2647252655029297,0.10316888988018036,0.471726655960083,0.35863754272460935,0.09652390331029892,0.58926922082901,0.40308333333333335,,,,,,
371,378,18900,-105.52629310096202,0.005493008531630039,0.005493008531630039,0.10232405364513397,0.3285285186767578,0.07963559776544571,0.5832870602607727,0.4523188781738281,0.08304964005947113,0.6673588752746582,0.4015000000000001,,,,,,
372,379,18950,-60.690982875791896,0.005612386390566826,0.005612386390566826,0.07565350085496902,0.3395668029785156,0.08680128306150436,0.5911421179771423,0.41506080627441405,0.08712228387594223,0.6845718026161194,0.3999166666666667,,,,,,
373,380,19000,-47.66343535115543,0.006187089718878269,0.006187089718878269,0.051613613963127136,0.33788677215576174,0.10188540816307068,0.6438788175582886,0.44260330200195314,0.08845259994268417,0.7037131190299988,0.39833333333333343,,,,,,
374,381,19050,-78.68226851312882,0.005699327681213617,0.005699327681213617,0.06153019145131111,0.39664688110351565,0.09416079521179199,0.6432907581329346,0.48324371337890626,0.10629721730947495,0.7035021781921387,0.39675000000000005,,,,,,
375,382,19100,-96.38080924958327,0.008771372959017754,0.008771372959017754,0.09967829287052155,0.4043611145019531,0.12472657859325409,0.9156327247619629,0.5417765045166015,0.14357422292232513,1.167629599571228,0.39516666666666667,,,,,,
376,383,19150,-57.377318834201,0.0069451346062123775,0.0069451346062123775,0.08226507902145386,0.3928757858276367,0.10198638588190079,0.6405811905860901,0.5095088958740235,0.09490042179822922,0.7030615210533142,0.3935833333333334,,,,,,
377,384,19200,-64.11032096548878,0.006698325742036104,0.006698325742036104,0.0531439445912838,0.353836669921875,0.09858601540327072,0.6360561847686768,0.4460708999633789,0.10670186579227448,0.7173380851745605,0.392,,,,,,
378,385,19250,-48.606574935817015,0.0056866612285375595,0.0056866612285375595,0.06919557601213455,0.2991697120666504,0.12004607915878296,0.7072558403015137,0.39999507904052733,0.12161445617675781,0.7449032068252563,0.39041666666666663,,,,,,
379,386,19300,-73.42037509274425,0.006545023526996374,0.006545023526996374,0.06421450525522232,0.3248048400878906,0.08925223350524902,0.6016585826873779,0.4352426528930664,0.08826424181461334,0.6310192942619324,0.38883333333333336,,,,,,
380,387,19350,-145.78884740800711,0.006532389670610428,0.006532389670610428,0.059243347495794296,0.3510118103027344,0.10345988720655441,0.6093566417694092,0.4663630676269531,0.08563436567783356,0.6657485961914062,0.38725,,,,,,
381,388,19400,-59.9141294256473,0.00540426978841424,0.00540426978841424,0.06197575852274895,0.3445472717285156,0.1015750914812088,0.6787710189819336,0.44479209899902344,0.07887550443410873,0.7504329681396484,0.3856666666666667,,,,,,
382,389,19450,-49.805665440380174,0.008102111518383026,0.008102111518383026,0.08093611896038055,0.4204647827148438,0.12276831269264221,0.7925307750701904,0.527458839416504,0.1360047459602356,1.04317307472229,0.38408333333333333,,,,,,
383,390,19500,-76.25234989651511,0.006758477073162794,0.006758477073162794,0.059168294072151184,0.33616741180419923,0.09275273978710175,0.6278768181800842,0.4364574432373047,0.09080290049314499,0.7359657287597656,0.38250000000000006,,,,,,
384,391,19550,-70.40158668259883,0.005358936730772257,0.005358936730772257,0.047660719603300095,0.3672542953491211,0.09603862464427948,0.7272109985351562,0.45246780395507813,0.08845701813697815,0.7738931179046631,0.3809166666666668,,,,,,
385,392,19600,-129.55695425930202,0.003908511251211166,0.003908511251211166,0.03566902130842209,0.3085599136352539,0.09064048528671265,0.5642144680023193,0.39046630859375,0.09406690299510956,0.6114171743392944,0.3793333333333334,,,,,,
386,393,19650,-54.51870726747025,0.005521330051124096,0.005521330051124096,0.04658382758498192,0.35154090881347655,0.12003719061613083,0.6498569250106812,0.4479326629638672,0.09308889508247375,0.752887487411499,0.37775000000000003,,,,,,
387,394,19700,-58.14961584229745,0.006392024923115969,0.006392024923115969,0.05894532799720764,0.33734291076660156,0.11317178606987,0.6370270848274231,0.4449643325805664,0.11589966714382172,0.7469033002853394,0.37616666666666676,,,,,,
388,395,19750,-47.688086708749026,0.006534923799335957,0.006534923799335957,0.07071123272180557,0.3243411636352539,0.10509637743234634,0.6175161600112915,0.4426580047607422,0.1259779930114746,0.7328556776046753,0.3745833333333334,,,,,,
389,396,19800,-43.1697732896464,0.006166441366076469,0.006166441366076469,0.07400986552238464,0.3608893966674805,0.09323177486658096,0.6157183647155762,0.4735239028930664,0.08207716792821884,0.6434129476547241,0.373,,,,,,
390,397,19850,-67.7213265365752,0.005906416103243828,0.005906416103243828,0.0448499396443367,0.35994213104248046,0.12516024708747864,0.8425094485282898,0.4672021484375,0.1589636355638504,1.033339023590088,0.37141666666666673,,,,,,
391,398,19900,-34.60773081630654,0.0061545101925730705,0.0061545101925730705,0.04105265811085701,0.35303653717041017,0.09786384552717209,0.600161075592041,0.4465679168701172,0.09571897983551025,0.670497477054596,0.36983333333333335,,,,,,
392,399,19950,-100.44932235027609,0.005281124264001846,0.005281124264001846,0.04952032491564751,0.37908039093017576,0.0981949046254158,0.641895055770874,0.4585703277587891,0.08400867134332657,0.7285060882568359,0.36824999999999997,,,,,,
393,400,20000,-59.838062987479766,0.005660788621753454,0.005660788621753454,0.05682263895869255,0.32277503967285154,0.08929437398910522,0.5365321636199951,0.43349571228027345,0.07341334968805313,0.6062279939651489,0.3666666666666667,1.5430875177548107,5,0.351,0.611,-72.55846921991548,-72.5584692199155
394,401,20050,-79.65501363942116,0.005166349466890097,0.005166349466890097,0.057209860533475876,0.35623802185058595,0.09501776099205017,0.5782349109649658,0.4621021270751953,0.08483271300792694,0.6186878681182861,0.3650833333333333,,,,,,
395,402,20100,-66.05722898093737,0.007812732830643654,0.007812732830643654,0.08274394273757935,0.3666594696044922,0.13367655873298645,0.7997755408287048,0.47509414672851563,0.14790846407413483,1.1019020080566406,0.36350000000000005,,,,,,
396,403,20150,-64.69811442328142,0.0062376572750508785,0.0062376572750508785,0.04585200175642967,0.3358737564086914,0.143605038523674,0.8389922380447388,0.4637667465209961,0.16701346635818481,1.0283788442611694,0.3619166666666668,,,,,,
397,404,20200,-57.78235089314762,0.00542816985398531,0.00542816985398531,0.05701788142323494,0.3317609024047852,0.08804502338171005,0.64447420835495,0.4201741409301758,0.08403079211711884,0.7268930673599243,0.3603333333333334,,,,,,
398,405,20250,-75.2779850819312,0.005204511806368828,0.005204511806368828,0.04195546731352806,0.3120672988891602,0.09543624520301819,0.5585707426071167,0.39882774353027345,0.07745393365621567,0.587337851524353,0.35875,,,,,,
399,406,20300,-58.333375380319495,0.005966965574771166,0.005966965574771166,0.06464919447898865,0.38094051361083986,0.08431672304868698,0.6127182245254517,0.4668812561035156,0.08402043581008911,0.6781858205795288,0.35716666666666674,,,,,,
400,407,20350,-80.03230213736798,0.004930698778480291,0.004930698778480291,0.04029696062207222,0.32505241394042966,0.12346463650465012,0.7584207057952881,0.4243173599243164,0.13973216712474823,1.0218021869659424,0.35558333333333336,,,,,,
401,408,20400,-49.83186816381254,0.006829462479799986,0.006829462479799986,0.07211968302726746,0.3505557632446289,0.11908134073019028,0.6332521438598633,0.46822296142578124,0.10640033334493637,0.7249323725700378,0.354,,,,,,
402,409,20450,-50.76599017802758,0.006209086161106825,0.006209086161106825,0.07859501987695694,0.3512595748901367,0.10475202649831772,0.6784660816192627,0.43550457000732423,0.10315899550914764,0.7148587107658386,0.3524166666666667,,,,,,
403,410,20500,-46.80863862211509,0.007908971048891544,0.007908971048891544,0.10866855829954147,0.3527944564819336,0.10219796746969223,0.5732082724571228,0.48800071716308596,0.08934681862592697,0.66837078332901,0.35083333333333333,,,,,,
404,411,20550,-56.12743180108854,0.007369480095803738,0.007369480095803738,0.07694776356220245,0.35502296447753906,0.11146413534879684,0.6198165416717529,0.4463977432250977,0.10589996725320816,0.6437817215919495,0.34924999999999995,,,,,,
405,412,20600,-60.707543425377104,0.004828286357223988,0.004828286357223988,0.03330826759338379,0.34327987670898436,0.07730532437562943,0.5219945907592773,0.42096431732177736,0.07566896080970764,0.5701965689659119,0.3476666666666667,,,,,,
406,413,20650,-73.71828412842322,0.006269713863730431,0.006269713863730431,0.061542678624391556,0.3440325927734375,0.12207471579313278,0.5874578356742859,0.43275402069091795,0.11450579017400742,0.6853312253952026,0.3460833333333333,,,,,,
407,414,20700,-45.5394920952344,0.009101497940719128,0.009101497940719128,0.10270064324140549,0.3689448547363281,0.09451939910650253,0.7560436725616455,0.4897449493408203,0.15050099790096283,0.8849135637283325,0.34450000000000003,,,,,,
408,415,20750,-51.16948477302071,0.005468578543514013,0.005468578543514013,0.05513513460755348,0.3658490753173828,0.08710753917694092,0.6018580794334412,0.47964374542236327,0.08331865072250366,0.7196901440620422,0.34291666666666676,,,,,,
409,416,20800,-65.92151529409072,0.006127659697085619,0.006127659697085619,0.08257753401994705,0.3419314956665039,0.09773848205804825,0.6070348620414734,0.41444049835205077,0.0808282345533371,0.5783666968345642,0.3413333333333334,,,,,,
410,417,20850,-66.13290611829191,0.004889554809778929,0.004889554809778929,0.0488627627491951,0.29792524337768556,0.07705127447843552,0.5173223614692688,0.3885220718383789,0.07455822825431824,0.6215367913246155,0.3397500000000001,,,,,,
411,418,20900,-64.72398354372406,0.006338975392282009,0.006338975392282009,0.05241901054978371,0.34486732482910154,0.12710055708885193,0.6553835868835449,0.4633475875854492,0.11379183828830719,0.7372156381607056,0.3381666666666667,,,,,,
412,419,20950,-54.8313756434518,0.0045261564664542675,0.0045261564664542675,0.04309913516044617,0.3348057556152344,0.09894625097513199,0.5638652443885803,0.41493614196777345,0.10671637207269669,0.6750000715255737,0.33658333333333335,,,,,,
413,420,21000,-106.26881665424139,0.005253496114164591,0.005253496114164591,0.05175211280584335,0.301812744140625,0.08010360598564148,0.4882981777191162,0.39545608520507813,0.08067336678504944,0.5855510830879211,0.3350000000000001,,,,,,
414,421,21050,-46.965872354133836,0.006023499183356762,0.006023499183356762,0.0770166665315628,0.3589315414428711,0.10641803592443466,0.6154699325561523,0.4407952880859375,0.1077423170208931,0.6672204732894897,0.3334166666666667,,,,,,
415,422,21100,-46.32643823447593,0.005244019441306591,0.005244019441306591,0.07195596396923065,0.32466148376464843,0.07696319371461868,0.5325435400009155,0.4021883773803711,0.06830020248889923,0.5572042465209961,0.3318333333333333,,,,,,
416,423,21150,-69.12074789204149,0.005764563102275133,0.005764563102275133,0.07167810946702957,0.33649009704589844,0.09857035428285599,0.6283673048019409,0.4157392883300781,0.10258525609970093,0.7184364795684814,0.33025000000000004,,,,,,
417,424,21200,-50.77191975720115,0.005798243451863527,0.005798243451863527,0.04234355315566063,0.29999011993408203,0.09428682923316956,0.5391279458999634,0.3937411880493164,0.07320743799209595,0.6165708303451538,0.32866666666666666,,,,,,
418,425,21250,-44.614681921267845,0.006227557547390461,0.006227557547390461,0.08505002409219742,0.3681201934814453,0.09699907898902893,0.6801493167877197,0.4569330978393555,0.11457706242799759,0.7596929669380188,0.3270833333333333,1.5293833180831031,5,0.328,0.607,-89.53386417791923,-89.53386417791923
419,426,21300,-75.09053581932388,0.005665407981723547,0.005665407981723547,0.04878809675574303,0.3448905944824219,0.0841950848698616,0.548866868019104,0.4549818801879883,0.07317204028367996,0.6306918859481812,0.3255,,,,,,
420,427,21350,-88.13045581207533,0.005373633466660976,0.005373633466660976,0.04550822824239731,0.3304490661621094,0.0697186067700386,0.5316376686096191,0.43063591003417967,0.07391826063394547,0.6063228845596313,0.32391666666666674,,,,,,
421,428,21400,-66.67319749146883,0.005646626930683851,0.005646626930683851,0.04513402655720711,0.33058719635009765,0.11183535307645798,0.6003564596176147,0.4197647476196289,0.11806175857782364,0.7156259417533875,0.32233333333333336,,,,,,
422,429,21450,-51.24639716539353,0.005100029520690441,0.005100029520690441,0.04955444112420082,0.2968260192871094,0.10314818471670151,0.5090652704238892,0.4035785675048828,0.10622978955507278,0.6385358572006226,0.3207500000000001,,,,,,
423,430,21500,-76.55576975035872,0.006240046117454767,0.006240046117454767,0.11651299148797989,0.33328350067138673,0.08868636190891266,0.5279979109764099,0.4631624221801758,0.08444773405790329,0.6470739841461182,0.3191666666666667,,,,,,
424,431,21550,-53.989263411800536,0.00505676306784153,0.00505676306784153,0.07501593232154846,0.3291405487060547,0.09294314682483673,0.530248761177063,0.4129246520996094,0.09299145638942719,0.6139167547225952,0.31758333333333333,,,,,,
425,432,21600,-43.27191347670048,0.0058792089112102985,0.0058792089112102985,0.07575787603855133,0.3503739547729492,0.12194903194904327,0.6313731670379639,0.4667975616455078,0.11398687958717346,0.7097399830818176,0.31600000000000006,,,,,,
