FS-tar/marl-mpe-learning/outputs/qmix_mpe/simple_spread/run015/train_log.csv
update,episode,total_steps,train_team_return,td_loss,total_loss,qtot_l2_loss,grad_norm,q_tot_mean,q_tot_std,q_tot_max,target_q_tot_mean,target_q_tot_std,target_q_tot_max,epsilon,eval_team_return,eval_mean_agent_return
1,20,1000,-47.6418239313855,15.90039348602295,15.90614128112793,57.47411346435547,78.32274627685547,0.8416631817817688,7.534302711486816,22.347251892089844,17.24205780029297,5.903025150299072,30.773616790771484,0.97,,
2,21,1010,-8.877629002664309,13.341588020324707,13.348840713500977,72.52991485595703,69.47348022460938,3.068556785583496,7.944424152374268,26.871990203857422,16.74835777282715,6.1074042320251465,32.685394287109375,0.9697,,
3,21,1020,-20.60956897888656,14.882828712463379,14.890830993652344,80.0257339477539,69.42546081542969,3.048757314682007,8.410161018371582,26.099506378173828,17.949445724487305,5.409721851348877,30.525375366210938,0.9694,,
4,21,1030,-30.447806043607844,13.931251525878906,13.938322067260742,70.70292663574219,68.31655883789062,3.4174962043762207,7.682684898376465,23.262727737426758,17.379013061523438,5.800313949584961,32.40909957885742,0.9691,,
5,21,1040,-40.789823294777804,14.564420700073242,14.57266616821289,82.45878601074219,68.7544174194336,3.3415825366973877,8.44349479675293,23.728519439697266,18.032196044921875,5.029720783233643,30.090070724487305,0.9688,,
6,21,1050,-52.647997803765,13.818255424499512,13.82689380645752,86.38623046875,69.02505493164062,4.276365756988525,8.252206802368164,24.40056800842285,17.601892471313477,6.363216400146484,32.57242202758789,0.9685,,
7,22,1060,-8.029510398257145,11.892066955566406,11.899784088134766,77.17501068115234,65.61174774169922,4.571033000946045,7.502044200897217,25.399385452270508,16.365745544433594,5.824156284332275,30.9212589263916,0.9682,,
8,22,1070,-14.629827763658,12.146097183227539,12.154210090637207,81.13237762451172,66.47830200195312,4.516288757324219,7.793299198150635,22.642528533935547,15.898967742919922,6.327871322631836,30.51931381225586,0.9679,,
9,22,1080,-23.999131731998173,12.825725555419922,12.834534645080566,88.08759307861328,70.85855102539062,4.464438438415527,8.255687713623047,28.0816707611084,16.909971237182617,6.407222747802734,32.263153076171875,0.9676,,
10,22,1090,-34.4551814544545,9.816882133483887,9.829482078552246,125.99722290039062,63.277462005615234,7.775750160217285,8.095365524291992,32.77667999267578,17.433704376220703,5.585472583770752,32.342750549316406,0.9673,,
11,22,1100,-45.81025244384426,11.287423133850098,11.298523902893066,111.01115417480469,71.84333038330078,6.861571788787842,7.995622634887695,28.59767723083496,17.96603012084961,6.1524810791015625,32.496742248535156,0.967,,
12,23,1110,-11.205125877295139,9.900496482849121,9.915470123291016,149.7322540283203,65.83262634277344,8.531404495239258,8.771966934204102,32.81237030029297,17.590646743774414,5.253185272216797,32.55778121948242,0.9667,,
13,23,1120,-29.80793347982191,9.630460739135742,9.64736270904541,169.0168914794922,55.26613235473633,9.45021915435791,8.928058624267578,32.01292037963867,17.508726119995117,5.974493026733398,33.46647644042969,0.9664,,
14,23,1130,-52.78121284869018,8.64067268371582,8.657570838928223,168.97689819335938,53.98048782348633,9.603736877441406,8.760431289672852,34.47753143310547,17.118934631347656,5.710184574127197,30.13707733154297,0.9661,,
15,23,1140,-74.4369364880938,8.558101654052734,8.574789047241211,166.87005615234375,56.04912567138672,10.488127708435059,7.541169166564941,33.4902458190918,17.314945220947266,5.804345607757568,30.99968719482422,0.9658,,
16,23,1150,-92.757157669554,8.039889335632324,8.05446720123291,145.77569580078125,65.5817642211914,9.828567504882812,7.012485504150391,28.141277313232422,17.672563552856445,5.354633808135986,32.45237731933594,0.9655,,
17,24,1160,-18.1075034855141,6.964279651641846,6.983094215393066,188.14801025390625,42.561737060546875,11.070089340209961,8.09945011138916,35.544281005859375,16.093547821044922,6.126904487609863,33.75506591796875,0.9652,,
18,24,1170,-36.91221777376121,7.840610504150391,7.863958835601807,233.485107421875,44.95723342895508,12.529529571533203,8.746199607849121,36.715057373046875,17.60074234008789,6.0360002517700195,32.35808563232422,0.9649,,
19,24,1180,-56.55262790499948,7.516556262969971,7.544615745544434,280.5942077636719,37.06260681152344,14.323262214660645,8.685526847839355,37.34721374511719,17.006502151489258,6.707835674285889,33.343711853027344,0.9646,,
20,24,1190,-84.43262101467771,6.6980366706848145,6.725062847137451,270.26214599609375,42.229854583740234,14.020580291748047,8.584024429321289,37.86985778808594,17.329315185546875,5.901144504547119,33.427696228027344,0.9643,,
21,24,1200,-117.35536168921905,5.486419677734375,5.516908645629883,304.8887634277344,36.71401596069336,15.575883865356445,7.891806602478027,41.543453216552734,17.592010498046875,5.331148624420166,30.59891700744629,0.964,,
22,25,1210,-4.085114321368217,6.443456172943115,6.48000431060791,365.4817199707031,34.13130569458008,17.022266387939453,8.701963424682617,45.922149658203125,17.95502471923828,5.883413314819336,32.987220764160156,0.9637,,
23,25,1220,-10.641830127381906,5.34011173248291,5.37277364730835,326.6206359863281,31.143991470336914,16.163761138916016,8.084150314331055,42.96617126464844,17.41092872619629,5.714078426361084,33.377464294433594,0.9634,,
24,25,1230,-18.438379501480096,5.688803672790527,5.725436687469482,366.33056640625,35.37773132324219,16.850114822387695,9.077677726745605,43.704566955566406,16.740909576416016,6.2382307052612305,32.89567947387695,0.9631,,
25,25,1240,-24.21830526175588,5.601760387420654,5.6366682052612305,349.077880859375,33.582637786865234,16.779054641723633,8.218343734741211,46.73544692993164,16.85525131225586,6.572988986968994,31.797983169555664,0.9628,,
26,25,1250,-33.48342237589495,5.555133819580078,5.592961311340332,378.2737121582031,31.65499496459961,17.795028686523438,7.849244117736816,45.890079498291016,18.574892044067383,5.272233486175537,32.05863571166992,0.9625,-130.31706761800893,-130.31706761800896
27,26,1260,-11.145932545321074,5.238854885101318,5.272067546844482,332.12628173828125,28.112791061401367,16.443918228149414,7.856448173522949,46.07512664794922,17.32235336303711,5.945333957672119,33.38304901123047,0.9621999999999999,,
28,26,1270,-22.190083437954094,5.4919939041137695,5.53209114074707,400.9736328125,38.473297119140625,18.218830108642578,8.309501647949219,46.0884895324707,17.99336814880371,5.984157085418701,33.41585159301758,0.9619,,
29,26,1280,-31.981433131156564,5.639660835266113,5.678728103637695,390.67205810546875,34.515872955322266,17.96437644958496,8.243372917175293,39.47419738769531,16.81641387939453,6.638463497161865,34.20376968383789,0.9616,,
30,26,1290,-41.29197491806652,5.268503665924072,5.304081916809082,355.7820129394531,32.394901275634766,17.52196502685547,6.983031272888184,39.663848876953125,17.085084915161133,6.1590728759765625,34.05105972290039,0.9613,,
31,26,1300,-54.3227166990211,5.042112827301025,5.078257083892822,361.44207763671875,34.14358139038086,17.506105422973633,7.414740085601807,33.64518356323242,16.405454635620117,5.964653491973877,32.23997497558594,0.961,,
32,27,1310,-10.88297177607617,4.313283920288086,4.345083713531494,317.9978332519531,30.61953353881836,16.326704025268555,7.171931743621826,34.745201110839844,15.546968460083008,6.7669782638549805,33.90748596191406,0.9607,,
33,27,1320,-26.213977912524648,4.855302333831787,4.888091087341309,327.8855285644531,25.06907081604004,16.752410888671875,6.8733015060424805,32.75675582885742,16.826187133789062,5.960641860961914,30.576265335083008,0.9604,,
34,27,1330,-43.609198979251055,4.5804362297058105,4.617323875427246,368.8785705566406,25.518695831298828,17.95938491821289,6.807276725769043,33.85789489746094,16.26947784423828,7.066009998321533,32.40875244140625,0.9601,,
35,27,1340,-63.825816073143876,5.2512736320495605,5.2933735847473145,420.999267578125,32.41360855102539,19.089542388916016,7.522541522979736,43.13031005859375,17.52890968322754,6.939898490905762,34.33805465698242,0.9598,,
36,27,1350,-76.69844164324671,5.076014041900635,5.113510608673096,374.96636962890625,33.94721984863281,18.1044979095459,6.869753360748291,37.10484313964844,16.57066535949707,6.755904674530029,33.24100112915039,0.9595,,
37,28,1360,-10.43624900193918,4.846816539764404,4.888008117675781,411.9156494140625,35.54564666748047,18.7197322845459,7.841383934020996,53.72016525268555,15.68653678894043,6.961522579193115,33.44336700439453,0.9592,,
38,28,1370,-24.54034280560909,4.512232303619385,4.552340984344482,401.0853576660156,28.386940002441406,18.820690155029297,6.845944881439209,44.26417541503906,16.90839958190918,6.615362167358398,34.06789016723633,0.9589,,
39,28,1380,-43.591413155852585,5.2943525314331055,5.332423210144043,380.7051086425781,40.46659851074219,18.30366325378418,6.758772373199463,40.25358581542969,15.965848922729492,6.544395923614502,34.48819351196289,0.9586,,
40,28,1390,-70.79982461976118,5.10336446762085,5.138816833496094,354.5259094238281,33.82704544067383,17.548465728759766,6.82475471496582,38.667518615722656,14.930013656616211,6.985994815826416,34.512611389160156,0.9583,,
41,28,1400,-99.92696900473383,5.091305732727051,5.12434720993042,330.4130554199219,35.83467483520508,16.92823028564453,6.621786594390869,42.186668395996094,14.53139877319336,6.744297027587891,33.38990020751953,0.958,,
42,29,1410,-6.757375154894586,5.883002281188965,5.918412208557129,354.0982666015625,35.32825469970703,17.48444175720215,6.956472396850586,46.389747619628906,15.044699668884277,7.270089626312256,27.912811279296875,0.9577,,
43,29,1420,-10.129840843127422,5.794707775115967,5.8263044357299805,315.96551513671875,30.541833877563477,16.503501892089844,6.60302734375,41.356414794921875,13.993208885192871,7.07733678817749,25.488454818725586,0.9574,,
44,29,1430,-17.198253565836474,5.630876541137695,5.662055015563965,311.7839660644531,32.66714859008789,16.376625061035156,6.6022868156433105,34.94856643676758,13.074084281921387,7.345395565032959,34.552101135253906,0.9571,,
45,29,1440,-28.465021278182334,4.782760143280029,4.812347888946533,295.8791809082031,29.840852737426758,16.021648406982422,6.259866714477539,34.64785385131836,14.124463081359863,7.680959701538086,31.534826278686523,0.9568,,
46,29,1450,-38.370561169011616,5.865072727203369,5.897279739379883,322.0677490234375,31.579004287719727,16.86293601989746,6.140772819519043,35.075164794921875,14.21005630493164,7.458563327789307,26.330537796020508,0.9565,,
47,30,1460,-14.770456958998636,5.519479751586914,5.549777507781982,302.9779357910156,39.891807556152344,16.27193260192871,6.180788040161133,33.996524810791016,13.506902694702148,7.150085926055908,25.60307502746582,0.9562,,
48,30,1470,-26.004587200873925,4.953033924102783,4.979259967803955,262.2612609863281,25.372621536254883,15.042598724365234,5.998456001281738,42.6087532043457,13.785209655761719,6.837752342224121,28.463916778564453,0.9559,,
49,30,1480,-36.2436629744283,4.493087291717529,4.514461994171143,213.74859619140625,27.960247039794922,13.43693733215332,5.761707782745361,31.187355041503906,12.239095687866211,7.2977752685546875,29.42457389831543,0.9556,,
50,30,1490,-48.10152641338746,5.012386322021484,5.037163734436035,247.7733154296875,27.9252872467041,14.402917861938477,6.350530624389648,35.75239181518555,13.56429672241211,6.671342849731445,28.601078033447266,0.9553,,
51,30,1500,-61.61283351631819,4.839064598083496,4.861776828765869,227.1238555908203,25.299419403076172,13.740606307983398,6.190281391143799,28.027759552001953,13.163265228271484,7.061903476715088,26.611665725708008,0.955,,
52,31,1510,-10.668282309449237,4.857151508331299,4.87807559967041,209.23939514160156,25.882877349853516,13.14035415649414,6.047352313995361,26.36750602722168,12.07443904876709,7.540926456451416,33.540653228759766,0.9547,,
53,31,1520,-18.800101570234155,4.387424945831299,4.408055305480957,206.30335998535156,20.933879852294922,13.187372207641602,5.691799640655518,27.80032730102539,12.77332592010498,5.827754974365234,24.845809936523438,0.9544,,
54,31,1530,-24.59099742912737,4.624509811401367,4.642390727996826,178.80740356445312,24.179580688476562,12.064558029174805,5.766615867614746,26.31039047241211,12.258028984069824,6.162973403930664,25.10188865661621,0.9541,,
55,31,1540,-32.12912274803747,4.778566360473633,4.796553611755371,179.87460327148438,24.49468994140625,12.13253116607666,5.7163214683532715,29.709522247314453,11.663226127624512,6.7779011726379395,24.19951629638672,0.9538,,
56,31,1550,-38.760722629844395,4.664157390594482,4.684787750244141,206.3044891357422,25.968244552612305,13.201597213745117,5.658824920654297,31.872882843017578,12.161209106445312,6.7151198387146,25.479663848876953,0.9535,,
57,32,1560,-9.805390233472252,5.638730049133301,5.657613754272461,188.83543395996094,22.46198844909668,12.585405349731445,5.517518997192383,28.386938095092773,10.991318702697754,6.874225616455078,24.027463912963867,0.9532,,
58,32,1570,-17.490580152300364,5.561487197875977,5.57893180847168,174.4447479248047,24.884363174438477,12.166568756103516,5.139979362487793,24.257661819458008,11.638842582702637,7.559667110443115,31.822057723999023,0.9529,,
59,32,1580,-25.304036910465502,4.552536487579346,4.569244861602783,167.0821533203125,21.943029403686523,11.845369338989258,5.1739115715026855,24.777671813964844,11.06631851196289,6.6652374267578125,27.472816467285156,0.9526,,
60,32,1590,-35.47810794168524,4.6958231925964355,4.710869312286377,150.45948791503906,19.202552795410156,11.027459144592285,5.371650695800781,26.518646240234375,11.110652923583984,7.192171096801758,24.967863082885742,0.9523,,
61,32,1600,-47.063743064455004,4.680142402648926,4.694357395172119,142.14788818359375,29.051794052124023,10.655237197875977,5.349188327789307,24.49966812133789,12.079381942749023,6.4182209968566895,25.05640983581543,0.952,,
62,33,1610,-9.471935792192026,4.971983909606934,4.987720489501953,157.36630249023438,19.727806091308594,11.139541625976562,5.768612861633301,24.460956573486328,11.1710205078125,6.858361721038818,25.715576171875,0.9517,,
63,33,1620,-18.535083268599834,4.8721442222595215,4.885459899902344,133.1552734375,26.58364486694336,10.284098625183105,5.233793258666992,26.011150360107422,11.506576538085938,6.369561195373535,31.28238868713379,0.9514,,
64,33,1630,-26.467215186391165,4.567449569702148,4.58267879486084,152.29010009765625,21.33795928955078,11.03055477142334,5.533262252807617,24.09067726135254,11.659134864807129,7.058883190155029,31.6096134185791,0.9511000000000001,,
65,33,1640,-35.01890534161694,4.614102363586426,4.629036903381348,149.34561157226562,21.793176651000977,11.186042785644531,4.9211835861206055,23.284605026245117,12.17132568359375,7.123485088348389,30.88954734802246,0.9508,,
66,33,1650,-43.50672117657456,4.542338848114014,4.558396816253662,160.57858276367188,22.918670654296875,11.557845115661621,5.195651054382324,23.50345230102539,12.01004409790039,6.839605808258057,27.998476028442383,0.9505,,
67,34,1660,-11.211842015464146,5.33404016494751,5.350850582122803,168.10459899902344,25.446203231811523,11.59498119354248,5.801812171936035,24.33037757873535,10.500065803527832,7.796668529510498,32.54948043823242,0.9502,,
68,34,1670,-22.63780043606862,3.9603114128112793,3.9777472019195557,174.3579864501953,22.845901489257812,11.715559005737305,6.0912766456604,31.464670181274414,11.01402473449707,7.1843671798706055,26.666889190673828,0.9499,,
69,34,1680,-33.40300958373814,4.988317489624023,5.002407550811768,140.90248107910156,23.26425552368164,10.676676750183105,5.187585830688477,22.229875564575195,11.167922019958496,7.461248397827148,26.588048934936523,0.9496,,
70,34,1690,-44.59206612267592,4.896448612213135,4.910402774810791,139.5419158935547,23.630977630615234,10.42100715637207,5.562779903411865,24.950607299804688,9.728170394897461,7.7400431632995605,30.726966857910156,0.9493,,
71,34,1700,-56.05612846937846,4.160040378570557,4.174093723297119,140.53515625,24.556644439697266,10.603511810302734,5.301008701324463,23.496906280517578,9.162168502807617,7.4478936195373535,30.701271057128906,0.949,,
72,35,1710,-8.639955006365188,4.788077354431152,4.802380561828613,143.0298309326172,24.316150665283203,10.614984512329102,5.50925874710083,24.91889762878418,10.45470905303955,7.697352886199951,32.90519332885742,0.9487,,
73,35,1720,-17.188259302959047,4.05653190612793,4.070353031158447,138.21339416503906,21.878549575805664,10.543664932250977,5.200433731079102,22.933631896972656,11.261882781982422,7.070496082305908,31.060745239257812,0.9484,,
74,35,1730,-27.60791034296975,3.7897448539733887,3.803515911102295,137.7106170654297,22.13842010498047,10.432273864746094,5.373852252960205,24.40403175354004,11.10972785949707,6.964648246765137,30.53494644165039,0.9480999999999999,,
75,35,1740,-39.35906093451125,4.956587791442871,4.970712184906006,141.24252319335938,19.955039978027344,10.421058654785156,5.713496208190918,21.82552719116211,10.818658828735352,8.154155731201172,32.475433349609375,0.9478,,
76,35,1750,-49.97368464668604,4.965935230255127,4.981291770935059,153.5633544921875,21.29821014404297,10.904894828796387,5.88613748550415,25.601655960083008,10.336618423461914,8.031534194946289,30.580339431762695,0.9475,,
77,36,1760,-11.55962571048655,3.5930774211883545,3.607455253601074,143.778076171875,18.79696273803711,10.557750701904297,5.684361934661865,26.564083099365234,10.375950813293457,6.951598644256592,30.837921142578125,0.9472,,
78,36,1770,-23.92457050802055,3.961338520050049,3.9770281314849854,156.8965606689453,19.89136505126953,11.257851600646973,5.491569519042969,22.71030616760254,11.59056282043457,6.670467376708984,26.192209243774414,0.9469,,
79,36,1780,-35.58445201267233,3.309218645095825,3.324841022491455,156.223388671875,24.68561553955078,11.174596786499023,5.5992631912231445,26.054651260375977,10.336536407470703,6.888522148132324,24.02353286743164,0.9466,,
80,36,1790,-47.85319880264491,4.397183418273926,4.414639472961426,174.55978393554688,25.897783279418945,11.529241561889648,6.452626705169678,32.851417541503906,10.603999137878418,7.859360694885254,35.62746810913086,0.9463,,
81,36,1800,-62.95215387159704,4.1123223304748535,4.126759052276611,144.36563110351562,25.99582862854004,10.495473861694336,5.848988056182861,25.935287475585938,10.738264083862305,7.790943145751953,31.04239845275879,0.946,,
82,37,1810,-7.932658767347814,4.1393656730651855,4.157609462738037,182.4355926513672,18.589675903320312,11.85952377319336,6.464308261871338,27.337459564208984,11.907591819763184,7.965312480926514,31.882509231567383,0.9457,,
83,37,1820,-14.171786109266108,3.939021348953247,3.954158067703247,151.36746215820312,33.097076416015625,10.598492622375488,6.248153209686279,33.66840744018555,12.448824882507324,7.418982982635498,37.967220306396484,0.9454,,
84,37,1830,-24.11521288169825,4.019162654876709,4.034338474273682,151.75662231445312,24.86571502685547,10.502411842346191,6.438631057739258,24.042396545410156,11.703579902648926,8.5794677734375,40.254852294921875,0.9451,,
85,37,1840,-34.093250261678556,3.992523670196533,4.008231163024902,157.07400512695312,22.053876876831055,11.021985054016113,5.965722560882568,23.827701568603516,11.934967041015625,6.657392501831055,25.5133113861084,0.9448,,
86,37,1850,-46.482842129993784,4.016630172729492,4.033529281616211,168.98907470703125,24.995834350585938,11.365104675292969,6.310582637786865,33.45741653442383,12.690596580505371,7.337422847747803,32.65672302246094,0.9445,,
87,38,1860,-7.850727508356454,4.324547290802002,4.336620807647705,120.73423767089844,23.527645111083984,9.675690650939941,5.207231044769287,22.551307678222656,11.142213821411133,7.662509918212891,39.38352966308594,0.9442,,
88,38,1870,-12.835600887124022,3.6902947425842285,3.7066354751586914,163.40777587890625,21.535930633544922,10.753946304321289,6.910893440246582,27.93206024169922,10.96634292602539,7.6156487464904785,29.324234008789062,0.9439,,
89,38,1880,-16.069097425601946,4.52557897567749,4.5429558753967285,173.7681427001953,21.116533279418945,11.360251426696777,6.686764717102051,28.35719108581543,11.412694931030273,8.178242683410645,39.46712112426758,0.9436,,
90,38,1890,-21.372752856823478,3.8203485012054443,3.837496042251587,171.47549438476562,20.283540725708008,11.248744010925293,6.703822135925293,26.840024948120117,11.424759864807129,7.609321117401123,29.920473098754883,0.9433,,
91,38,1900,-29.122955196926895,4.7032365798950195,4.720605850219727,173.69432067871094,18.748620986938477,11.460193634033203,6.508323669433594,30.945253372192383,11.446653366088867,7.533463001251221,31.725263595581055,0.943,,
92,39,1910,-13.08623567462704,4.2948713302612305,4.314270973205566,193.99710083007812,19.442365646362305,12.302241325378418,6.530846118927002,29.844579696655273,12.338926315307617,8.238740921020508,39.439796447753906,0.9427,,
93,39,1920,-23.07247824267739,3.638932466506958,3.657010316848755,180.7788543701172,22.739715576171875,11.806131362915039,6.433825969696045,29.053190231323242,11.710476875305176,7.336301803588867,29.499370574951172,0.9424,,
94,39,1930,-32.102663903375,3.7326502799987793,3.7502200603485107,175.69769287109375,18.984174728393555,11.31738567352295,6.90032434463501,46.99134063720703,11.094489097595215,7.424479007720947,39.455928802490234,0.9420999999999999,,
95,39,1940,-42.95978883661454,3.720999240875244,3.7359235286712646,149.24293518066406,27.38111686706543,10.718951225280762,5.860634803771973,24.668413162231445,9.66242790222168,7.5927205085754395,31.79854393005371,0.9418,,
96,39,1950,-59.47378376965334,3.7847084999084473,3.8007709980010986,160.6251983642578,25.274810791015625,10.778925895690918,6.6663289070129395,28.078712463378906,11.611726760864258,8.742206573486328,38.43025588989258,0.9415,,
97,40,1960,-9.049524721316054,3.7408344745635986,3.7591726779937744,183.38287353515625,17.941560745239258,12.310175895690918,5.642910003662109,25.56704330444336,12.363329887390137,7.03378963470459,31.43984031677246,0.9412,,
98,40,1970,-19.298441554603333,3.6433889865875244,3.660804033279419,174.14939880371094,18.397695541381836,11.566688537597656,6.35304069519043,31.940515518188477,11.520201683044434,7.198399543762207,32.555015563964844,0.9409,,
99,40,1980,-25.805088283348777,4.028290748596191,4.047869682312012,195.78732299804688,23.38027000427246,12.321699142456055,6.630468368530273,31.227394104003906,11.249287605285645,7.522792816162109,30.755178451538086,0.9406,,
100,40,1990,-31.741671396014386,4.264731407165527,4.281381130218506,166.49705505371094,19.09463119506836,11.684464454650879,5.474516868591309,25.50489044189453,12.112010955810547,7.869465351104736,37.15943908691406,0.9403,,
101,40,2000,-40.59658398071099,3.2450199127197266,3.263591766357422,185.71739196777344,18.341632843017578,12.05228042602539,6.360814571380615,29.758544921875,11.708550453186035,7.755692481994629,34.53659439086914,0.94,,
102,41,2010,-9.202341560123028,3.3690881729125977,3.388774871826172,196.86660766601562,19.626123428344727,12.515753746032715,6.342120170593262,30.079193115234375,12.415708541870117,7.3466339111328125,34.587806701660156,0.9397,,
103,41,2020,-19.54466358660712,4.152331829071045,4.169363498687744,170.31813049316406,26.349172592163086,11.33503532409668,6.468006134033203,30.06970977783203,10.576966285705566,7.7696533203125,37.106815338134766,0.9394,,
104,41,2030,-28.088623339385688,3.4333443641662598,3.454066753387451,207.22508239746094,17.96535873413086,12.461530685424805,7.206618309020996,30.89566421508789,11.950944900512695,8.460165023803711,40.108238220214844,0.9391,,
105,41,2040,-36.14775771776915,3.6540348529815674,3.6734843254089355,194.49510192871094,21.984987258911133,12.161422729492188,6.826047420501709,31.08746337890625,12.695965766906738,9.004583358764648,40.167152404785156,0.9388,,
106,41,2050,-46.84215701548118,3.6745500564575195,3.6911895275115967,166.39492797851562,21.722871780395508,10.43526554107666,7.582885265350342,49.14839553833008,10.9659423828125,7.791374206542969,40.08037185668945,0.9385,,
107,42,2060,-12.90449131141286,3.957873582839966,3.9741034507751465,162.2982940673828,19.496644973754883,10.97743034362793,6.464853286743164,28.3790283203125,11.27829360961914,8.436419486999512,37.59001159667969,0.9382,,
108,42,2070,-27.280858867231906,3.2152979373931885,3.232661724090576,173.63853454589844,23.78585433959961,11.268220901489258,6.831230163574219,32.520450592041016,10.720281600952148,7.646418571472168,38.51627731323242,0.9379,,
109,42,2080,-40.13659209277402,4.085958003997803,4.106022834777832,200.64601135253906,22.173086166381836,12.216273307800293,7.169984340667725,30.317049026489258,10.750225067138672,7.7861762046813965,31.925121307373047,0.9376,,
110,42,2090,-55.62680221645162,3.675178289413452,3.6926748752593994,174.9652099609375,23.398754119873047,11.158114433288574,7.103638648986816,25.839330673217773,11.914313316345215,7.462357044219971,30.27979278564453,0.9373,,
111,42,2100,-69.1028584886532,3.5800881385803223,3.595134973526001,150.46791076660156,16.858701705932617,10.21713638305664,6.788080215454102,23.60793685913086,9.706046104431152,7.938382148742676,40.64881896972656,0.9369999999999999,,
112,43,2110,-12.078322768358511,2.7167747020721436,2.7369935512542725,202.18807983398438,20.218875885009766,12.558610916137695,6.668536186218262,33.35401153564453,12.285719871520996,6.607517242431641,30.84787940979004,0.9367,,
113,43,2120,-25.829963476520344,3.465135097503662,3.4786674976348877,135.32415771484375,21.177963256835938,9.643266677856445,6.5062713623046875,32.34748077392578,9.62590503692627,7.1948957443237305,35.159027099609375,0.9364,,
114,43,2130,-39.97216069713758,3.67220139503479,3.688239336013794,160.3805389404297,22.93552017211914,10.59934139251709,6.930692195892334,29.33334732055664,11.376474380493164,8.106231689453125,32.35787582397461,0.9361,,
115,43,2140,-52.97682020563154,3.2751123905181885,3.2934718132019043,183.5941619873047,23.564788818359375,11.833989143371582,6.599308967590332,32.84098815917969,11.779302597045898,8.28708553314209,40.841224670410156,0.9358,,
116,43,2150,-66.50024836116906,3.33536434173584,3.354687213897705,193.228515625,18.01434326171875,12.213647842407227,6.637418270111084,31.954675674438477,12.256998062133789,7.175790786743164,31.19759750366211,0.9355,,
117,44,2160,-4.271644723519023,3.336672782897949,3.3532183170318604,165.4558563232422,19.66803741455078,11.106185913085938,6.48910665512085,31.43254280090332,11.379464149475098,8.17016315460205,42.013328552246094,0.9352,,
118,44,2170,-9.56254913745826,4.207275867462158,4.223575592041016,162.99659729003906,22.560874938964844,10.730025291442871,6.918320178985596,28.32418441772461,10.661947250366211,7.998831272125244,30.115385055541992,0.9349,,
119,44,2180,-18.929240546661017,3.0261759757995605,3.0421106815338135,159.3463897705078,18.92765998840332,10.546660423278809,6.936451435089111,27.877458572387695,10.54692554473877,7.673447608947754,30.774965286254883,0.9346,,
120,44,2190,-33.01270017143527,3.212790012359619,3.23142671585083,186.3680419921875,19.376007080078125,11.686749458312988,7.056056976318359,34.124359130859375,11.507048606872559,8.096680641174316,39.722412109375,0.9343,,
121,44,2200,-46.63257408426336,3.533869743347168,3.5500478744506836,161.78140258789062,19.013957977294922,11.108038902282715,6.196197032928467,28.140867233276367,11.76695728302002,8.450026512145996,34.50954818725586,0.9339999999999999,,
122,45,2210,-14.527445364220913,3.3205270767211914,3.338825225830078,182.98060607910156,21.992162704467773,11.532526016235352,7.069757461547852,42.0700798034668,11.618509292602539,8.169122695922852,39.42341995239258,0.9337,,
123,45,2220,-35.03525612050555,3.3048925399780273,3.3232481479644775,183.5565643310547,19.836505889892578,11.573942184448242,7.0427565574646,30.375686645507812,11.5659761428833,8.11572265625,41.21797561645508,0.9334,,
124,45,2230,-55.08840388106912,3.7494330406188965,3.767371892929077,179.38809204101562,18.50716209411621,11.508925437927246,6.850746154785156,31.281091690063477,11.373047828674316,8.199971199035645,32.04861831665039,0.9331,,
125,45,2240,-71.53341063366408,3.2806694507598877,3.2965409755706787,158.71603393554688,18.710193634033203,10.97618579864502,6.183798789978027,28.57762908935547,10.80782699584961,7.910505771636963,32.018245697021484,0.9328,,
126,45,2250,-83.31861954226838,3.6706671714782715,3.688689947128296,180.2281494140625,18.83400535583496,11.372093200683594,7.134680271148682,30.491674423217773,10.98850154876709,7.861440658569336,32.58189392089844,0.9325,,
127,46,2260,-9.767842117259937,3.5272841453552246,3.5437774658203125,164.93309020996094,19.59137725830078,11.158018112182617,6.358595371246338,29.91063690185547,11.227128028869629,7.103759765625,27.086017608642578,0.9322,,
128,46,2270,-23.356387839268017,3.2866547107696533,3.3051645755767822,185.0991668701172,20.018163681030273,11.849152565002441,6.685563564300537,30.51944351196289,11.934224128723145,7.657120227813721,34.67464828491211,0.9319,,
129,46,2280,-35.48117152839861,3.9534859657287598,3.971493721008301,180.07736206054688,19.898571014404297,11.440814018249512,7.013210773468018,34.39014434814453,11.82563304901123,7.946200370788574,41.507179260253906,0.9316,,
130,46,2290,-47.66707226032443,3.327732801437378,3.3443799018859863,166.46987915039062,16.938230514526367,10.943048477172852,6.835170269012451,41.36079406738281,11.171128273010254,7.886420726776123,36.28273010253906,0.9313,,
131,46,2300,-63.25113647927816,3.012608289718628,3.0305817127227783,179.7342071533203,20.413114547729492,11.609101295471191,6.705444812774658,27.87759780883789,11.548768997192383,7.316285610198975,30.113550186157227,0.931,,
132,47,2310,-12.021827263978896,3.220416307449341,3.2383766174316406,179.60260009765625,18.232481002807617,10.920103073120117,7.768780708312988,49.31037902832031,10.473212242126465,8.278035163879395,41.21141815185547,0.9307,,
133,47,2320,-20.504907630062224,2.77105975151062,2.7895543575286865,184.9464111328125,19.107982635498047,12.147403717041016,6.114490032196045,27.503231048583984,12.279861450195312,6.489321231842041,32.44942855834961,0.9304,,
134,47,2330,-27.77525186539022,3.1761231422424316,3.1943843364715576,182.61215209960938,19.52450180053711,11.437087059020996,7.197581768035889,34.806640625,11.45622730255127,8.077359199523926,38.823429107666016,0.9301,,
135,47,2340,-37.19706928239107,3.4436981678009033,3.461294174194336,175.95989990234375,23.368288040161133,11.1928129196167,7.119047164916992,36.08244705200195,11.940295219421387,7.245717525482178,39.42418670654297,0.9298,,
136,47,2350,-48.919434269341174,3.0862715244293213,3.1036622524261475,173.90841674804688,26.045307159423828,11.342386245727539,6.727457046508789,35.01682662963867,12.459623336791992,7.260155200958252,30.144855499267578,0.9295,,
137,48,2360,-9.971113008547583,3.6674957275390625,3.685382604598999,178.86839294433594,20.579421997070312,11.557250022888184,6.730405807495117,36.07314682006836,11.568785667419434,7.729215145111084,39.277042388916016,0.9292,,
138,48,2370,-24.76931654027645,3.4637575149536133,3.4826056957244873,188.48292541503906,23.815092086791992,12.096282958984375,6.493293285369873,31.105127334594727,12.991814613342285,7.251743316650391,34.09440994262695,0.9289000000000001,,
139,48,2380,-45.3167964679018,3.264636993408203,3.283329486846924,186.92527770996094,21.355958938598633,11.520503997802734,7.362287521362305,48.11732482910156,11.558287620544434,7.350794792175293,41.47483444213867,0.9286,,
140,48,2390,-67.30836629868341,3.8190932273864746,3.836177110671997,170.83859252929688,27.398473739624023,11.447488784790039,6.308218955993652,27.52410888671875,12.63846492767334,7.889766693115234,30.474567413330078,0.9283,,
141,48,2400,-88.4482699277013,3.4151971340179443,3.434291124343872,190.94070434570312,20.073909759521484,11.971460342407227,6.901075839996338,47.48267364501953,11.944384574890137,7.630408763885498,41.537960052490234,0.9279999999999999,,
142,49,2410,-12.41441868188077,3.1766083240509033,3.1934099197387695,168.01492309570312,19.986148834228516,11.158926963806152,6.594943523406982,31.736589431762695,11.240510940551758,7.118872165679932,30.750202178955078,0.9277,,
143,49,2420,-27.817009584290883,3.2657229900360107,3.28411865234375,183.95687866210938,21.373573303222656,11.762655258178711,6.752542495727539,32.15468215942383,11.662515640258789,7.645065784454346,34.12718963623047,0.9274,,
144,49,2430,-45.004534589596275,2.8600106239318848,2.880797863006592,207.87155151367188,17.960947036743164,12.387615203857422,7.376893043518066,46.11408233642578,12.573047637939453,8.002178192138672,41.61543273925781,0.9271,,
145,49,2440,-62.62816357357562,3.249177932739258,3.2702865600585938,211.08731079101562,22.333166122436523,12.559494018554688,7.303862571716309,32.95292663574219,13.209846496582031,8.183839797973633,36.31857681274414,0.9268,,
146,49,2450,-83.72992422281791,2.5614187717437744,2.5786800384521484,172.61154174804688,19.983516693115234,11.805306434631348,5.765960216522217,24.23172378540039,11.996984481811523,6.4311981201171875,34.41915512084961,0.9265,,
147,50,2460,-12.487963575730026,2.950786590576172,2.9695284366607666,187.4187469482422,19.058839797973633,11.752897262573242,7.020552158355713,32.82858657836914,12.16917610168457,7.401741981506348,30.527128219604492,0.9262,,
148,50,2470,-21.988733029480933,3.1959266662597656,3.216240167617798,203.13514709472656,22.788745880126953,12.60312271118164,6.655559539794922,32.39443588256836,12.544631004333496,7.455681800842285,30.53813362121582,0.9259,,
149,50,2480,-30.60470786429111,3.3664703369140625,3.388756513595581,222.8626708984375,20.458436965942383,13.440173149108887,6.498030662536621,33.635196685791016,13.279099464416504,7.252424716949463,34.59614181518555,0.9256,,
150,50,2490,-37.19678872339674,2.8478751182556152,2.866485595703125,186.10565185546875,22.98427391052246,12.387992858886719,5.7134318351745605,32.304073333740234,12.545724868774414,6.932018756866455,32.33414077758789,0.9253,,
151,50,2500,-44.57073658862831,3.043797254562378,3.060614585876465,168.17291259765625,19.851091384887695,11.11838436126709,6.6749091148376465,27.475830078125,11.76261043548584,7.3806939125061035,34.38173294067383,0.925,-90.6008827559692,-90.6008827559692
152,51,2510,-8.52570347194159,3.3997275829315186,3.419175624847412,194.4798126220703,22.921804428100586,12.190211296081543,6.773373126983643,28.046884536743164,12.937461853027344,7.426144123077393,29.8347225189209,0.9247,,
153,51,2520,-19.68856664503177,2.9899098873138428,3.0093863010406494,194.76318359375,21.323875427246094,12.208433151245117,6.761460781097412,33.66321563720703,11.715046882629395,7.060604095458984,33.914154052734375,0.9244,,
154,51,2530,-33.28176219911212,3.027707815170288,3.045215368270874,175.07455444335938,23.709835052490234,11.482315063476562,6.575029373168945,32.367427825927734,12.192421913146973,7.240496635437012,30.92776107788086,0.9241,,
155,51,2540,-47.7586805266359,2.907392740249634,2.92529559135437,179.02914428710938,16.5572566986084,12.074807167053223,5.764386177062988,24.460912704467773,12.39460277557373,6.479551315307617,31.06554412841797,0.9238,,
156,51,2550,-67.07901655872988,2.4856514930725098,2.504312753677368,186.6123046875,18.510099411010742,12.093929290771484,6.3521013259887695,29.714187622070312,11.841422080993652,7.006916046142578,29.890504837036133,0.9235,,
157,52,2560,-17.761461439590253,2.6813454627990723,2.701465606689453,201.20138549804688,22.393964767456055,12.81402587890625,6.082939147949219,29.172344207763672,11.787287712097168,6.118479251861572,28.672931671142578,0.9232,,
158,52,2570,-41.62702305750851,2.7897629737854004,2.809851884841919,200.88955688476562,24.72525978088379,12.36882209777832,6.921112060546875,31.04271697998047,12.662505149841309,7.190624237060547,40.44635772705078,0.9229,,
159,52,2580,-62.744550855578936,2.797628879547119,2.817336082458496,197.0715789794922,19.41625213623047,12.1312837600708,7.064242839813232,31.724050521850586,12.226219177246094,8.156275749206543,42.7457389831543,0.9226,,
160,52,2590,-81.95094990829753,3.0625619888305664,3.083705425262451,211.433837890625,22.651308059692383,12.805272102355957,6.889037132263184,33.81146240234375,12.833002090454102,8.077651023864746,43.711021423339844,0.9223,,
161,52,2600,-99.30625022619186,3.1011109352111816,3.1234803199768066,223.69461059570312,23.369306564331055,13.285228729248047,6.870031833648682,31.901897430419922,13.457267761230469,7.440818786621094,42.838775634765625,0.922,,
162,53,2610,-16.305414745907594,2.404724359512329,2.4262921810150146,215.6793212890625,21.086999893188477,12.612537384033203,7.523509502410889,39.67808532714844,12.522819519042969,7.647758483886719,41.62779998779297,0.9217,,
163,53,2620,-32.5834635006887,2.699688196182251,2.7206945419311523,210.06332397460938,22.43631362915039,13.163484573364258,6.065147399902344,27.702381134033203,13.401582717895508,6.591089248657227,30.425077438354492,0.9214,,
164,53,2630,-52.98033494615576,2.305558681488037,2.3266870975494385,211.28366088867188,21.086807250976562,12.855643272399902,6.783515453338623,29.96872329711914,12.538366317749023,6.562267780303955,30.834823608398438,0.9211,,
165,53,2640,-74.43200424099267,2.903988838195801,2.9269754886627197,229.86767578125,27.38547134399414,13.580059051513672,6.741636753082275,31.97258186340332,12.705185890197754,6.81658935546875,30.838239669799805,0.9208000000000001,,
166,53,2650,-90.55809784536274,3.1569747924804688,3.1799020767211914,229.27175903320312,23.41638946533203,13.387833595275879,7.073729991912842,29.08816909790039,12.88514232635498,7.743435859680176,38.99613952636719,0.9205,,
167,54,2660,-7.40827094870239,2.8189797401428223,2.841421127319336,224.41363525390625,19.143768310546875,12.992843627929688,7.456517219543457,34.744667053222656,13.238068580627441,7.389162540435791,41.50422286987305,0.9202,,
168,54,2670,-15.728217685018796,2.596747398376465,2.6154611110687256,187.1362762451172,19.666810989379883,11.974794387817383,6.613664150238037,28.7210750579834,11.966523170471191,7.0796027183532715,31.225597381591797,0.9198999999999999,,
169,54,2680,-22.530106656816127,3.0619568824768066,3.083099842071533,211.42904663085938,21.501760482788086,12.415228843688965,7.569087982177734,48.16359329223633,12.598610877990723,7.801361083984375,42.3297119140625,0.9196,,
170,54,2690,-30.507614210388457,3.2311182022094727,3.2487905025482178,176.72198486328125,17.244884490966797,12.147842407226562,5.399252891540527,27.02396011352539,11.322190284729004,6.579453468322754,28.916156768798828,0.9193,,
171,54,2700,-40.31058857529332,2.8945999145507812,2.9153928756713867,207.92893981933594,15.369486808776855,12.833797454833984,6.574387073516846,31.017881393432617,12.913524627685547,7.559232234954834,32.486106872558594,0.919,,
172,55,2710,-10.019191502479615,3.0745575428009033,3.092750310897827,181.927734375,20.718931198120117,11.672182083129883,6.759283542633057,37.2983512878418,12.165384292602539,7.900420188903809,44.1718635559082,0.9187,,
173,55,2720,-24.5528559130455,2.8789150714874268,2.8998923301696777,209.77297973632812,22.274673461914062,12.82068157196045,6.738183975219727,32.98227310180664,12.225676536560059,6.70897912979126,28.088863372802734,0.9184,,
174,55,2730,-38.629375201516815,2.8889007568359375,2.9097814559936523,208.8065185546875,19.05694007873535,12.831897735595703,6.644467830657959,30.337425231933594,12.838709831237793,7.935354232788086,35.25407791137695,0.9181,,
175,55,2740,-52.53679759842545,2.742690324783325,2.7642409801483154,215.50628662109375,21.995037078857422,13.399068832397461,5.997602462768555,37.15523147583008,12.931087493896484,6.383450508117676,41.0537109375,0.9178,,
176,55,2750,-69.0415737936439,2.8892855644226074,2.908749580383301,194.641357421875,21.7691707611084,12.19861888885498,6.770159721374512,33.979312896728516,12.4304838180542,8.3816556930542,44.26914978027344,0.9175,,
177,56,2760,-8.720691256901434,2.7864911556243896,2.807805061340332,213.13931274414062,22.11017417907715,13.104328155517578,6.435515880584717,29.875675201416016,13.643715858459473,7.450275897979736,35.69071960449219,0.9172,,
178,56,2770,-18.20467008683672,3.0895371437072754,3.1112349033355713,216.977294921875,15.508516311645508,12.959354400634766,7.002316951751709,31.32965850830078,12.97949504852295,7.476586818695068,31.694440841674805,0.9169,,
179,56,2780,-26.39876537432215,2.514435291290283,2.535348415374756,209.13157653808594,17.598169326782227,12.924931526184082,6.4867329597473145,34.842342376708984,12.329852104187012,6.86056661605835,28.344655990600586,0.9166,,
180,56,2790,-33.288660792235525,3.335073947906494,3.3575644493103027,224.90496826171875,16.64999771118164,13.32318115234375,6.88460636138916,40.764278411865234,12.974976539611816,8.369290351867676,44.348045349121094,0.9163,,
181,56,2800,-41.656999318194245,2.5859453678131104,2.60990571975708,239.60397338867188,19.627058029174805,13.487716674804688,7.595096588134766,34.82569122314453,13.260580062866211,8.44694709777832,41.95121765136719,0.916,,
182,57,2810,-8.330004000973158,2.9215593338012695,2.942931890487671,213.72470092773438,18.129472732543945,12.524672508239746,7.54037618637085,38.072792053222656,12.136688232421875,8.255171775817871,40.82575988769531,0.9157,,
183,57,2820,-17.883537690927906,2.6570332050323486,2.679823637008667,227.9038543701172,24.5043888092041,13.321741104125977,7.101766109466553,37.98757553100586,13.903180122375488,8.292701721191406,36.214942932128906,0.9154,,
184,57,2830,-29.783624024893385,2.3701541423797607,2.3940012454986572,238.47219848632812,23.716529846191406,14.290237426757812,5.853315830230713,30.9139347076416,14.434005737304688,6.737585067749023,37.5671272277832,0.9151,,
185,57,2840,-39.62014663591031,2.8490781784057617,2.874030113220215,249.51922607421875,21.780040740966797,14.444833755493164,6.392652988433838,34.027034759521484,14.864616394042969,8.134933471679688,43.58863067626953,0.9148000000000001,,
186,57,2850,-47.12724238171166,2.721428394317627,2.7447948455810547,233.66372680664062,17.298076629638672,13.56805419921875,7.04071044921875,34.45716857910156,13.57107925415039,8.025325775146484,37.63386154174805,0.9145,,
187,58,2860,-13.354684007600712,3.07073974609375,3.0916061401367188,208.66482543945312,19.770904541015625,12.716190338134766,6.8529767990112305,35.12394714355469,12.60329818725586,7.789241313934326,43.425140380859375,0.9142,,
188,58,2870,-22.900208121011914,2.779820203781128,2.8024630546569824,226.42897033691406,27.259830474853516,13.265974044799805,7.102316856384277,35.3454704284668,14.398517608642578,8.128151893615723,36.752593994140625,0.9139,,
189,58,2880,-28.28309605673923,2.7835679054260254,2.8026416301727295,190.73703002929688,18.20804786682129,12.238802909851074,6.399119853973389,35.513065338134766,12.149602890014648,7.234730243682861,36.000953674316406,0.9136,,
190,58,2890,-35.17999534727577,2.8428115844726562,2.867783308029175,249.71810913085938,22.204883575439453,14.125601768493652,7.084170818328857,36.648704528808594,13.846481323242188,8.226627349853516,41.230613708496094,0.9133,,
191,58,2900,-45.149037935309046,2.987501859664917,3.012869358062744,253.67523193359375,23.26714324951172,14.442571640014648,6.714711666107178,38.64873504638672,14.293977737426758,8.327947616577148,42.45205307006836,0.913,,
192,59,2910,-11.087615454441107,2.37231707572937,2.396047353744507,237.3026580810547,20.070629119873047,13.777155876159668,6.891488552093506,32.40304946899414,13.828513145446777,7.105550765991211,33.871826171875,0.9127,,
193,59,2920,-25.28321527986943,2.9035356044769287,2.927459239959717,239.23635864257812,24.645950317382812,13.797211647033691,6.990945816040039,36.68069839477539,13.148356437683105,7.959151744842529,41.3389892578125,0.9124,,
194,59,2930,-37.0328650221026,2.4213595390319824,2.4439754486083984,226.15997314453125,21.413347244262695,13.434268951416016,6.758726119995117,40.54069519042969,13.357358932495117,7.059920310974121,37.82286834716797,0.9121,,
195,59,2940,-49.66910681032312,2.7874491214752197,2.8104403018951416,229.91265869140625,19.639230728149414,13.672401428222656,6.555768013000488,31.71653938293457,13.337743759155273,7.244724750518799,31.102394104003906,0.9117999999999999,,
196,59,2950,-63.011478067120635,2.3286478519439697,2.354735851287842,260.8800048828125,20.239030838012695,14.51395320892334,7.086973190307617,39.017826080322266,14.413168907165527,7.616415023803711,35.206295013427734,0.9115,,
197,60,2960,-8.780719306799309,2.71353816986084,2.735461950302124,219.23782348632812,18.967222213745117,12.989758491516113,7.1066155433654785,39.65746307373047,12.662620544433594,7.686226844787598,42.34614562988281,0.9112,,
198,60,2970,-15.191962455173835,2.5653042793273926,2.5895402431488037,242.35964965820312,18.66810417175293,13.7164306640625,7.3633646965026855,36.9065055847168,13.449934959411621,7.488931655883789,36.29642868041992,0.9109,,
199,60,2980,-24.911681073319688,2.569646120071411,2.5897865295410156,201.40423583984375,17.33226776123047,12.908358573913574,5.897328853607178,29.33566665649414,12.695622444152832,6.010325908660889,32.86782455444336,0.9106,,
200,60,2990,-34.14966604241125,2.753746747970581,2.779409170150757,256.62335205078125,20.061573028564453,14.04578685760498,7.7031941413879395,36.6710090637207,13.597118377685547,7.949677467346191,34.08617401123047,0.9103,,
201,60,3000,-45.049852009719594,2.5619754791259766,2.58638072013855,244.0520782470703,27.918010711669922,14.352508544921875,6.169081687927246,30.154558181762695,14.465625762939453,7.049487590789795,35.87720489501953,0.91,,
202,61,3010,-6.052974433723444,2.714646339416504,2.7370786666870117,224.3226318359375,18.373336791992188,13.442058563232422,6.605578899383545,35.99077224731445,13.018138885498047,7.0972795486450195,34.41628646850586,0.9097,,
203,61,3020,-17.064655539402604,2.4505903720855713,2.472102642059326,215.12155151367188,23.162189483642578,12.91843032836914,6.945193290710449,38.315914154052734,12.992779731750488,7.885831832885742,42.77460861206055,0.9094,,
204,61,3030,-32.61715206519657,2.5717384815216064,2.596041679382324,243.0320281982422,21.938949584960938,14.026204109191895,6.804236888885498,33.96551513671875,13.887225151062012,7.245599269866943,36.512474060058594,0.9091,,
205,61,3040,-46.71360062990656,2.666761636734009,2.6903867721557617,236.25096130371094,22.322124481201172,13.281476974487305,7.736492156982422,48.31875991821289,13.29382610321045,7.953429698944092,43.042423248291016,0.9088,,
206,61,3050,-64.08876373018609,2.3936731815338135,2.4153225421905518,216.49346923828125,24.48148536682129,13.011306762695312,6.870181083679199,39.31144714355469,13.315082550048828,7.224161624908447,41.869972229003906,0.9085,,
207,62,3060,-8.012345521295487,2.096740961074829,2.1237730979919434,270.3212585449219,24.887361526489258,14.673271179199219,7.417297840118408,39.434715270996094,13.91573429107666,7.282721996307373,37.26343536376953,0.9082,,
208,62,3070,-19.7650799756384,2.4202871322631836,2.4490199089050293,287.328369140625,22.951351165771484,15.21749496459961,7.467008113861084,39.99075698852539,15.408635139465332,8.360370635986328,41.94160079956055,0.9079,,
209,62,3080,-32.77578391766046,2.429446220397949,2.452343225479126,228.96995544433594,21.05329132080078,13.572155952453613,6.6907806396484375,37.155094146728516,14.144529342651367,7.197813510894775,34.86466979980469,0.9076,,
210,62,3090,-45.40244077237374,2.5439863204956055,2.566189765930176,222.03384399414062,19.158742904663086,13.612980842590332,6.059753894805908,31.807207107543945,12.886720657348633,6.5715861320495605,39.83049774169922,0.9073,,
211,62,3100,-57.30293922745836,2.984722852706909,3.009465456008911,247.42604064941406,17.67096519470215,14.411397933959961,6.303781032562256,32.286800384521484,13.19400691986084,7.442616939544678,34.65686798095703,0.907,,
212,63,3110,-10.118255597130261,1.9834543466567993,2.0081231594085693,246.68894958496094,19.21764373779297,14.178816795349121,6.7564873695373535,36.51953887939453,14.225424766540527,6.9571709632873535,36.671138763427734,0.9067,,
213,63,3120,-19.557640148824355,2.145662784576416,2.169139862060547,234.77032470703125,19.757661819458008,14.147788047790527,5.883061408996582,33.21997833251953,14.061821937561035,5.987100124359131,35.12757110595703,0.9064,,
214,63,3130,-30.564584183037553,2.505094528198242,2.5328562259674072,277.6180419921875,20.97236442565918,15.129819869995117,6.979011535644531,36.84242630004883,14.784782409667969,7.359286785125732,35.70354080200195,0.9061,,
215,63,3140,-40.605118779080954,2.174129009246826,2.1987223625183105,245.93255615234375,23.129953384399414,14.142000198364258,6.7776384353637695,38.081180572509766,13.305817604064941,7.1942009925842285,44.460811614990234,0.9057999999999999,,
216,63,3150,-50.883734920588445,2.3315887451171875,2.3562769889831543,246.8836212158203,23.411630630493164,13.921653747558594,7.284995079040527,41.58552932739258,13.121847152709961,7.953873634338379,38.31454849243164,0.9055,,
217,64,3160,-8.510411666618376,2.6455016136169434,2.66983962059021,243.3795623779297,20.277673721313477,14.117112159729004,6.639781475067139,39.12788391113281,13.685518264770508,7.3944573402404785,43.031551361083984,0.9052,,
218,64,3170,-15.443847414531767,2.6700797080993652,2.6977744102478027,276.947509765625,25.036102294921875,14.957467079162598,7.295318126678467,49.07150650024414,13.788134574890137,7.999719142913818,43.42316436767578,0.9049,,
219,64,3180,-20.50584278307072,2.575922727584839,2.5992791652679443,233.5653839111328,22.828468322753906,13.692672729492188,6.787938117980957,33.564239501953125,13.101646423339844,7.372805118560791,36.62959289550781,0.9046,,
220,64,3190,-31.507989282039514,2.4100165367126465,2.4331448078155518,231.283447265625,21.61796760559082,14.021020889282227,5.890195369720459,37.11021041870117,14.010159492492676,6.215109825134277,38.484214782714844,0.9043,,
221,64,3200,-45.02479764113805,2.368105888366699,2.3927972316741943,246.91343688964844,18.054094314575195,14.151503562927246,6.829963207244873,41.70054244995117,14.2879638671875,7.888936996459961,37.88895797729492,0.904,,
222,65,3210,-5.331818050855858,2.6111390590667725,2.631678819656372,205.39862060546875,18.615062713623047,13.02530288696289,5.9783034324646,35.376712799072266,13.219830513000488,7.205630779266357,37.868797302246094,0.9037,,
223,65,3220,-14.44344155006452,2.0624842643737793,2.083993434906006,215.09078979492188,19.001657485961914,13.415515899658203,5.925766944885254,31.513534545898438,13.949460983276367,6.693688869476318,35.54766082763672,0.9034,,
224,65,3230,-25.834119923954688,2.7995707988739014,2.824587106704712,250.16265869140625,21.562957763671875,14.149741172790527,7.067352294921875,34.977725982666016,14.409111976623535,8.074626922607422,43.96377944946289,0.9031,,
225,65,3240,-37.419079478070074,1.8876978158950806,1.912104845046997,244.07083129882812,23.302047729492188,14.043966293334961,6.843818664550781,33.9627799987793,14.463318824768066,7.722480297088623,36.40643310546875,0.9028,,
226,65,3250,-49.92848353529265,2.5405514240264893,2.5622787475585938,217.2724609375,21.109939575195312,13.561979293823242,5.7745280265808105,30.923423767089844,13.693259239196777,6.843033313751221,33.447391510009766,0.9025,,
227,66,3260,-13.832788700062485,2.2065892219543457,2.227060079574585,204.70864868164062,18.087862014770508,12.477527618408203,7.001423358917236,32.936885833740234,12.882598876953125,7.443903923034668,35.54620361328125,0.9022,,
228,66,3270,-24.777771487808174,2.037342071533203,2.0587358474731445,213.93850708007812,25.968774795532227,13.11244010925293,6.480928421020508,33.96021270751953,14.206883430480957,6.941766738891602,38.25292205810547,0.9019,,
229,66,3280,-35.46672726990557,1.800174355506897,1.8207148313522339,205.40420532226562,19.840381622314453,12.631608963012695,6.771014213562012,36.00849533081055,12.584406852722168,6.81970739364624,31.24310302734375,0.9016,,
230,66,3290,-44.88647212388347,2.2699499130249023,2.2960169315338135,260.6695556640625,20.306074142456055,14.401211738586426,7.298951148986816,36.154075622558594,14.489327430725098,7.81059455871582,35.064666748046875,0.9013,,
231,66,3300,-53.744760119345116,2.3361072540283203,2.3599727153778076,238.65428161621094,20.905715942382812,13.640778541564941,7.251443386077881,33.830387115478516,13.622430801391602,7.807487964630127,42.21212387084961,0.901,,
232,67,3310,-10.316073895579498,2.4596192836761475,2.4817006587982178,220.81434631347656,26.87790870666504,13.282951354980469,6.661647319793701,35.01111602783203,13.879213333129883,7.842164039611816,45.72604751586914,0.9007,,
233,67,3320,-19.35266630506219,1.8266407251358032,1.84945809841156,228.1742706298828,22.15825080871582,13.29143238067627,7.177192211151123,34.98044204711914,13.639230728149414,7.318660259246826,37.22833251953125,0.9004,,
234,67,3330,-29.71162108086994,2.227421522140503,2.2522380352020264,248.16526794433594,17.709821701049805,14.201767921447754,6.817261695861816,39.91964340209961,14.035039901733398,8.044251441955566,45.763492584228516,0.9001,,
235,67,3340,-42.89532979789982,2.267744302749634,2.2909581661224365,232.13941955566406,18.533273696899414,13.66949462890625,6.729364395141602,39.62851333618164,13.003199577331543,7.357546329498291,37.213993072509766,0.8997999999999999,,
236,67,3350,-57.806248419979546,2.3147387504577637,2.340254068374634,255.15411376953125,23.996240615844727,14.298792839050293,7.120299816131592,35.13935089111328,14.06318187713623,7.720462799072266,42.4307975769043,0.8995,,
237,68,3360,-7.074258048035944,2.2149124145507812,2.2422916889190674,273.7930908203125,24.146196365356445,14.863845825195312,7.270432472229004,37.71037673950195,14.281211853027344,7.391193389892578,35.72095489501953,0.8992,,
238,68,3370,-14.970960303161348,2.1428091526031494,2.1668314933776855,240.22268676757812,24.21499252319336,14.062294006347656,6.517251968383789,37.47942352294922,14.949441909790039,7.144400596618652,37.71685028076172,0.8989,,
239,68,3380,-23.467225915543395,2.0646708011627197,2.088312864303589,236.41957092285156,26.663551330566406,13.9466552734375,6.473823547363281,34.58613586425781,13.224494934082031,6.991484642028809,37.872337341308594,0.8986,,
240,68,3390,-37.05770016382393,2.006706953048706,2.0307064056396484,239.99435424804688,17.6942138671875,14.016197204589844,6.598526477813721,35.42916488647461,13.69813060760498,7.116556167602539,44.232017517089844,0.8983,,
241,68,3400,-54.29024900676367,2.5037264823913574,2.5273070335388184,235.80657958984375,21.675331115722656,13.471092224121094,7.371312618255615,39.049503326416016,12.284936904907227,7.547973155975342,45.112831115722656,0.898,,
242,69,3410,-14.429472462100392,2.0726938247680664,2.0983259677886963,256.3218994140625,25.123924255371094,14.767374038696289,6.184377193450928,29.83465576171875,13.705244064331055,6.465970516204834,28.631736755371094,0.8976999999999999,,
243,69,3420,-27.004308956876763,2.4748318195343018,2.5001869201660156,253.5508575439453,18.28982925415039,14.31555461883545,6.972501277923584,39.32522201538086,13.942386627197266,7.5154266357421875,39.27444076538086,0.8974,,
244,69,3430,-38.74580213509203,2.130404233932495,2.1538243293762207,234.20040893554688,24.141315460205078,13.613255500793457,6.991398334503174,34.26563262939453,13.142121315002441,7.7536115646362305,46.01554870605469,0.8971,,
245,69,3440,-48.42883924618741,2.026904344558716,2.0477802753448486,208.7583465576172,20.284990310668945,13.035569190979004,6.23155403137207,34.211395263671875,13.231656074523926,6.8716959953308105,44.34075927734375,0.8968,,
246,69,3450,-59.192033359039385,2.0064949989318848,2.0329535007476807,264.58477783203125,20.35301399230957,14.576475143432617,7.218809604644775,36.70738220214844,14.59492015838623,7.376809120178223,37.98783493041992,0.8965,,
247,70,3460,-9.858785731185272,2.2461113929748535,2.2664172649383545,203.05816650390625,19.748815536499023,12.52659797668457,6.792828559875488,32.090030670166016,12.385358810424805,6.944269180297852,34.59488296508789,0.8962,,
248,70,3470,-15.706084729704987,2.3416030406951904,2.363525867462158,219.22837829589844,19.750091552734375,13.1596097946167,6.786240100860596,38.89979553222656,12.889803886413574,7.481898307800293,43.838722229003906,0.8959,,
249,70,3480,-23.311378562284833,2.0588951110839844,2.0795862674713135,206.91197204589844,21.039552688598633,13.216662406921387,5.677307605743408,30.05547332763672,14.12742805480957,6.27915620803833,42.60175704956055,0.8956,,
250,70,3490,-30.476677832773237,2.2250254154205322,2.2467079162597656,216.82534790039062,16.312782287597656,13.311907768249512,6.294318199157715,38.16680145263672,13.020977973937988,6.948267936706543,33.45345687866211,0.8953,,
251,70,3500,-36.1208421100624,1.7735382318496704,1.7972897291183472,237.5148468017578,19.039323806762695,13.795708656311035,6.869734764099121,37.258853912353516,14.23383903503418,6.985726356506348,35.97197341918945,0.895,,
252,71,3510,-12.76290107159148,1.962411880493164,1.9875476360321045,251.35780334472656,18.971969604492188,14.480175018310547,6.456184387207031,36.664344787597656,14.969703674316406,6.864627361297607,35.848785400390625,0.8947,,
253,71,3520,-24.55148730637655,2.0579493045806885,2.081772565841675,238.23191833496094,20.077749252319336,13.511945724487305,7.460511684417725,37.209632873535156,13.752851486206055,7.5815958976745605,40.6748161315918,0.8944,,
254,71,3530,-32.91796857928097,2.2414677143096924,2.268555164337158,270.8738708496094,17.12050437927246,14.946859359741211,6.88950252532959,36.56059265136719,14.236244201660156,7.413497447967529,36.577789306640625,0.8941,,
255,71,3540,-43.30425881132356,1.6368530988693237,1.6615265607833862,246.7349395751953,19.669952392578125,14.211816787719727,6.690236568450928,41.63756561279297,14.559344291687012,7.23972225189209,44.025146484375,0.8938,,
256,71,3550,-57.30577292569234,1.6669774055480957,1.693556308746338,265.7886657714844,20.045698165893555,14.845518112182617,6.737896919250488,43.42390441894531,14.81195068359375,7.5019941329956055,44.18199157714844,0.8935,,
257,72,3560,-12.911859797248956,1.7593556642532349,1.7882143259048462,288.5860595703125,17.859851837158203,15.341376304626465,7.2957658767700195,37.095340728759766,15.212760925292969,7.7580366134643555,40.75932312011719,0.8932,,
258,72,3570,-22.919775935459317,2.240990161895752,2.2627246379852295,217.34584045410156,16.27510643005371,13.386849403381348,6.175606727600098,35.45234680175781,13.097672462463379,7.050474166870117,34.89915084838867,0.8929,,
259,72,3580,-36.72029494971457,2.4268476963043213,2.4537243843078613,268.7674865722656,20.520183563232422,14.913134574890137,6.809253692626953,35.98095703125,14.059560775756836,7.812211990356445,42.84520721435547,0.8926000000000001,,
260,72,3590,-56.45693480658182,1.9050092697143555,1.932425618171692,274.1638488769531,18.17119789123535,15.093246459960938,6.808653354644775,36.99600601196289,14.870484352111816,7.215695858001709,36.401206970214844,0.8923,,
261,72,3600,-80.7708368810951,2.1604421138763428,2.1856131553649902,251.71121215820312,23.98827362060547,14.275086402893066,6.923375129699707,35.41071319580078,13.795575141906738,7.488360404968262,38.538394927978516,0.892,,
262,73,3610,-12.120228264402394,2.4184372425079346,2.446424722671509,279.8746337890625,21.540918350219727,15.224377632141113,6.934907913208008,33.6681022644043,14.197362899780273,7.325866222381592,42.926910400390625,0.8916999999999999,,
263,73,3620,-22.805304445517827,2.15876841545105,2.1891160011291504,303.4747009277344,21.571809768676758,15.478128433227539,7.993886470794678,42.707481384277344,14.770426750183105,8.11899471282959,45.700130462646484,0.8914,,
264,73,3630,-34.27605475401501,2.2278194427490234,2.25312876701355,253.09376525878906,21.678617477416992,14.441751480102539,6.6730475425720215,28.545846939086914,13.99074649810791,6.865094184875488,28.53862190246582,0.8911,,
265,73,3640,-48.43415417352372,1.980709433555603,2.005229949951172,245.20596313476562,21.120159149169922,13.97643756866455,7.061525821685791,36.65980529785156,13.973015785217285,7.030303955078125,37.663143157958984,0.8908,,
266,73,3650,-64.69871119752052,1.548565149307251,1.5719705820083618,234.0547332763672,18.960168838500977,13.66891860961914,6.871349334716797,35.20408630371094,13.436555862426758,6.390620708465576,35.87482452392578,0.8905,,
267,74,3660,-12.609002390889552,2.2184550762176514,2.246628522872925,281.735595703125,24.52323341369629,15.132238388061523,7.262984752655029,36.632755279541016,14.30576229095459,7.436760425567627,37.84257507324219,0.8902,,
268,74,3670,-24.955835946825587,2.2247536182403564,2.2505910396575928,258.3748779296875,22.606006622314453,14.661377906799316,6.589298725128174,36.569183349609375,14.25661849975586,6.5153985023498535,32.171165466308594,0.8899,,
269,74,3680,-34.48899434948306,2.1308631896972656,2.1541075706481934,232.44354248046875,18.31817626953125,13.367256164550781,7.332121849060059,34.80292510986328,13.069317817687988,7.19348669052124,34.80387496948242,0.8896,,
270,74,3690,-43.5645695981632,1.9097427129745483,1.9341681003570557,244.2537384033203,19.05288314819336,14.419836044311523,6.026776313781738,29.205190658569336,13.866415023803711,6.450736045837402,32.32758331298828,0.8893,,
271,74,3700,-54.924473041563466,2.3348214626312256,2.3593671321868896,245.45684814453125,18.73206901550293,14.220955848693848,6.574286460876465,35.1573600769043,14.300471305847168,6.809283256530762,36.72978973388672,0.889,,
272,75,3710,-8.831534358915897,2.142780065536499,2.1648008823394775,220.2085723876953,20.396133422851562,13.223386764526367,6.734286308288574,35.56753158569336,13.156139373779297,6.799190998077393,36.37358093261719,0.8887,,
273,75,3720,-23.047520035270725,1.818504810333252,1.8456230163574219,271.1822204589844,17.676055908203125,15.02437686920166,6.741685390472412,43.38800811767578,14.893842697143555,6.729006767272949,44.52320098876953,0.8884,,
274,75,3730,-37.00767684851253,2.1616644859313965,2.183682441711426,220.17872619628906,17.763866424560547,13.096878051757812,6.974992752075195,35.50896453857422,13.304403305053711,7.18710470199585,35.44728469848633,0.8881,,
275,75,3740,-50.970136144784,2.4656388759613037,2.4924263954162598,267.87481689453125,21.991186141967773,14.436511993408203,7.711155891418457,41.7108268737793,14.340145111083984,7.933211803436279,45.92683410644531,0.8878,,
276,75,3750,-66.67454162383446,2.1727778911590576,2.1967718601226807,239.9385986328125,19.878440856933594,13.789939880371094,7.055222511291504,34.31678771972656,13.320600509643555,7.509864330291748,44.98603439331055,0.8875,-100.4076389959138,-100.4076389959138
277,76,3760,-10.36490913667746,1.8259303569793701,1.8504204750061035,244.9010009765625,19.741008758544922,13.907197952270508,7.175710678100586,34.52554702758789,13.945574760437012,7.497922897338867,39.08817672729492,0.8872,,
278,76,3770,-22.10918142265411,1.9327503442764282,1.9560904502868652,233.4010009765625,18.96470832824707,13.796582221984863,6.561656951904297,31.958829879760742,13.58202838897705,6.903195858001709,34.06193923950195,0.8869,,
279,76,3780,-35.033968656959225,1.8154746294021606,1.8368476629257202,213.7300262451172,18.569181442260742,13.153385162353516,6.381102085113525,34.28006362915039,13.068925857543945,7.255133628845215,36.290740966796875,0.8866,,
280,76,3790,-50.57297083541512,1.9333348274230957,1.9572697877883911,239.35012817382812,21.92218780517578,13.979424476623535,6.627656936645508,33.668312072753906,13.6508207321167,7.027907848358154,34.853126525878906,0.8863,,
281,76,3800,-65.72897957148353,1.9247081279754639,1.9519120454788208,272.03961181640625,17.692825317382812,15.131494522094727,6.563343048095703,32.21665954589844,14.914812088012695,6.960817337036133,35.240596771240234,0.886,,
282,77,3810,-10.841845361747202,1.8464112281799316,1.870974063873291,245.62794494628906,15.15516471862793,13.957496643066406,7.1285529136657715,43.72164535522461,13.829081535339355,7.451179027557373,44.072261810302734,0.8857,,
283,77,3820,-22.76196089707847,1.7564657926559448,1.7835458517074585,270.8006896972656,18.193443298339844,15.149940490722656,6.424948692321777,35.06974411010742,15.129950523376465,7.0899224281311035,36.134864807128906,0.8854,,
284,77,3830,-40.014679937485354,1.6415859460830688,1.6658879518508911,243.0196990966797,22.258451461791992,14.122123718261719,6.601919174194336,33.676944732666016,14.82522201538086,7.467052936553955,45.12331008911133,0.8851,,
285,77,3840,-60.929038220577524,2.2881102561950684,2.3122806549072266,241.70484924316406,18.757125854492188,13.831231117248535,7.099431991577148,41.70425796508789,14.234047889709473,8.064966201782227,43.866966247558594,0.8848,,
286,77,3850,-88.9366624091375,1.837658166885376,1.8677936792373657,301.3548583984375,18.853952407836914,15.639638900756836,7.533692836761475,38.71243667602539,15.357061386108398,8.273063659667969,45.16630172729492,0.8845000000000001,,
287,78,3860,-16.104064717984627,1.9024523496627808,1.9316253662109375,291.7298278808594,15.077938079833984,15.457931518554688,7.26513147354126,33.63835144042969,15.359561920166016,7.246032238006592,35.956634521484375,0.8842,,
288,78,3870,-40.56037069634014,2.104278802871704,2.1280856132507324,238.0679931640625,20.816476821899414,13.937454223632812,6.619317054748535,29.84712028503418,13.77724552154541,7.172184467315674,30.76872444152832,0.8839,,
289,78,3880,-71.30856089185816,1.9722044467926025,2.001249313354492,290.4489440917969,19.600881576538086,15.517057418823242,7.0476861000061035,37.43062210083008,16.038742065429688,7.8533196449279785,46.9270133972168,0.8835999999999999,,
290,78,3890,-101.43282918960374,2.0076963901519775,2.03521990776062,275.23406982421875,21.064380645751953,14.682747840881348,7.723405361175537,37.38701629638672,14.444148063659668,8.056802749633789,36.188087463378906,0.8833,,
291,78,3900,-131.7712234292197,2.1076879501342773,2.1347105503082275,270.22601318359375,17.420284271240234,14.545785903930664,7.658074378967285,33.06057357788086,14.241978645324707,7.8100666999816895,35.226417541503906,0.883,,
292,79,3910,-8.482414160386242,1.7972147464752197,1.8280514478683472,308.36724853515625,19.506206512451172,15.992319107055664,7.253480911254883,50.94785690307617,15.6014404296875,7.240828037261963,44.9693603515625,0.8827,,
293,79,3920,-16.047562205127303,1.815186619758606,1.8498797416687012,346.93109130859375,20.86009407043457,16.89901351928711,7.832906246185303,41.30891418457031,16.317546844482422,8.125307083129883,44.113887786865234,0.8824,,
294,79,3930,-26.19067009417403,1.9277691841125488,1.9558411836624146,280.7197265625,16.690038681030273,15.033941268920898,7.395970821380615,45.26826477050781,14.908403396606445,7.23293399810791,45.03880310058594,0.8821,,
295,79,3940,-35.62662035940968,1.7306448221206665,1.7618322372436523,311.8739929199219,19.177642822265625,16.038776397705078,7.391321659088135,33.051448822021484,15.646133422851562,7.41053581237793,31.890592575073242,0.8818,,
296,79,3950,-40.423522378793685,2.3383450508117676,2.3694026470184326,310.5765686035156,20.255504608154297,16.091594696044922,7.185897350311279,38.620872497558594,15.239845275878906,6.736454486846924,36.58776092529297,0.8815,,
297,80,3960,-4.741382078008959,1.8496973514556885,1.8745123147964478,248.14964294433594,17.37692642211914,13.97787857055664,7.264196395874023,37.42516326904297,13.87769603729248,7.0851850509643555,34.96696853637695,0.8812,,
298,80,3970,-13.173363885073085,2.155226945877075,2.1862130165100098,309.8608093261719,20.234142303466797,15.76007080078125,7.840978622436523,35.580108642578125,15.095768928527832,8.16183853149414,36.67676544189453,0.8809,,
299,80,3980,-27.333561311557933,1.2655653953552246,1.2937403917312622,281.7493896484375,19.155410766601562,15.373172760009766,6.739062309265137,36.08729934692383,15.548995018005371,6.763136386871338,36.03247833251953,0.8806,,
300,80,3990,-44.545239836320675,1.7081769704818726,1.7352484464645386,270.71453857421875,18.743854522705078,14.85944938659668,7.064793586730957,35.5439453125,14.987195014953613,7.774502754211426,45.48023986816406,0.8803,,
301,80,4000,-57.91701932269335,1.8561131954193115,1.885241985321045,291.2882995605469,19.195938110351562,15.69295883178711,6.709647178649902,39.216583251953125,15.39501953125,7.203851699829102,40.412078857421875,0.88,,
302,81,4010,-21.445461581169813,1.9156434535980225,1.9442015886306763,285.5813293457031,20.60938835144043,15.260031700134277,7.26035737991333,40.44989776611328,15.169647216796875,7.713269233703613,45.11933898925781,0.8797,,
303,81,4020,-44.47737202158958,1.6676257848739624,1.6933764219284058,257.5062561035156,21.220701217651367,14.605916023254395,6.646310806274414,32.612335205078125,14.40999984741211,6.923788070678711,34.07695007324219,0.8794,,
304,81,4030,-71.26153056727455,1.6270124912261963,1.6543915271759033,273.7905578613281,18.234487533569336,15.181096076965332,6.582164287567139,32.414306640625,15.076802253723145,6.957277297973633,37.38506317138672,0.8791,,
305,81,4040,-104.76768751343076,1.4849649667739868,1.5118486881256104,268.8372802734375,17.86529541015625,15.05780029296875,6.488443851470947,34.60105514526367,15.214051246643066,6.917657852172852,35.419918060302734,0.8788,,
306,81,4050,-137.76001343329736,1.6887946128845215,1.718923568725586,301.28955078125,20.77863311767578,15.985742568969727,6.7635498046875,36.612037658691406,15.891602516174316,7.671397686004639,39.390289306640625,0.8785,,
307,82,4060,-9.027515296896743,2.023577928543091,2.0536487102508545,300.7077941894531,22.533916473388672,15.781953811645508,7.18594217300415,40.75448226928711,15.287891387939453,7.751522064208984,34.49223327636719,0.8782,,
308,82,4070,-16.034779945520103,2.032369613647461,2.060303211212158,279.3349304199219,19.31877899169922,15.55682373046875,6.109021186828613,38.27803039550781,15.400891304016113,7.014349460601807,38.79450988769531,0.8779,,
309,82,4080,-22.865890332991754,1.4027864933013916,1.4292265176773071,264.40020751953125,17.982234954833984,14.741734504699707,6.861594200134277,34.601524353027344,14.682882308959961,7.048506259918213,37.286102294921875,0.8775999999999999,,
310,82,4090,-38.806541614450374,1.4989289045333862,1.5276737213134766,287.448486328125,22.333017349243164,15.284737586975098,7.336568832397461,38.142330169677734,15.845270156860352,7.595642566680908,38.139556884765625,0.8773,,
311,82,4100,-59.27781890243617,1.823498249053955,1.8488643169403076,253.66087341308594,16.49850082397461,14.748556137084961,6.0117363929748535,33.16980743408203,14.320728302001953,6.519937515258789,34.04700469970703,0.877,,
312,83,4110,-11.84771957280056,1.446075201034546,1.4748950004577637,288.198486328125,16.526472091674805,15.290709495544434,7.375141620635986,42.23849105834961,15.140796661376953,7.687541961669922,45.31075668334961,0.8767,,
313,83,4120,-24.932018003388706,1.7646174430847168,1.793172001838684,285.54547119140625,18.96718978881836,15.366399765014648,7.029881000518799,37.882171630859375,14.912667274475098,7.209764003753662,34.8390998840332,0.8764,,
314,83,4130,-37.89531882194593,1.7468345165252686,1.7771683931350708,303.3392028808594,23.25229835510254,15.95791244506836,6.977404594421387,42.38491439819336,15.053508758544922,6.901000499725342,40.47357177734375,0.8761,,
315,83,4140,-48.148664329574,1.6855379343032837,1.7159252166748047,303.8734130859375,15.938741683959961,15.914250373840332,7.114073753356934,37.14826583862305,15.170607566833496,7.638105392456055,35.45440673828125,0.8758,,
316,83,4150,-65.92144038750399,1.938062071800232,1.9709974527359009,329.35369873046875,21.66890525817871,16.537187576293945,7.474966049194336,40.25358200073242,16.044492721557617,7.6551032066345215,46.628944396972656,0.8755,,
317,84,4160,-6.823657208224265,1.5221312046051025,1.5516271591186523,294.9601135253906,21.302019119262695,15.869101524353027,6.567476272583008,34.662879943847656,15.498530387878418,6.965281009674072,36.1529655456543,0.8752,,
318,84,4170,-14.074062774038266,1.9403269290924072,1.9692028760910034,288.7599792480469,23.01856231689453,15.502957344055176,6.958327770233154,35.36134719848633,15.36322021484375,7.3455939292907715,35.95569610595703,0.8749,,
319,84,4180,-18.946927081595028,1.5210976600646973,1.5489758253097534,278.7816467285156,18.818096160888672,15.279634475708008,6.731601715087891,40.35951232910156,15.252230644226074,6.944096565246582,46.68806457519531,0.8746,,
320,84,4190,-22.616282531504016,1.7347657680511475,1.7649234533309937,301.57733154296875,18.27885627746582,15.888854026794434,7.008685111999512,32.28307342529297,15.354406356811523,7.342698574066162,30.74688720703125,0.8743,,
321,84,4200,-30.91939861518678,1.94901704788208,1.9754019975662231,263.849853515625,15.916168212890625,14.989160537719727,6.258987903594971,37.87316131591797,14.913285255432129,7.200399875640869,39.750732421875,0.874,,
322,85,4210,-10.520893733544444,1.8573474884033203,1.8895727396011353,322.252197265625,20.23992919921875,16.55539894104004,6.940530300140381,35.99928283691406,15.830092430114746,6.977389812469482,38.84197998046875,0.8737,,
323,85,4220,-25.46022473399604,1.7374153137207031,1.7646623849868774,272.4708251953125,21.361652374267578,14.814155578613281,7.28090763092041,32.11185836791992,15.12336540222168,7.396950721740723,36.675392150878906,0.8734,,
324,85,4230,-43.17857998193998,1.7860592603683472,1.8094192743301392,233.60067749023438,16.589109420776367,13.957498550415039,6.228072166442871,31.407773971557617,13.586095809936523,6.330613136291504,30.631425857543945,0.8731,,
325,85,4240,-66.57658629267884,1.4779717922210693,1.5035935640335083,256.2178955078125,17.68861961364746,14.595075607299805,6.572798252105713,30.777694702148438,14.761198997497559,7.15593957901001,34.780982971191406,0.8728,,
326,85,4250,-94.89062013490911,1.6847978830337524,1.7123748064041138,275.7691650390625,23.422725677490234,14.944381713867188,7.241175174713135,36.518272399902344,15.179627418518066,7.813445091247559,37.87745666503906,0.8725,,
327,86,4260,-10.834980266037007,1.8347158432006836,1.858816385269165,241.00558471679688,17.484603881835938,13.787864685058594,7.1344475746154785,35.68950271606445,13.825519561767578,7.59730863571167,37.79246520996094,0.8722,,
328,86,4270,-19.68918253852842,1.7149512767791748,1.739677906036377,247.26678466796875,20.34734535217285,14.264520645141602,6.617417335510254,36.80242919921875,14.590702056884766,7.432971954345703,39.60113525390625,0.8719,,
329,86,4280,-28.026628638540455,1.9061594009399414,1.9337273836135864,275.6793212890625,29.745960235595703,15.31103229522705,6.422743797302246,33.496315002441406,16.106218338012695,7.0290703773498535,35.54759979248047,0.8715999999999999,,
330,86,4290,-41.17916930547213,1.4611221551895142,1.4897478818893433,286.2569885253906,22.846281051635742,15.606051445007324,6.535147666931152,50.24758529663086,16.171838760375977,6.658099174499512,45.88515090942383,0.8713,,
331,86,4300,-57.420166763619925,1.6620758771896362,1.6885902881622314,265.1436767578125,20.048994064331055,15.051637649536133,6.2122368812561035,31.322561264038086,14.720916748046875,6.400647163391113,30.05154800415039,0.871,,
332,87,4310,-13.416688249724565,1.4101608991622925,1.4342626333236694,241.01748657226562,17.022092819213867,13.920029640197754,6.87388277053833,36.92097091674805,14.122371673583984,7.158929347991943,44.0134162902832,0.8707,,
333,87,4320,-27.40695167880396,1.6523548364639282,1.6784741878509521,261.1932067871094,19.53113555908203,14.889894485473633,6.283649921417236,34.069339752197266,14.81722354888916,6.808398246765137,31.86479949951172,0.8704000000000001,,
334,87,4330,-39.85438001232371,1.8917361497879028,1.9251375198364258,334.01373291015625,22.395645141601562,16.61949348449707,7.603036880493164,41.81940841674805,15.896772384643555,8.494852066040039,44.04701232910156,0.8701,,
335,87,4340,-54.323503110924314,1.626049518585205,1.6540610790252686,280.11553955078125,20.42949676513672,15.173151016235352,7.063358306884766,36.12746810913086,15.4900541305542,7.801116943359375,45.98087692260742,0.8698,,
336,87,4350,-74.37197621752398,2.0701141357421875,2.101726770401001,316.1264343261719,24.041793823242188,16.583698272705078,6.411505222320557,37.99428176879883,15.187822341918945,6.813899517059326,28.2811222076416,0.8694999999999999,,
337,88,4360,-8.702846062969687,1.3249354362487793,1.3522394895553589,273.0401306152344,19.786911010742188,15.141843795776367,6.61549186706543,32.95280456542969,14.914800643920898,6.898500919342041,40.30332946777344,0.8692,,
338,88,4370,-22.229618358281673,1.7174054384231567,1.750694751739502,332.8929748535156,16.954235076904297,16.368425369262695,8.060248374938965,40.7795524597168,15.911413192749023,7.854711055755615,38.106712341308594,0.8689,,
339,88,4380,-34.45822536546146,1.5226529836654663,1.5552663803100586,326.13427734375,21.33987045288086,16.632568359375,7.035053730010986,39.63563919067383,16.570045471191406,7.888039588928223,47.67421340942383,0.8686,,
340,88,4390,-52.019759309629094,1.690483808517456,1.7200249433517456,295.4115295410156,23.128599166870117,15.757246971130371,6.8644537925720215,40.60855484008789,14.955411911010742,6.749037742614746,31.034852981567383,0.8683,,
341,88,4400,-77.84783232118042,2.1285476684570312,2.1604559421539307,319.0835876464844,23.209369659423828,16.098922729492188,7.740044593811035,37.60295104980469,15.306315422058105,7.830746173858643,36.45033645629883,0.868,,
342,89,4410,-8.74245980224483,2.019012212753296,2.0461907386779785,271.78472900390625,18.062822341918945,15.113142967224121,6.586169242858887,38.1168098449707,14.09017562866211,6.512437343597412,32.56390380859375,0.8677,,
343,89,4420,-15.933612828860898,2.4865148067474365,2.5149874687194824,284.7254638671875,16.546350479125977,15.287389755249023,7.142911434173584,35.387454986572266,15.027862548828125,7.942775249481201,41.73095703125,0.8674,,
344,89,4430,-24.12745817723907,1.4025673866271973,1.428971529006958,264.0411376953125,15.661162376403809,14.993127822875977,6.26476526260376,32.63493347167969,15.356037139892578,6.136902809143066,34.35192108154297,0.8671,,
345,89,4440,-36.69090037700701,1.7318323850631714,1.7593114376068115,274.79034423828125,18.166261672973633,15.276151657104492,6.436582088470459,34.900062561035156,15.2382230758667,6.756017208099365,41.05693817138672,0.8668,,
346,89,4450,-49.26885862289912,1.5457005500793457,1.571637511253357,259.369384765625,16.68875503540039,14.845297813415527,6.243917942047119,31.995338439941406,15.068127632141113,6.470633506774902,32.31207275390625,0.8665,,
347,90,4460,-6.876600538211716,2.0305583477020264,2.055873394012451,253.15113830566406,20.557470321655273,14.640318870544434,6.229943752288818,32.78330993652344,14.17274284362793,6.903133392333984,36.20215606689453,0.8662,,
348,90,4470,-20.962512243604436,1.414402723312378,1.4368056058883667,224.0283660888672,21.922529220581055,13.7858247756958,5.829188823699951,31.14481544494629,14.06705379486084,6.115834712982178,35.10495376586914,0.8659,,
349,90,4480,-39.72022129410644,1.900246500968933,1.9305083751678467,302.6181945800781,22.786012649536133,15.97171401977539,6.893661022186279,34.78391647338867,16.3494873046875,7.872041702270508,35.33660888671875,0.8655999999999999,,
350,90,4490,-63.05949123058223,1.8089812994003296,1.8356595039367676,266.7820129394531,15.920846939086914,15.230461120605469,5.900429725646973,31.82828140258789,14.957027435302734,6.663748741149902,44.14175033569336,0.8653,,
351,90,4500,-86.89507745973933,1.9715545177459717,1.9998359680175781,282.81396484375,23.369224548339844,15.520240783691406,6.475805759429932,34.774234771728516,16.035755157470703,7.453341007232666,35.688385009765625,0.865,,
352,91,4510,-9.70257690829191,1.7482353448867798,1.775521993637085,272.8664245605469,20.670310974121094,15.072127342224121,6.759981632232666,34.77414321899414,15.365184783935547,7.895993232727051,42.02815628051758,0.8647,,
353,91,4520,-26.89206083365526,1.741868019104004,1.768845558166504,269.7754821777344,18.999561309814453,15.020898818969727,6.6444010734558105,31.294334411621094,14.632818222045898,7.215905666351318,34.445762634277344,0.8644000000000001,,
354,91,4530,-43.58216039880673,1.592468500137329,1.6191304922103882,266.6197509765625,20.413658142089844,14.815500259399414,6.8644537925720215,35.68943405151367,15.064244270324707,7.245741844177246,35.84340286254883,0.8641,,
355,91,4540,-59.70621168328087,1.3739211559295654,1.3993747234344482,254.53543090820312,16.446304321289062,14.641858100891113,6.336517333984375,36.395912170410156,14.638031005859375,6.957520008087158,38.214569091796875,0.8638,,
356,91,4550,-82.64059897447973,1.5058618783950806,1.5336902141571045,278.2829284667969,15.971892356872559,15.276829719543457,6.7008538246154785,35.54054641723633,15.447244644165039,7.339938640594482,43.06259536743164,0.8634999999999999,,
357,92,4560,-7.000412745586192,1.1941633224487305,1.2225195169448853,283.5624694824219,17.184743881225586,15.291204452514648,7.052767753601074,38.37964630126953,15.170708656311035,7.26687479019165,35.49609375,0.8632,,
358,92,4570,-14.56049062138927,1.5747132301330566,1.6041663885116577,294.5310363769531,23.572425842285156,15.897201538085938,6.466069221496582,38.53966522216797,15.359118461608887,6.481212615966797,37.647178649902344,0.8629,,
359,92,4580,-22.900631733145293,1.4635417461395264,1.4943163394927979,307.7454528808594,18.880739212036133,15.850866317749023,7.5163469314575195,37.87720489501953,15.570009231567383,7.9369916915893555,36.263797760009766,0.8626,,
360,92,4590,-34.15286027135198,2.481440544128418,2.5125112533569336,310.7077941894531,27.96505355834961,16.039011001586914,7.311487674713135,44.108707427978516,14.19455623626709,7.167578220367432,29.834997177124023,0.8623000000000001,,
361,92,4600,-47.83657555328166,2.055570125579834,2.0843846797943115,288.1458435058594,18.529382705688477,15.544099807739258,6.821055889129639,33.614986419677734,15.026193618774414,7.162294864654541,34.41197204589844,0.862,,
362,93,4610,-9.287655660805179,2.2654058933258057,2.295780897140503,303.7496337890625,19.840242385864258,15.982215881347656,6.951141834259033,43.592899322509766,15.749634742736816,7.372531414031982,39.075233459472656,0.8617,,
363,93,4620,-19.269574171771332,1.772186040878296,1.7984044551849365,262.1844482421875,17.605302810668945,14.82191276550293,6.5188446044921875,35.9034309387207,14.64723014831543,7.0893378257751465,42.648040771484375,0.8613999999999999,,
364,93,4630,-29.78820548866169,1.673791766166687,1.7045667171478271,307.7493896484375,19.052474975585938,16.128747940063477,6.900207996368408,32.12413787841797,16.234844207763672,6.70016622543335,34.41935729980469,0.8611,,
365,93,4640,-41.60355502396917,1.7907328605651855,1.8234028816223145,326.69989013671875,25.65069580078125,16.554595947265625,7.255704879760742,39.963478088378906,15.691265106201172,7.472311973571777,40.91604995727539,0.8608,,
366,93,4650,-54.420243249215346,1.7795723676681519,1.812803030014038,332.30645751953125,18.315893173217773,16.84331703186035,6.972024440765381,37.34440994262695,16.58475112915039,7.606135845184326,41.43206787109375,0.8605,,
367,94,4660,-8.461141475895781,1.6373937129974365,1.6674724817276,300.78729248046875,15.697880744934082,15.87911605834961,6.974307060241699,37.076171875,15.84200668334961,7.234297752380371,36.94599151611328,0.8602,,
368,94,4670,-17.21976167503321,1.3175650835037231,1.3399837017059326,224.18621826171875,24.82510757446289,13.715786933898926,6.005281925201416,28.021564483642578,13.731287956237793,5.431170463562012,27.885324478149414,0.8599,,
369,94,4680,-27.85375912917056,1.297232985496521,1.324587345123291,273.543701171875,16.792695999145508,15.403592109680176,6.022709369659424,34.124664306640625,15.94881534576416,6.440035820007324,35.98951721191406,0.8596,,
370,94,4690,-40.114285089007836,1.426750659942627,1.4543894529342651,276.3880615234375,18.057775497436523,15.375641822814941,6.322790145874023,37.781333923339844,15.168353080749512,6.8857550621032715,47.68972396850586,0.8593,,
371,94,4700,-53.61063169011986,1.3524694442749023,1.378861904144287,263.9243469238281,19.306907653808594,15.17574405670166,5.798372268676758,31.881959915161133,15.320545196533203,6.081462860107422,30.177644729614258,0.859,,
372,95,4710,-13.268579337584958,1.6279062032699585,1.6528840065002441,249.7783203125,21.798870086669922,14.745545387268066,5.687459468841553,34.875999450683594,15.031240463256836,6.764871597290039,40.71543884277344,0.8587,,
373,95,4720,-28.34744232869729,1.1016587018966675,1.1266885995864868,250.29916381835938,18.10487174987793,14.704046249389648,5.838682174682617,30.248573303222656,14.559714317321777,6.489801406860352,30.574806213378906,0.8584,,
374,95,4730,-43.20745891783592,1.411415457725525,1.441855788230896,304.4034729003906,18.970272064208984,16.397655487060547,5.959895133972168,33.06263732910156,16.30325698852539,7.013283729553223,39.5886344909668,0.8581,,
375,95,4740,-57.14441199813602,1.5093562602996826,1.5436937808990479,343.3755187988281,18.700077056884766,17.17104148864746,6.966405868530273,37.280426025390625,16.909324645996094,7.577069282531738,40.84091567993164,0.8578,,
376,95,4750,-72.065786273288,1.2469711303710938,1.276333212852478,293.62139892578125,16.80606460571289,15.925274848937988,6.325109958648682,34.25263977050781,16.09438133239746,6.670302391052246,36.86981201171875,0.8575,,
377,96,4760,-11.590427252782971,1.4194767475128174,1.451208233833313,317.31463623046875,20.234546661376953,16.580780029296875,6.510944843292236,42.67292785644531,16.11026954650879,6.899902820587158,45.757110595703125,0.8572,,
378,96,4770,-24.048085608164577,1.8666822910308838,1.9032822847366333,366.0002136230469,18.138452529907227,17.70874786376953,7.2388153076171875,43.10072326660156,17.01166534423828,7.6336989402771,42.61532974243164,0.8569,,
379,96,4780,-37.10900474701269,1.2778431177139282,1.3119592666625977,341.1614074707031,16.626205444335938,17.264057159423828,6.566104412078857,40.76807403564453,17.177196502685547,6.969186305999756,45.8364143371582,0.8566,,
380,96,4790,-51.370478515789344,1.6882777214050293,1.723737120628357,354.593994140625,23.3770751953125,17.182218551635742,7.704890251159668,41.48735809326172,16.846202850341797,8.686851501464844,46.878482818603516,0.8563,,
381,96,4800,-65.45069479745742,1.6188355684280396,1.651363730430603,325.28167724609375,16.310176849365234,16.59177017211914,7.070701599121094,34.137428283691406,15.990482330322266,7.644830703735352,39.59537887573242,0.856,,
382,97,4810,-10.841779039570511,1.5507609844207764,1.5832486152648926,324.87689208984375,22.668750762939453,16.64299201965332,6.920095920562744,35.27180480957031,16.7099552154541,7.599013328552246,42.65635681152344,0.8557,,
383,97,4820,-32.781875422910616,1.1382142305374146,1.1681405305862427,299.2635192871094,16.538156509399414,15.946718215942383,6.705643177032471,37.41825485229492,15.956033706665039,6.872934341430664,40.188560485839844,0.8553999999999999,,
384,97,4830,-57.930301782374066,1.127387285232544,1.153700351715088,263.1312255859375,15.25644302368164,14.90794563293457,6.394087791442871,33.816017150878906,14.873970985412598,6.7060041427612305,34.36677169799805,0.8551,,
385,97,4840,-81.60071626526255,1.6166640520095825,1.650504469871521,338.4045715332031,18.345949172973633,16.511568069458008,8.110037803649902,38.42619323730469,15.884344100952148,8.323417663574219,40.97526168823242,0.8548,,
386,97,4850,-110.82257527661054,1.5394139289855957,1.5671195983886719,277.0565490722656,19.33290672302246,15.40715217590332,6.298905849456787,35.23503112792969,15.381126403808594,6.399672508239746,36.199066162109375,0.8545,,
387,98,4860,-7.813002701846919,1.515140414237976,1.5467649698257446,316.24542236328125,21.088367462158203,16.42487144470215,6.816814422607422,35.50399398803711,15.980550765991211,6.803530216217041,34.363983154296875,0.8542,,
388,98,4870,-18.266577951288003,1.4875578880310059,1.5198346376419067,322.7676086425781,17.415624618530273,16.13979721069336,7.891424655914307,40.626808166503906,15.762661933898926,7.586658954620361,41.07884979248047,0.8539,,
389,98,4880,-30.511230558822373,1.676275372505188,1.707862138748169,315.86767578125,18.03306770324707,16.421085357666016,6.798214435577393,38.68026351928711,16.437957763671875,7.360755443572998,36.563018798828125,0.8536,,
390,98,4890,-40.40618582319063,1.1601669788360596,1.1891632080078125,289.9625549316406,17.420766830444336,15.821303367614746,6.2967376708984375,37.142154693603516,15.970407485961914,6.4561333656311035,40.47992706298828,0.8533,,
391,98,4900,-54.637018526681494,1.4858977794647217,1.5145864486694336,286.8866271972656,18.009105682373047,15.498552322387695,6.8323869705200195,42.50533676147461,15.335969924926758,6.671854019165039,40.48572540283203,0.853,,
392,99,4910,-10.838099754931083,1.206931233406067,1.2329624891281128,260.31219482421875,17.358728408813477,14.848221778869629,6.312096118927002,38.0782585144043,15.202103614807129,6.875310897827148,39.94490432739258,0.8527,,
393,99,4920,-21.355640690186615,0.9325354695320129,0.9615240097045898,289.88525390625,18.139591217041016,15.875539779663086,6.152435779571533,35.299251556396484,16.148683547973633,6.549130439758301,34.49416732788086,0.8524,,
394,99,4930,-29.973833539407632,1.5288193225860596,1.5601309537887573,313.1158752441406,14.533382415771484,16.208354949951172,7.0996551513671875,36.22584915161133,15.79919147491455,7.542797088623047,37.11891174316406,0.8521,,
395,99,4940,-37.614823413218986,1.776617407798767,1.8095794916152954,329.6204528808594,16.2166805267334,16.610013961791992,7.329930782318115,35.5190544128418,15.855194091796875,7.6327948570251465,40.724151611328125,0.8518,,
396,99,4950,-43.9538389266118,1.759158730506897,1.7904282808303833,312.6954345703125,18.924833297729492,16.07678985595703,7.364256858825684,42.44866180419922,15.241842269897461,8.09157657623291,40.96444320678711,0.8514999999999999,,
397,100,4960,-3.3874080978727257,1.7281776666641235,1.7604273557662964,322.4965515136719,21.173141479492188,16.746110916137695,6.4857025146484375,36.46435546875,16.5720157623291,6.522294998168945,36.96918487548828,0.8512,,
398,100,4970,-9.842903899358504,1.5905333757400513,1.6225254535675049,319.92095947265625,16.44031524658203,16.29309844970703,7.379418849945068,40.42271041870117,15.997369766235352,7.747119426727295,40.41085433959961,0.8509,,
399,100,4980,-20.084260959358588,1.0672357082366943,1.0969860553741455,297.5032043457031,18.257144927978516,15.853718757629395,6.794320106506348,40.96944046020508,15.692901611328125,6.756409645080566,41.29557800292969,0.8506,,
400,100,4990,-36.55119900774722,1.5202051401138306,1.5481760501861572,279.7090759277344,16.545488357543945,15.306327819824219,6.739841461181641,42.20512390136719,15.373697280883789,6.824931621551514,36.30054473876953,0.8503000000000001,,
401,100,5000,-56.178303359568815,1.354189157485962,1.38411283493042,299.23736572265625,18.556949615478516,16.024293899536133,6.516086578369141,38.357418060302734,16.028289794921875,6.823514938354492,38.12331771850586,0.85,-71.32127891529488,-71.32127891529488
402,101,5010,-5.784694847730623,1.4286507368087769,1.4623267650604248,336.75994873046875,19.924541473388672,17.29553985595703,6.133865833282471,35.783390045166016,17.182035446166992,6.808416843414307,42.68366622924805,0.8497,,
403,101,5020,-11.797550794022866,1.1087548732757568,1.1381261348724365,293.7123718261719,15.989898681640625,15.929849624633789,6.320778846740723,35.12150573730469,16.093141555786133,6.555398941040039,34.767051696777344,0.8493999999999999,,
404,101,5030,-17.066331253532084,1.4202640056610107,1.4491702318191528,289.0619812011719,19.302297592163086,15.648273468017578,6.647819995880127,40.1622314453125,15.524608612060547,7.021711349487305,45.07326889038086,0.8491,,
405,101,5040,-24.627893858295206,1.2930651903152466,1.3236500024795532,305.84844970703125,16.714994430541992,16.490955352783203,5.822099685668945,36.266357421875,16.366044998168945,6.4743332862854,38.145538330078125,0.8488,,
406,101,5050,-34.35784670301983,1.7606642246246338,1.7918814420700073,312.1717224121094,16.843894958496094,16.704174041748047,5.756931781768799,31.82642936706543,15.951456069946289,6.2287187576293945,32.75775909423828,0.8485,,
407,102,5060,-9.72214200783968,1.9232406616210938,1.960588812828064,373.4817810058594,16.41167640686035,18.048974990844727,6.9076995849609375,42.781272888183594,17.53592872619629,7.854331970214844,45.90109634399414,0.8482000000000001,,
408,102,5070,-18.21756140211871,1.190525770187378,1.224161148071289,336.3532409667969,18.266191482543945,16.92544937133789,7.062746047973633,43.03858947753906,16.684919357299805,7.7581281661987305,45.91402053833008,0.8479,,
409,102,5080,-23.900242372040868,1.154528021812439,1.1910552978515625,365.27264404296875,20.04863166809082,18.060644149780273,6.251864910125732,36.59238815307617,18.193191528320312,6.856118202209473,45.685401916503906,0.8476,,
410,102,5090,-30.11363412370178,1.426342248916626,1.4580172300338745,316.7494201660156,17.5588436126709,16.700708389282227,6.151077747344971,37.05854797363281,16.06220054626465,6.586089134216309,36.12370681762695,0.8472999999999999,,
411,102,5100,-37.40356637820468,1.1777719259262085,1.2125415802001953,347.6961975097656,21.80906867980957,17.433212280273438,6.6165900230407715,41.72350311279297,17.049209594726562,7.027154922485352,45.15938186645508,0.847,,
412,103,5110,-9.32603452153721,1.0323787927627563,1.0649774074554443,325.9866638183594,19.8420467376709,16.974367141723633,6.152846813201904,36.77072525024414,16.771339416503906,6.521759033203125,36.44304656982422,0.8467,,
413,103,5120,-24.640192867355513,2.0061657428741455,2.0368704795837402,307.0472412109375,20.23365592956543,16.403493881225586,6.162192344665527,41.585121154785156,15.948057174682617,6.690337657928467,36.45707321166992,0.8464,,
414,103,5130,-44.937472697432526,1.6398481130599976,1.6721160411834717,322.6790466308594,18.142681121826172,16.928438186645508,6.008910179138184,37.52151870727539,16.277387619018555,6.890470027923584,36.6865348815918,0.8461,,
415,103,5140,-59.65720922286025,1.674896478652954,1.7099007368087769,350.042724609375,16.90346336364746,17.521312713623047,6.56097412109375,40.713321685791016,16.995203018188477,7.877965927124023,45.837825775146484,0.8458,,
416,103,5150,-73.7318255230657,1.2978630065917969,1.3313827514648438,335.19732666015625,17.240766525268555,17.16335678100586,6.373111248016357,33.91732406616211,17.11267852783203,6.464034557342529,34.07383728027344,0.8455,,
417,104,5160,-8.866003805672937,1.143662691116333,1.171313762664795,276.5103759765625,17.99057388305664,15.443954467773438,6.163980484008789,37.694419860839844,15.511163711547852,6.637176990509033,45.78111267089844,0.8452,,
418,104,5170,-23.045478854634286,1.3076750040054321,1.3356739282608032,279.9896240234375,18.377145767211914,15.536473274230957,6.213502883911133,30.013795852661133,15.301521301269531,6.471419334411621,30.385643005371094,0.8449,,
419,104,5180,-44.86348079732734,1.296129584312439,1.3294581174850464,333.2848815917969,18.66209602355957,16.71259880065918,7.34669303894043,42.41923522949219,16.73429298400879,7.902781963348389,45.89677810668945,0.8446,,
420,104,5190,-73.62950703650432,1.3707969188690186,1.4032150506973267,324.1812438964844,17.36164093017578,17.04282569885254,5.807181358337402,36.641929626464844,16.626222610473633,6.4482293128967285,43.95944595336914,0.8443,,
421,104,5200,-106.08928846530337,1.7699600458145142,1.8064028024673462,364.4273681640625,21.283973693847656,17.708736419677734,7.12937593460083,36.57199478149414,16.99445152282715,7.095390796661377,38.43217086791992,0.844,,
422,105,5210,-11.708229107008233,1.5764248371124268,1.6106905937194824,342.6577453613281,16.08479881286621,17.128494262695312,7.019431114196777,35.83900833129883,16.875011444091797,7.883071422576904,37.395904541015625,0.8437,,
423,105,5220,-20.423514219041376,1.3832918405532837,1.416366457939148,330.7456359863281,15.806800842285156,17.03729820251465,6.362080097198486,33.61976623535156,16.796249389648438,6.853499412536621,37.90098190307617,0.8434,,
424,105,5230,-28.700484372811637,1.17788827419281,1.2109233140945435,330.3504943847656,14.948233604431152,16.754283905029297,7.045882225036621,33.31862258911133,16.7348690032959,7.123908519744873,39.74462127685547,0.8431,,
425,105,5240,-37.557141847408936,0.9626674056053162,0.9923388957977295,296.7151794433594,16.333494186401367,15.904549598693848,6.615171432495117,29.450088500976562,15.662785530090332,6.641929626464844,32.726932525634766,0.8428,,
426,105,5250,-48.55122043064815,0.968687117099762,0.9977423548698425,290.55242919921875,13.382271766662598,15.960043907165527,5.985767364501953,32.37400436401367,16.061384201049805,6.206513404846191,34.288978576660156,0.8425,,
427,106,5260,-8.33238731507367,1.213494896888733,1.2410690784454346,275.7414245605469,15.64208698272705,15.278356552124023,6.504864692687988,37.15724563598633,15.491876602172852,6.657016754150391,36.37556076049805,0.8422,,
428,106,5270,-17.33613235554474,1.193600058555603,1.224294662475586,306.94586181640625,17.13619041442871,16.299959182739258,6.42317533493042,33.54772186279297,16.446563720703125,7.090326309204102,37.368064880371094,0.8419,,
429,106,5280,-27.862448303106433,1.284101963043213,1.3149350881576538,308.33154296875,18.0731143951416,16.481842041015625,6.0564351081848145,34.337974548339844,16.324176788330078,6.473199367523193,31.144502639770508,0.8416,,
430,106,5290,-38.28107422984008,1.6546604633331299,1.6872920989990234,326.3167724609375,16.684616088867188,16.918676376342773,6.330499172210693,35.9548225402832,16.425609588623047,6.617263317108154,37.229652404785156,0.8412999999999999,,
431,106,5300,-49.97424005742057,1.2291805744171143,1.2584810256958008,293.00433349609375,17.641691207885742,16.082117080688477,5.862579345703125,31.754804611206055,15.609917640686035,6.268295764923096,31.572540283203125,0.841,,
432,107,5310,-12.345918628972706,0.8351688385009766,0.8685489296913147,333.8011474609375,17.177141189575195,17.2244815826416,6.092483043670654,30.782114028930664,17.067026138305664,6.016269207000732,30.064517974853516,0.8407,,
433,107,5320,-26.617671153647464,1.213528037071228,1.2467765808105469,332.4857177734375,16.75204849243164,17.068674087524414,6.414522647857666,42.25286102294922,17.276222229003906,6.857266902923584,39.24451446533203,0.8404,,
434,107,5330,-38.889107714382924,1.1358171701431274,1.1648660898208618,290.4893798828125,17.499099731445312,15.8820161819458,6.184734344482422,33.94133758544922,15.905298233032227,6.747989654541016,36.35228729248047,0.8401,,
435,107,5340,-51.502381131602384,1.88962721824646,1.919656753540039,300.29541015625,16.030174255371094,16.193992614746094,6.168468952178955,39.61080551147461,15.477347373962402,7.070574760437012,43.095726013183594,0.8398,,
436,107,5350,-69.51188282082664,1.4695011377334595,1.5019550323486328,324.5388488769531,13.977709770202637,16.924779891967773,6.171761512756348,37.41789245605469,16.449155807495117,6.830486297607422,40.42350769042969,0.8395,,
437,108,5360,-9.37065011995562,1.3402446508407593,1.3740516901016235,338.0700988769531,17.798877716064453,17.301410675048828,6.223453044891357,34.684146881103516,16.565065383911133,6.771535396575928,36.28326416015625,0.8392,,
438,108,5370,-19.23557466829691,1.092789649963379,1.126272201538086,334.8252868652344,15.91996955871582,17.02368927001953,6.709641933441162,36.58328628540039,16.86725425720215,7.224818229675293,40.273807525634766,0.8389,,
439,108,5380,-29.804659563948615,1.1904975175857544,1.220900058746338,304.0255432128906,15.972644805908203,16.455127716064453,5.766655445098877,34.95701217651367,16.53940773010254,6.520970344543457,36.15758514404297,0.8386,,
440,108,5390,-41.1516732648799,1.5667216777801514,1.598714828491211,319.93182373046875,21.486251831054688,16.782392501831055,6.187334060668945,33.82814025878906,15.97882080078125,6.754559516906738,33.13737106323242,0.8383,,
441,108,5400,-52.1575255108667,1.2162961959838867,1.247183918952942,308.8778076171875,16.448753356933594,16.346036911010742,6.456382751464844,34.15107727050781,16.52909278869629,6.711435794830322,37.353607177734375,0.838,,
442,109,5410,-10.169195291846751,1.2270777225494385,1.256813406944275,297.3570861816406,15.353264808654785,15.942085266113281,6.5732035636901855,34.01035690307617,15.795814514160156,7.122200965881348,36.934627532958984,0.8377,,
