FS-tar/marl-mpe-learning/outputs/qmix_mpe/simple_spread/run016/train_log.csv
update,episode,total_steps,train_team_return,td_loss,total_loss,qtot_l2_loss,grad_norm,q_tot_mean,q_tot_std,q_tot_max,target_q_tot_mean,target_q_tot_std,target_q_tot_max,epsilon,eval_team_return,eval_mean_agent_return
1,20,1000,-51.038847183918236,0.046715933829545975,0.046715933829545975,0.0,0.41357576847076416,-0.08954514563083649,0.1528787910938263,0.4825647473335266,0.17419272661209106,0.09235986322164536,0.35541436076164246,0.97,,
2,21,1010,-8.877629002664309,0.044097334146499634,0.044097334146499634,0.0,0.38133400678634644,-0.0701204240322113,0.1538187712430954,0.6590349078178406,0.17592793703079224,0.09852980822324753,0.3506937026977539,0.9697,,
3,21,1020,-20.60956897888656,0.036673419177532196,0.036673419177532196,0.0,0.3393217623233795,-0.04697102680802345,0.14474007487297058,0.39285314083099365,0.17970900237560272,0.08485402911901474,0.34402406215667725,0.9694,,
4,21,1030,-30.447806043607844,0.03767740726470947,0.03767740726470947,0.0,0.36321449279785156,-0.0685378760099411,0.13639575242996216,0.40653449296951294,0.1666799932718277,0.08459769189357758,0.33193281292915344,0.9691,,
5,21,1040,-40.789823294777804,0.03342714160680771,0.03342714160680771,0.0,0.34128162264823914,-0.03517932817339897,0.1401863694190979,0.46190863847732544,0.18244487047195435,0.08345996588468552,0.34180986881256104,0.9688,,
6,21,1050,-52.647997803765,0.0346146896481514,0.0346146896481514,0.0,0.332550972700119,-0.011040624231100082,0.15425604581832886,0.5776360034942627,0.19340062141418457,0.09746529161930084,0.342833012342453,0.9685,,
7,22,1060,-8.029510398257145,0.026817338541150093,0.026817338541150093,0.0,0.29386547207832336,-0.013208177872002125,0.14002647995948792,0.3751651346683502,0.1768197864294052,0.08067014813423157,0.33182209730148315,0.9682,,
8,22,1070,-14.629827763658,0.02735985442996025,0.02735985442996025,0.0,0.269209086894989,-0.0030780648812651634,0.14693474769592285,0.46008414030075073,0.16974061727523804,0.0990498811006546,0.34252268075942993,0.9679,,
9,22,1080,-23.999131731998173,0.028966166079044342,0.028966166079044342,0.0,0.299936443567276,-0.005560949444770813,0.15554320812225342,0.4292593002319336,0.17527300119400024,0.08480194211006165,0.37744441628456116,0.9676,,
10,22,1090,-34.4551814544545,0.026927471160888672,0.026927471160888672,0.0,0.262429803609848,0.020915040746331215,0.15502014756202698,0.4761032164096832,0.18339262902736664,0.08945469558238983,0.3440878093242645,0.9673,,
11,22,1100,-45.81025244384426,0.022441193461418152,0.022441193461418152,0.0,0.2461724877357483,0.03279457241296768,0.14200091361999512,0.4045764207839966,0.1782473921775818,0.08859770745038986,0.3772103488445282,0.967,,
12,23,1110,-11.205125877295139,0.021914010867476463,0.021914010867476463,0.0,0.26098403334617615,0.032629527151584625,0.14233708381652832,0.38558563590049744,0.18834319710731506,0.08303317427635193,0.38969120383262634,0.9667,,
13,23,1120,-29.80793347982191,0.028045061975717545,0.028045061975717545,0.0,0.28879785537719727,0.04146628454327583,0.15284761786460876,0.41691792011260986,0.2060469537973404,0.08771604299545288,0.39037707448005676,0.9664,,
14,23,1130,-52.78121284869018,0.01779560185968876,0.01779560185968876,0.0,0.19807755947113037,0.06329244375228882,0.14461834728717804,0.4214906096458435,0.17492644488811493,0.0920640081167221,0.3680039942264557,0.9661,,
15,23,1140,-74.4369364880938,0.014158390462398529,0.014158390462398529,0.0,0.16667109727859497,0.0770053118467331,0.149435892701149,0.42790529131889343,0.17078915238380432,0.09517432749271393,0.35632216930389404,0.9658,,
16,23,1150,-92.757157669554,0.015648405998945236,0.015648405998945236,0.0,0.1960853487253189,0.07740607857704163,0.1395072638988495,0.413356214761734,0.1897691786289215,0.07513318210840225,0.3805566430091858,0.9655,,
17,24,1160,-18.1075034855141,0.013137095607817173,0.013137095607817173,0.0,0.15302899479866028,0.1041741669178009,0.12570011615753174,0.4878137409687042,0.18772323429584503,0.09223770350217819,0.34735265374183655,0.9652,,
18,24,1170,-36.91221777376121,0.015935448929667473,0.015935448929667473,0.0,0.17429479956626892,0.0967506617307663,0.148082435131073,0.5246896743774414,0.1897716522216797,0.08943111449480057,0.4010879397392273,0.9649,,
19,24,1180,-56.55262790499948,0.01484066341072321,0.01484066341072321,0.0,0.1577775627374649,0.09254977107048035,0.1389687955379486,0.5509651303291321,0.17685706913471222,0.09593217819929123,0.34383541345596313,0.9646,,
20,24,1190,-84.01091706607917,0.010074376128613949,0.010074376128613949,0.0,0.13096286356449127,0.11308634281158447,0.12708398699760437,0.40409860014915466,0.18556739389896393,0.08632487058639526,0.35302817821502686,0.9643,,
21,24,1200,-115.47277614675647,0.00933817122131586,0.00933817122131586,0.0,0.10288485884666443,0.1437968909740448,0.12859733402729034,0.5387140512466431,0.19068099558353424,0.0826895534992218,0.39698779582977295,0.964,,
22,25,1210,-4.085114321368217,0.012438204139471054,0.012438204139471054,0.0,0.11710122227668762,0.14137978851795197,0.13839970529079437,0.5274568200111389,0.1909061074256897,0.08751019835472107,0.3748026192188263,0.9637,,
23,25,1220,-10.641830127381906,0.009533713571727276,0.009533713571727276,0.0,0.09480839222669601,0.14025157690048218,0.1344532072544098,0.3863866329193115,0.18408000469207764,0.07690460234880447,0.33764970302581787,0.9634,,
24,25,1230,-18.438379501480096,0.010413771495223045,0.010413771495223045,0.0,0.09062092751264572,0.15181571245193481,0.137764573097229,0.545722484588623,0.18103860318660736,0.08366872370243073,0.33188942074775696,0.9631,,
25,25,1240,-24.21830526175588,0.008915413171052933,0.008915413171052933,0.0,0.08120982348918915,0.1518155187368393,0.11585244536399841,0.4541679620742798,0.18397285044193268,0.0890653058886528,0.38871997594833374,0.9628,,
26,25,1250,-33.48342237589495,0.01012211199849844,0.01012211199849844,0.0,0.09606987237930298,0.15532627701759338,0.12637633085250854,0.5648918151855469,0.19526681303977966,0.0824998989701271,0.3650835454463959,0.9625,-121.3809530494387,-121.3809530494387
27,26,1260,-11.145932545321074,0.008724361658096313,0.008724361658096313,0.0,0.07592249661684036,0.1633325070142746,0.13773587346076965,0.5719301104545593,0.18356525897979736,0.08729109168052673,0.40246808528900146,0.9621999999999999,,
28,26,1270,-22.190083437954094,0.009937167167663574,0.009937167167663574,0.0,0.1184222400188446,0.16917955875396729,0.13548822700977325,0.5761727094650269,0.1921885907649994,0.07962217181921005,0.349897176027298,0.9619,,
29,26,1280,-31.981433131156564,0.006908962968736887,0.006908962968736887,0.0,0.07447700947523117,0.1690697968006134,0.12527315318584442,0.5596096515655518,0.19000372290611267,0.09347657859325409,0.3910911977291107,0.9616,,
30,26,1290,-41.29197491806652,0.01057969406247139,0.01057969406247139,0.0,0.09316529333591461,0.18140347301959991,0.1305239200592041,0.5440900325775146,0.20724952220916748,0.08648576587438583,0.40110161900520325,0.9613,,
31,26,1300,-54.32197567128537,0.0072806961834430695,0.0072806961834430695,0.0,0.07831022143363953,0.19794076681137085,0.12786249816417694,0.5693745017051697,0.19910801947116852,0.07554341107606888,0.4018731117248535,0.961,,
32,27,1310,-10.88297177607617,0.006414469331502914,0.006414469331502914,0.0,0.0842851921916008,0.19900871813297272,0.10690540075302124,0.4715595245361328,0.1899755299091339,0.07895495742559433,0.32933422923088074,0.9607,,
33,27,1320,-26.213977912524648,0.00649536307901144,0.00649536307901144,0.0,0.06785406172275543,0.18113134801387787,0.12898190319538116,0.451254665851593,0.19477398693561554,0.08865941315889359,0.34328967332839966,0.9604,,
34,27,1330,-43.609198979251055,0.006826558616012335,0.006826558616012335,0.0,0.06724429130554199,0.1906844675540924,0.1297207623720169,0.5746418237686157,0.20209135115146637,0.0896037220954895,0.4081428647041321,0.9601,,
35,27,1340,-63.825816073143876,0.007945633493363857,0.007945633493363857,0.0,0.07822978496551514,0.17836551368236542,0.12164879590272903,0.5095650553703308,0.19748622179031372,0.09069503843784332,0.39513692259788513,0.9598,,
36,27,1350,-76.69844164324671,0.00857699103653431,0.00857699103653431,0.0,0.08144602924585342,0.19932088255882263,0.12862560153007507,0.496808260679245,0.2071366310119629,0.08416061103343964,0.3988463878631592,0.9595,,
37,28,1360,-10.069775925812062,0.007310865446925163,0.007310865446925163,0.0,0.08961865305900574,0.2236277461051941,0.14222820103168488,0.7659339308738708,0.21671462059020996,0.08604329079389572,0.4830312132835388,0.9592,,
38,28,1370,-24.10127475381396,0.007866461761295795,0.007866461761295795,0.0,0.07361161708831787,0.2052541971206665,0.1350347399711609,0.5488278865814209,0.20549623668193817,0.09201432764530182,0.4927801787853241,0.9589,,
39,28,1380,-43.819011770694615,0.006580033805221319,0.006580033805221319,0.0,0.06546293944120407,0.19964562356472015,0.11566440016031265,0.5367418527603149,0.19795243442058563,0.0912947952747345,0.4069426357746124,0.9586,,
40,28,1390,-69.64610036250434,0.006554406601935625,0.006554406601935625,0.0,0.07183191925287247,0.21310092508792877,0.12022844702005386,0.5475033521652222,0.20360754430294037,0.09055955708026886,0.41360339522361755,0.9583,,
41,28,1400,-95.42156342736756,0.007374524604529142,0.007374524604529142,0.0,0.088672935962677,0.2221980094909668,0.1177067831158638,0.5405209064483643,0.2028389424085617,0.08903536945581436,0.40138012170791626,0.958,,
42,29,1410,-6.757375154894586,0.0063660116866230965,0.0063660116866230965,0.0,0.07260874658823013,0.21806780993938446,0.12196832150220871,0.5923965573310852,0.20333611965179443,0.10039359331130981,0.4679594337940216,0.9577,,
43,29,1420,-10.129840843127422,0.008945131674408913,0.008945131674408913,0.0,0.08116061240434647,0.20502904057502747,0.1135135069489479,0.5896333456039429,0.1969122588634491,0.11018379777669907,0.3884524405002594,0.9574,,
44,29,1430,-16.86492023250314,0.004850019700825214,0.004850019700825214,0.0,0.054071132093667984,0.1865326464176178,0.10599015653133392,0.5244676470756531,0.19206857681274414,0.1018572524189949,0.3897644281387329,0.9571,,
45,29,1440,-29.68142551516921,0.005041586235165596,0.005041586235165596,0.0,0.05917055532336235,0.1934942603111267,0.11342334747314453,0.5367864370346069,0.19744950532913208,0.09576873481273651,0.5097231864929199,0.9568,,
46,29,1450,-44.48054468607318,0.0053818076848983765,0.0053818076848983765,0.0,0.053583692759275436,0.2196989506483078,0.10945595800876617,0.564659595489502,0.21170435845851898,0.10051808506250381,0.4723835289478302,0.9565,,
47,30,1460,-14.770456958998636,0.006787581369280815,0.006787581369280815,0.0,0.0661952868103981,0.20238283276557922,0.11852048337459564,0.5582394003868103,0.20000359416007996,0.10152765363454819,0.5118933916091919,0.9562,,
48,30,1470,-26.004587200873925,0.0048890733160078526,0.0048890733160078526,0.0,0.05985815450549126,0.2054707258939743,0.10769946873188019,0.593137264251709,0.2142605036497116,0.08152627944946289,0.4193488359451294,0.9559,,
49,30,1480,-36.2436629744283,0.00427996227517724,0.00427996227517724,0.0,0.04119773209095001,0.19768446683883667,0.09664084017276764,0.5232535600662231,0.2034909725189209,0.08553274720907211,0.4220851957798004,0.9556,,
50,30,1490,-48.10152641338746,0.005022990982979536,0.005022990982979536,0.0,0.04877042397856712,0.18359169363975525,0.11316584795713425,0.5280832052230835,0.20065052807331085,0.09400293231010437,0.4758829176425934,0.9553,,
51,30,1500,-61.61283351631819,0.004450337961316109,0.004450337961316109,0.0,0.04962172359228134,0.2064359486103058,0.1050637885928154,0.48377135396003723,0.22273746132850647,0.08485007286071777,0.4120796322822571,0.955,,
52,31,1510,-10.4231899368365,0.004861890338361263,0.004861890338361263,0.0,0.057416148483753204,0.1992279440164566,0.109640933573246,0.5232950448989868,0.21372781693935394,0.101604163646698,0.5164371728897095,0.9547,,
53,31,1520,-18.178498902803536,0.004959202837198973,0.004959202837198973,0.0,0.052778277546167374,0.1856393963098526,0.09969517588615417,0.46235403418540955,0.1963517665863037,0.09201803803443909,0.39382052421569824,0.9544,,
54,31,1530,-23.969394761696748,0.004565011244267225,0.004565011244267225,0.0,0.05458267033100128,0.1948653757572174,0.09548704326152802,0.47041696310043335,0.21458810567855835,0.07988607883453369,0.4057314991950989,0.9541,,
55,31,1540,-31.507520080606845,0.004749612882733345,0.004749612882733345,0.0,0.044223736971616745,0.17347189784049988,0.09991801530122757,0.5117878913879395,0.18921250104904175,0.08677242696285248,0.3898255527019501,0.9538,,
56,31,1550,-38.13911996241377,0.004434947855770588,0.004434947855770588,0.0,0.054383035749197006,0.19770634174346924,0.11470368504524231,0.5463232398033142,0.1971042901277542,0.09182167053222656,0.4261125326156616,0.9535,,
57,32,1560,-9.805390233472252,0.0041350373066961765,0.0041350373066961765,0.0,0.0451325848698616,0.18901589512825012,0.10249641537666321,0.4665488302707672,0.19866229593753815,0.08553717285394669,0.37300050258636475,0.9532,,
58,32,1570,-17.490580152300364,0.005231219343841076,0.005231219343841076,0.0,0.048919226974248886,0.18735873699188232,0.10279920697212219,0.48280060291290283,0.20245644450187683,0.10217315703630447,0.39364349842071533,0.9529,,
59,32,1580,-25.304036910465502,0.0037071462720632553,0.0037071462720632553,0.0,0.04654019698500633,0.193478062748909,0.10766937583684921,0.4672437608242035,0.1894521713256836,0.09392321854829788,0.5207276940345764,0.9526,,
60,32,1590,-35.47810794168524,0.004243188071995974,0.004243188071995974,0.0,0.047610796988010406,0.19471603631973267,0.10930145531892776,0.5481213331222534,0.20168636739253998,0.1050276905298233,0.46650823950767517,0.9523,,
61,32,1600,-47.063743064455004,0.004138814751058817,0.004138814751058817,0.0,0.05991915240883827,0.19141151010990143,0.09826983511447906,0.4657595753669739,0.2152874767780304,0.08559615164995193,0.46204251050949097,0.952,,
62,33,1610,-9.471935792192026,0.0036888085305690765,0.0036888085305690765,0.0,0.040175676345825195,0.2043987512588501,0.10516011714935303,0.4999740719795227,0.2088989019393921,0.08071799576282501,0.38773539662361145,0.9517,,
63,33,1620,-18.535083268599834,0.005380913615226746,0.005380913615226746,0.0,0.06357011198997498,0.173500657081604,0.10089252889156342,0.49443262815475464,0.20245392620563507,0.09672694653272629,0.45146992802619934,0.9514,,
64,33,1630,-26.467215186391165,0.004182770382612944,0.004182770382612944,0.0,0.046895600855350494,0.19090522825717926,0.10906707495450974,0.5073307752609253,0.20759211480617523,0.09525593370199203,0.522874653339386,0.9511000000000001,,
65,33,1640,-35.01890534161694,0.004338204860687256,0.004338204860687256,0.0,0.059051722288131714,0.17095032334327698,0.10470224916934967,0.46497565507888794,0.20406383275985718,0.09044960886240005,0.5232014656066895,0.9508,,
66,33,1650,-43.50672117657456,0.004000798333436251,0.004000798333436251,0.0,0.05014416575431824,0.1890711784362793,0.10618671029806137,0.46479469537734985,0.21430745720863342,0.10759232193231583,0.5236853361129761,0.9505,,
67,34,1660,-11.211842015464146,0.0046373400837183,0.0046373400837183,0.0,0.04625123366713524,0.19276030361652374,0.10423186421394348,0.510405421257019,0.2061884105205536,0.08850906044244766,0.4034000635147095,0.9502,,
68,34,1670,-22.63780043606862,0.002736709313467145,0.002736709313467145,0.0,0.04093799740076065,0.2023027241230011,0.09486430138349533,0.5068570971488953,0.2148779332637787,0.09003598988056183,0.5077105164527893,0.9499,,
69,34,1680,-33.40300958373814,0.00553522864356637,0.00553522864356637,0.0,0.058996133506298065,0.18604187667369843,0.10611212998628616,0.45480409264564514,0.2065848708152771,0.09837908297777176,0.5243286490440369,0.9496,,
70,34,1690,-44.7575358367213,0.003508965950459242,0.003508965950459242,0.0,0.04599098861217499,0.18522772192955017,0.09445365518331528,0.49909308552742004,0.20556484162807465,0.08141237497329712,0.3614976108074188,0.9493,,
71,34,1700,-56.63542312669943,0.004472179803997278,0.004472179803997278,0.0,0.04727249592542648,0.19072264432907104,0.10484795272350311,0.43755149841308594,0.18737053871154785,0.0945555791258812,0.4687717854976654,0.949,,
72,35,1710,-8.639955006365188,0.003934820182621479,0.003934820182621479,0.0,0.04237432777881622,0.1808754801750183,0.0999736487865448,0.5051947832107544,0.1996837854385376,0.0873168408870697,0.46336787939071655,0.9487,,
73,35,1720,-17.04730807979522,0.0050580804236233234,0.0050580804236233234,0.0,0.046298060566186905,0.17801420390605927,0.10197340697050095,0.4836329221725464,0.1833646148443222,0.10014031827449799,0.4105481505393982,0.9484,,
74,35,1730,-25.759581907347766,0.0024473408702760935,0.0024473408702760935,0.0,0.035614728927612305,0.20115713775157928,0.09925930202007294,0.43104320764541626,0.21076270937919617,0.08379478752613068,0.40051528811454773,0.9480999999999999,,
75,35,1740,-35.9142945418729,0.004800329450517893,0.004800329450517893,0.0,0.043495096266269684,0.19746603071689606,0.10395564883947372,0.44459348917007446,0.21085284650325775,0.09438542276620865,0.3938278555870056,0.9478,,
76,35,1750,-48.130800857668326,0.005704272072762251,0.005704272072762251,0.0,0.056448210030794144,0.21534331142902374,0.10440434515476227,0.4707770049571991,0.20551462471485138,0.10420626401901245,0.5257532000541687,0.9475,,
77,36,1760,-11.55962571048655,0.0037264088168740273,0.0037264088168740273,0.0,0.042732123285532,0.19281163811683655,0.09907466173171997,0.5055519342422485,0.2079610675573349,0.09852790832519531,0.5259239673614502,0.9472,,
78,36,1770,-23.92457050802055,0.003724404377862811,0.003724404377862811,0.0,0.03991169109940529,0.19431602954864502,0.0958617553114891,0.4832557439804077,0.20299075543880463,0.09117621183395386,0.38175955414772034,0.9469,,
79,36,1780,-35.58445201267233,0.002683163620531559,0.002683163620531559,0.0,0.03252716735005379,0.1865060031414032,0.08449681848287582,0.4280603528022766,0.1954931616783142,0.08816137909889221,0.38465237617492676,0.9466,,
80,36,1790,-47.85319880264491,0.003291855799034238,0.003291855799034238,0.0,0.04391416162252426,0.20494741201400757,0.09869443625211716,0.48037540912628174,0.2025364339351654,0.09246443957090378,0.4548865258693695,0.9463,,
81,36,1800,-62.95215387159704,0.0035161522682756186,0.0035161522682756186,0.0,0.045264244079589844,0.2042618691921234,0.10752435773611069,0.5079160928726196,0.20861493051052094,0.09972021728754044,0.487009733915329,0.946,,
82,37,1810,-7.932658767347814,0.00427940534427762,0.00427940534427762,0.0,0.04423575475811958,0.19050048291683197,0.10566007345914841,0.4860166907310486,0.19481736421585083,0.0988888368010521,0.48710528016090393,0.9457,,
83,37,1820,-14.171786109266108,0.0026890384033322334,0.0026890384033322334,0.0,0.033797938376665115,0.19036120176315308,0.10476098209619522,0.5851818323135376,0.1977870911359787,0.09543141722679138,0.4842676520347595,0.9454,,
84,37,1830,-24.107515909163762,0.0032243975438177586,0.0032243975438177586,0.0,0.05231022089719772,0.19701555371284485,0.08549180626869202,0.43451786041259766,0.2125599980354309,0.08796916902065277,0.5267124772071838,0.9451,,
85,37,1840,-34.69872819722107,0.003628927981480956,0.003628927981480956,0.0,0.03207128867506981,0.18990057706832886,0.09857546538114548,0.43157052993774414,0.1958029419183731,0.09490162134170532,0.37935101985931396,0.9448,,
86,37,1850,-45.55131775290017,0.003354717744514346,0.003354717744514346,0.0,0.04109068587422371,0.18772390484809875,0.10820035636425018,0.5618128776550293,0.20345795154571533,0.09468280524015427,0.43276771903038025,0.9445,,
87,38,1860,-8.261454040124248,0.003746643429622054,0.003746643429622054,0.0,0.04788536578416824,0.17625313997268677,0.09368573874235153,0.4402720034122467,0.18990051746368408,0.09083747118711472,0.5066241025924683,0.9442,,
88,38,1870,-14.722504039020942,0.0037258737720549107,0.0037258737720549107,0.0,0.04647061228752136,0.18811333179473877,0.10882357507944107,0.49678897857666016,0.20254875719547272,0.1074426993727684,0.4874759614467621,0.9439,,
89,38,1880,-19.446733725909706,0.005627358797937632,0.005627358797937632,0.0,0.0603412389755249,0.19656802713871002,0.102386474609375,0.5435523986816406,0.20287096500396729,0.10313324630260468,0.5271781086921692,0.9436,,
90,38,1890,-26.90799927248356,0.0028742814902216196,0.0028742814902216196,0.0,0.0392930805683136,0.18602992594242096,0.10760163515806198,0.4736258387565613,0.19854287803173065,0.09024366736412048,0.45594337582588196,0.9433,,
91,38,1900,-38.0864688791601,0.006154692266136408,0.006154692266136408,0.0,0.055141955614089966,0.18935361504554749,0.1076115071773529,0.530366837978363,0.19673536717891693,0.11067993938922882,0.4540402889251709,0.943,,
92,39,1910,-13.08623567462704,0.0035657307598739862,0.0035657307598739862,0.0,0.04298163950443268,0.19436664879322052,0.10143060237169266,0.5028512477874756,0.2140091508626938,0.09726545959711075,0.5189385414123535,0.9427,,
93,39,1920,-23.07247824267739,0.002329143462702632,0.002329143462702632,0.0,0.032177820801734924,0.19812896847724915,0.10427040606737137,0.49994999170303345,0.1991303265094757,0.09159828722476959,0.513896107673645,0.9424,,
94,39,1930,-32.102663903375,0.004730568267405033,0.004730568267405033,0.0,0.05539925396442413,0.20036578178405762,0.1286087930202484,0.9736377000808716,0.19983462989330292,0.09447412192821503,0.5168112516403198,0.9420999999999999,,
95,39,1940,-42.95978883661454,0.0029723173938691616,0.0029723173938691616,0.0,0.03196588531136513,0.19823600351810455,0.09221547096967697,0.5497879385948181,0.19486810266971588,0.08954756706953049,0.4363537132740021,0.9418,,
96,39,1950,-59.47378376965334,0.0036721699871122837,0.0036721699871122837,0.0,0.04131758585572243,0.20866283774375916,0.10778608173131943,0.5934059619903564,0.2086532860994339,0.10926750302314758,0.5273641347885132,0.9415,,
97,40,1960,-9.049524721316054,0.0029625101014971733,0.0029625101014971733,0.0,0.0402853786945343,0.1876755654811859,0.1048496812582016,0.5482556223869324,0.20090191066265106,0.11615896224975586,0.5273832678794861,0.9412,,
98,40,1970,-19.298441554603333,0.0037053734995424747,0.0037053734995424747,0.0,0.04857296496629715,0.19153515994548798,0.09715496748685837,0.46710580587387085,0.19027671217918396,0.1018817201256752,0.4621029496192932,0.9409,,
99,40,1980,-25.805088283348777,0.00567226717248559,0.00567226717248559,0.0,0.05931203439831734,0.18916857242584229,0.11377158761024475,0.5251377820968628,0.18044161796569824,0.11285964399576187,0.43738681077957153,0.9406,,
100,40,1990,-31.741671396014386,0.004120564088225365,0.004120564088225365,0.0,0.033650048077106476,0.18993186950683594,0.10165271162986755,0.6548975110054016,0.19088618457317352,0.1012173518538475,0.47801801562309265,0.9403,,
101,40,2000,-40.59658398071099,0.0036244119983166456,0.0036244119983166456,0.0,0.045024286955595016,0.21671226620674133,0.08934418857097626,0.5466485023498535,0.2114877849817276,0.0935082733631134,0.46689316630363464,0.94,,
102,41,2010,-9.202341560123028,0.004705858416855335,0.004705858416855335,0.0,0.040151648223400116,0.21811765432357788,0.10978463292121887,0.5429489016532898,0.21587994694709778,0.10722900927066803,0.46750858426094055,0.9397,,
103,41,2020,-19.54466358660712,0.0035826980601996183,0.0035826980601996183,0.0,0.04279892146587372,0.19300788640975952,0.0967157706618309,0.5917137861251831,0.20414364337921143,0.09889136999845505,0.5115737318992615,0.9394,,
104,41,2030,-28.088623339385688,0.0031279472168534994,0.0031279472168534994,0.0,0.03632347658276558,0.21388305723667145,0.1246785894036293,0.5901709794998169,0.21316847205162048,0.11117886751890182,0.5412548780441284,0.9391,,
105,41,2040,-36.14775771776915,0.002882498549297452,0.002882498549297452,0.0,0.03684934601187706,0.2084309607744217,0.11274363845586777,0.642978847026825,0.21461650729179382,0.11222214996814728,0.5428998470306396,0.9388,,
106,41,2050,-46.84215701548118,0.004194892942905426,0.004194892942905426,0.0,0.04587937891483307,0.1995607316493988,0.11692629754543304,0.915145993232727,0.2092839777469635,0.09362403303384781,0.5370221138000488,0.9385,,
107,42,2060,-12.60613977785739,0.0029434545431286097,0.0029434545431286097,0.0,0.03432807698845863,0.20585106313228607,0.10368197411298752,0.6352428793907166,0.21134603023529053,0.10706008225679398,0.49005600810050964,0.9382,,
108,42,2070,-25.249768443962765,0.002996790921315551,0.002996790921315551,0.0,0.04408550262451172,0.20302709937095642,0.10015950351953506,0.5233139395713806,0.21788498759269714,0.10552652180194855,0.509751558303833,0.9379,,
109,42,2080,-37.34841214330347,0.003033808898180723,0.003033808898180723,0.0,0.03729599341750145,0.19889231026172638,0.09794881939888,0.5298836827278137,0.20140570402145386,0.10067789256572723,0.5129067897796631,0.9376,,
110,42,2090,-51.38909191083366,0.002579243155196309,0.002579243155196309,0.0,0.040641527622938156,0.20466646552085876,0.09912702441215515,0.525664210319519,0.21914593875408173,0.09268485009670258,0.4262516498565674,0.9373,,
111,42,2100,-65.4924120766001,0.003473463002592325,0.003473463002592325,0.0,0.04152178019285202,0.19951453804969788,0.09826000034809113,0.42039790749549866,0.20043820142745972,0.09891478717327118,0.5471156239509583,0.9369999999999999,,
112,43,2110,-12.078322768358511,0.002517198445275426,0.002517198445275426,0.0,0.03570396453142166,0.19551241397857666,0.10552068799734116,0.5294790267944336,0.2120582014322281,0.10171390324831009,0.5125679969787598,0.9367,,
113,43,2120,-25.829963476520344,0.004790375474840403,0.004790375474840403,0.0,0.04579612612724304,0.19430306553840637,0.09738986194133759,0.4922759532928467,0.19303904473781586,0.10443265736103058,0.47274014353752136,0.9364,,
114,43,2130,-39.898087175303424,0.0028101832140237093,0.0028101832140237093,0.0,0.03052397631108761,0.21283861994743347,0.09419529885053635,0.5794829726219177,0.21961776912212372,0.09714555740356445,0.4875592887401581,0.9361,,
115,43,2140,-52.9997408355653,0.004081748425960541,0.004081748425960541,0.0,0.04733143374323845,0.2098693698644638,0.10453774034976959,0.5107505321502686,0.20906545221805573,0.11842886358499527,0.5616570711135864,0.9358,,
116,43,2150,-67.87564240348682,0.004195380490273237,0.004195380490273237,0.0,0.04273098334670067,0.19532844424247742,0.10906160622835159,0.5429138541221619,0.20921799540519714,0.10194727033376694,0.44455674290657043,0.9355,,
117,44,2160,-4.503219208652429,0.0036330095026642084,0.0036330095026642084,0.0,0.03886328265070915,0.20880945026874542,0.10415338724851608,0.5224866271018982,0.21712692081928253,0.10509775578975677,0.5847079753875732,0.9352,,
118,44,2170,-8.899864575041986,0.004904652945697308,0.004904652945697308,0.0,0.05251853168010712,0.20742598176002502,0.09979502856731415,0.5701483488082886,0.21127581596374512,0.10447053611278534,0.4307268559932709,0.9349,,
119,44,2180,-16.69370833930922,0.004590626806020737,0.004590626806020737,0.0,0.04252749681472778,0.1883201003074646,0.09588595479726791,0.48229673504829407,0.2003859430551529,0.09804945439100266,0.4314873218536377,0.9346,,
120,44,2190,-24.093707268686288,0.0030427284073084593,0.0030427284073084593,0.0,0.03705984726548195,0.2142442762851715,0.10619449615478516,0.4984176754951477,0.21728874742984772,0.10328333079814911,0.5436081886291504,0.9343,,
121,44,2200,-32.089461412472346,0.0031090574339032173,0.0031090574339032173,0.0,0.037823669612407684,0.2003016322851181,0.1105133667588234,0.48023292422294617,0.20315781235694885,0.11279567331075668,0.5280265808105469,0.9339999999999999,,
122,45,2210,-14.527445364220913,0.0038633213844150305,0.0038633213844150305,0.0,0.037417422980070114,0.2146015465259552,0.10732802003622055,0.568554162979126,0.21706242859363556,0.10498267412185669,0.5453840494155884,0.9337,,
123,45,2220,-35.03525612050555,0.0025513155851513147,0.0025513155851513147,0.0,0.03597322851419449,0.19749709963798523,0.09192977845668793,0.4972538352012634,0.2001219093799591,0.09517543762922287,0.5614655017852783,0.9334,,
124,45,2230,-55.08840388106912,0.005618540570139885,0.005618540570139885,0.0,0.05392882972955704,0.20515136420726776,0.100824736058712,0.4938552975654602,0.20911581814289093,0.11901387572288513,0.5103328227996826,0.9331,,
125,45,2240,-71.53341063366408,0.0029847724363207817,0.0029847724363207817,0.0,0.03755343332886696,0.19850663840770721,0.11293201893568039,0.48867449164390564,0.20099715888500214,0.1015077754855156,0.4472932517528534,0.9328,,
126,45,2250,-83.31861954226838,0.002800909336656332,0.002800909336656332,0.0,0.03475352004170418,0.2125130444765091,0.10874825716018677,0.4931122362613678,0.21840009093284607,0.10737498849630356,0.5251675844192505,0.9325,,
127,46,2260,-9.767842117259937,0.002647163812071085,0.002647163812071085,0.0,0.03381737694144249,0.19237999618053436,0.10699769109487534,0.5415772199630737,0.20385663211345673,0.10052099823951721,0.43492355942726135,0.9322,,
128,46,2270,-23.107038330531687,0.002298351377248764,0.002298351377248764,0.0,0.026468683034181595,0.22413372993469238,0.11039411276578903,0.5427712798118591,0.2251899242401123,0.10047337412834167,0.5272789001464844,0.9319,,
129,46,2280,-34.82818123416608,0.003752155927941203,0.003752155927941203,0.0,0.049915507435798645,0.21215803921222687,0.10110373795032501,0.527130126953125,0.22619014978408813,0.0938987135887146,0.5676945447921753,0.9316,,
130,46,2290,-48.04179613747515,0.0018432150827720761,0.0018432150827720761,0.0,0.026597751304507256,0.20330704748630524,0.09821786731481552,0.4539151191711426,0.20484329760074615,0.09894675016403198,0.4490102231502533,0.9313,,
131,46,2300,-66.03341327578642,0.002617018762975931,0.002617018762975931,0.0,0.03775160759687424,0.21107704937458038,0.10788791626691818,0.472214013338089,0.20984062552452087,0.10171758383512497,0.41535651683807373,0.931,,
132,47,2310,-12.021827263978896,0.0036301985383033752,0.0036301985383033752,0.0,0.04409457743167877,0.20269334316253662,0.11164707690477371,0.8506349325180054,0.20035995543003082,0.1092383861541748,0.5666040778160095,0.9307,,
133,47,2320,-20.504907630062224,0.003788032801821828,0.003788032801821828,0.0,0.05081340670585632,0.21373778581619263,0.1025409922003746,0.5994170308113098,0.20893967151641846,0.08813514560461044,0.41253504157066345,0.9304,,
134,47,2330,-27.77525186539022,0.002150159329175949,0.002150159329175949,0.0,0.030176691710948944,0.22745496034622192,0.10963920503854752,0.5413331985473633,0.22768616676330566,0.09710004925727844,0.5259922742843628,0.9301,,
135,47,2340,-37.19706928239107,0.004644227214157581,0.004644227214157581,0.0,0.05074584484100342,0.2053079903125763,0.11673495918512344,0.5959964990615845,0.21164648234844208,0.10585445165634155,0.5266759395599365,0.9298,,
136,47,2350,-48.64921860327632,0.0034182826057076454,0.0034182826057076454,0.0,0.03894010931253433,0.19295290112495422,0.0945378988981247,0.5207449197769165,0.20331166684627533,0.09633687138557434,0.43310603499412537,0.9295,,
137,48,2360,-9.761516560862418,0.0035583015996962786,0.0035583015996962786,0.0,0.0363791398704052,0.22208915650844574,0.10308155417442322,0.5693413615226746,0.2225155383348465,0.10774490237236023,0.5279039144515991,0.9292,,
138,48,2370,-22.86481361511233,0.0030835922807455063,0.0030835922807455063,0.0,0.037566445767879486,0.20102858543395996,0.1116117313504219,0.5493045449256897,0.21165257692337036,0.11253324896097183,0.5637313723564148,0.9289000000000001,,
139,48,2380,-41.46726227321048,0.0030884433072060347,0.0030884433072060347,0.0,0.043980274349451065,0.20314501225948334,0.10625877231359482,0.8263906240463257,0.21323326230049133,0.09729573130607605,0.5728678107261658,0.9286,,
140,48,2390,-62.08160454806534,0.0032909465953707695,0.0032909465953707695,0.0,0.04537452384829521,0.21923407912254333,0.1041332557797432,0.4726206362247467,0.22872740030288696,0.0984356701374054,0.4849260151386261,0.9283,,
141,48,2400,-81.52894308513483,0.0024379994720220566,0.0024379994720220566,0.0,0.03843860700726509,0.2186100333929062,0.11270014941692352,0.8172122240066528,0.2107493132352829,0.10533293336629868,0.5744796395301819,0.9279999999999999,,
142,49,2410,-12.41441868188077,0.0032265346962958574,0.0032265346962958574,0.0,0.039346881210803986,0.20245854556560516,0.10275174677371979,0.5432599186897278,0.2023927867412567,0.1023983508348465,0.46008557081222534,0.9277,,
143,49,2420,-27.817009584290883,0.005117140710353851,0.005117140710353851,0.0,0.06211603060364723,0.21790774166584015,0.11660799384117126,0.5655485391616821,0.21618957817554474,0.11189406365156174,0.4848305881023407,0.9274,,
144,49,2430,-45.004534589596275,0.0028385815676301718,0.0028385815676301718,0.0,0.03667297586798668,0.22369271516799927,0.11205483973026276,0.7948662638664246,0.22120217978954315,0.10376764833927155,0.5766414999961853,0.9271,,
145,49,2440,-63.57760048794392,0.002856261096894741,0.002856261096894741,0.0,0.053172580897808075,0.20544946193695068,0.09320158511400223,0.45866522192955017,0.22489556670188904,0.10701432824134827,0.5263848900794983,0.9268,,
146,49,2450,-84.67342109846923,0.002408884931355715,0.002408884931355715,0.0,0.03230444714426994,0.19714540243148804,0.102982297539711,0.465084433555603,0.20801357924938202,0.10065339505672455,0.4715769290924072,0.9265,,
147,50,2460,-13.064278019339799,0.0026803803630173206,0.0026803803630173206,0.0,0.03345716744661331,0.20560836791992188,0.0929127112030983,0.47022682428359985,0.21134550869464874,0.09498894214630127,0.4796260595321655,0.9262,,
148,50,2470,-23.217632796158064,0.0024680064525455236,0.0024680064525455236,0.0,0.03342529386281967,0.22109141945838928,0.10060558468103409,0.5113201141357422,0.21923314034938812,0.10155590623617172,0.5063076615333557,0.9259,,
149,50,2480,-33.715857988101895,0.003081736620515585,0.003081736620515585,0.0,0.03649308159947395,0.20833507180213928,0.10981635749340057,0.49210497736930847,0.21451255679130554,0.1179111897945404,0.5736876726150513,0.9256,,
150,50,2490,-41.85521789266619,0.001992736244574189,0.001992736244574189,0.0,0.0353887639939785,0.2058919370174408,0.09974107891321182,0.5138359665870667,0.22055773437023163,0.09204604476690292,0.5416838526725769,0.9253,,
151,50,2500,-53.711148059401864,0.003422336420044303,0.003422336420044303,0.0,0.04955063387751579,0.21430593729019165,0.10250958800315857,0.5271822214126587,0.21804440021514893,0.10907868295907974,0.4756656289100647,0.925,-94.99681341970236,-94.99681341970236
152,51,2510,-7.4721937948425765,0.003940118942409754,0.003940118942409754,0.0,0.047481510788202286,0.20792831480503082,0.09777370095252991,0.5172790884971619,0.2142471969127655,0.09980016946792603,0.4073750972747803,0.9247,,
153,51,2520,-17.17692748114208,0.0021606695372611284,0.0021606695372611284,0.0,0.03358866274356842,0.20486661791801453,0.10141590982675552,0.5767090320587158,0.2106693983078003,0.10628467053174973,0.5765971541404724,0.9244,,
154,51,2530,-29.746222049909168,0.002870053518563509,0.002870053518563509,0.0,0.04223337769508362,0.21064843237400055,0.09712330996990204,0.49551668763160706,0.2120736539363861,0.10267570614814758,0.4805622696876526,0.9241,,
155,51,2540,-43.7114043658089,0.0029501235112547874,0.0029501235112547874,0.0,0.03277037665247917,0.19668665528297424,0.09353956580162048,0.4078202247619629,0.20539747178554535,0.10325255990028381,0.4436972737312317,0.9238,,
156,51,2550,-61.61994000611461,0.0037242108955979347,0.0037242108955979347,0.0,0.051870085299015045,0.1927158683538437,0.09421492367982864,0.4068060517311096,0.19316625595092773,0.10428828001022339,0.4229326844215393,0.9235,,
157,52,2560,-17.761461439590253,0.0031565132085233927,0.0031565132085233927,0.0,0.03820810839533806,0.21387816965579987,0.08553080260753632,0.4586780071258545,0.20587444305419922,0.0948057770729065,0.39704206585884094,0.9232,,
158,52,2570,-41.4903872611356,0.0020487287547439337,0.0020487287547439337,0.0,0.0269307978451252,0.21669793128967285,0.10687766224145889,0.5155715942382812,0.22033965587615967,0.10141546279191971,0.5547186732292175,0.9229,,
159,52,2580,-60.990571503244475,0.0022265815641731024,0.0022265815641731024,0.0,0.03010419011116028,0.20956255495548248,0.09608858823776245,0.51780104637146,0.21378710865974426,0.10795973986387253,0.6047559976577759,0.9226,,
160,52,2590,-77.57354205485524,0.002745242789387703,0.002745242789387703,0.0,0.02996612712740898,0.21362249553203583,0.10604822635650635,0.5251663327217102,0.21527820825576782,0.11070514470338821,0.6260983347892761,0.9223,,
161,52,2600,-91.40025255698652,0.0029106128495186567,0.0029106128495186567,0.0,0.03971025347709656,0.21324798464775085,0.10339982807636261,0.5290195345878601,0.2127363234758377,0.11483582109212875,0.6060880422592163,0.922,,
162,53,2610,-16.6962636049611,0.0029982877895236015,0.0029982877895236015,0.0,0.04436351731419563,0.20990796387195587,0.09786991775035858,0.5537484288215637,0.2149721384048462,0.10542017221450806,0.5838229060173035,0.9217,,
163,53,2620,-34.078359991282596,0.003317495808005333,0.003317495808005333,0.0,0.041982755064964294,0.22306326031684875,0.10805507749319077,0.5494648814201355,0.2208278477191925,0.09740994870662689,0.5216931104660034,0.9214,,
164,53,2630,-55.79318261901694,0.002626309171319008,0.002626309171319008,0.0,0.0432397834956646,0.21616044640541077,0.09817007929086685,0.43749940395355225,0.21419036388397217,0.09535548835992813,0.4712430238723755,0.9211,,
165,53,2640,-76.29742142744468,0.0028431208338588476,0.0028431208338588476,0.0,0.04371305927634239,0.21099576354026794,0.08429256081581116,0.5251576900482178,0.2099631428718567,0.09672725200653076,0.4504038095474243,0.9208000000000001,,
166,53,2650,-90.56964484018565,0.003916103392839432,0.003916103392839432,0.0,0.0522540844976902,0.22286394238471985,0.10071051865816116,0.4908767640590668,0.21668842434883118,0.10753559321165085,0.5383021831512451,0.9205,,
167,54,2660,-7.40827094870239,0.002634241245687008,0.002634241245687008,0.0,0.03594518452882767,0.2107352912425995,0.10254873335361481,0.5088915824890137,0.2097828984260559,0.10521076619625092,0.5864031910896301,0.9202,,
168,54,2670,-15.728217685018796,0.0024466451723128557,0.0024466451723128557,0.0,0.02694093994796276,0.2070935070514679,0.08685395866632462,0.4587405323982239,0.2130119949579239,0.0930505096912384,0.468127965927124,0.9198999999999999,,
169,54,2680,-22.530106656816127,0.002154237125068903,0.002154237125068903,0.0,0.026851726695895195,0.2062893807888031,0.11025994271039963,0.7483381032943726,0.2113294154405594,0.11257626116275787,0.5897907614707947,0.9196,,
170,54,2690,-30.859818329448142,0.0036898083053529263,0.0036898083053529263,0.0,0.049736831337213516,0.20869480073451996,0.08522723615169525,0.3932505249977112,0.19973209500312805,0.10362499952316284,0.42495468258857727,0.9193,,
171,54,2700,-43.40917304972958,0.002430885098874569,0.002430885098874569,0.0,0.03329699486494064,0.20884191989898682,0.09239429235458374,0.5062691569328308,0.22224558889865875,0.09292596578598022,0.4482812285423279,0.919,,
172,55,2710,-10.019191502479615,0.0018950870726257563,0.0018950870726257563,0.0,0.03155896067619324,0.2054625153541565,0.10316152125597,0.5124754309654236,0.21484141051769257,0.10582146048545837,0.6324738264083862,0.9187,,
173,55,2720,-24.5528559130455,0.0032252527307718992,0.0032252527307718992,0.0,0.042374733835458755,0.20196112990379333,0.09860462695360184,0.49150925874710083,0.20144012570381165,0.11116636544466019,0.4582613706588745,0.9184,,
174,55,2730,-38.629375201516815,0.0036057804245501757,0.0036057804245501757,0.0,0.048726972192525864,0.20898115634918213,0.09791029989719391,0.465706467628479,0.21500656008720398,0.10660970211029053,0.47608184814453125,0.9181,,
175,55,2740,-52.62513231086241,0.001931454986333847,0.001931454986333847,0.0,0.032935768365859985,0.2111847996711731,0.10942209511995316,0.495499849319458,0.210163876414299,0.10445871204137802,0.5558896064758301,0.9178,,
176,55,2750,-70.15857580453788,0.002917012432590127,0.002917012432590127,0.0,0.03523124381899834,0.20733001828193665,0.09662656486034393,0.5502771139144897,0.2124301642179489,0.11391930282115936,0.634164035320282,0.9175,,
177,56,2760,-8.720691256901434,0.0027912375517189503,0.0027912375517189503,0.0,0.037937093526124954,0.20005972683429718,0.08902820944786072,0.4872206747531891,0.21821340918540955,0.09474216401576996,0.49386030435562134,0.9172,,
178,56,2770,-18.20467008683672,0.0027543576434254646,0.0027543576434254646,0.0,0.03310045599937439,0.1956091821193695,0.09842074662446976,0.529212474822998,0.20163820683956146,0.10374709218740463,0.46713685989379883,0.9169,,
179,56,2780,-26.39876537432215,0.002557861153036356,0.002557861153036356,0.0,0.037810709327459335,0.20081669092178345,0.09096166491508484,0.46162235736846924,0.19462496042251587,0.0987260565161705,0.4593236744403839,0.9166,,
180,56,2790,-33.288660792235525,0.005256657488644123,0.005256657488644123,0.0,0.04792391508817673,0.203923761844635,0.09501896798610687,0.46637165546417236,0.20316074788570404,0.11786561459302902,0.6359928846359253,0.9163,,
181,56,2800,-42.00030674104493,0.0029758529271930456,0.0029758529271930456,0.0,0.03900274261832237,0.21067683398723602,0.11016525328159332,0.5252336263656616,0.2110171616077423,0.11252439767122269,0.5938750505447388,0.916,,
182,57,2810,-8.330004000973158,0.004600232467055321,0.004600232467055321,0.0,0.060382239520549774,0.20105645060539246,0.10745497792959213,0.5505172610282898,0.20235075056552887,0.1228843480348587,0.5626593232154846,0.9157,,
183,57,2820,-17.883537690927906,0.0024905807804316282,0.0024905807804316282,0.0,0.036202311515808105,0.20846325159072876,0.09965169429779053,0.5495071411132812,0.21702004969120026,0.1111443042755127,0.5178669095039368,0.9154,,
184,57,2830,-29.783624024893385,0.002449594670906663,0.002449594670906663,0.0,0.03594786301255226,0.218172088265419,0.09203217178583145,0.48105400800704956,0.2268388867378235,0.10617466270923615,0.4896268844604492,0.9151,,
185,57,2840,-39.62014663591031,0.0037098266184329987,0.0037098266184329987,0.0,0.046326685696840286,0.20934011042118073,0.09845047444105148,0.48910897970199585,0.2185940444469452,0.12253520637750626,0.6189818382263184,0.9148000000000001,,
186,57,2850,-47.12724238171166,0.0020436695776879787,0.0020436695776879787,0.0,0.02995568886399269,0.21650630235671997,0.09013371169567108,0.47617456316947937,0.22046783566474915,0.1007775366306305,0.4889686107635498,0.9145,,
187,58,2860,-13.354684007600714,0.00450873700901866,0.00450873700901866,0.0,0.04050784930586815,0.2024635523557663,0.09806272387504578,0.5007091164588928,0.2112547904253006,0.11399703472852707,0.6107948422431946,0.9142,,
188,58,2870,-22.91110279485494,0.002615378936752677,0.002615378936752677,0.0,0.049522385001182556,0.21217504143714905,0.09642435610294342,0.5200235843658447,0.2343471646308899,0.10748439282178879,0.5464698076248169,0.9139,,
189,58,2880,-27.121450251723218,0.002988432999700308,0.002988432999700308,0.0,0.03851728513836861,0.1941748857498169,0.09351480007171631,0.4944444000720978,0.19779598712921143,0.10879189521074295,0.4856727719306946,0.9136,,
190,58,2890,-33.41143923865977,0.002295911777764559,0.002295911777764559,0.0,0.04156310856342316,0.2061130851507187,0.09706388413906097,0.555770993232727,0.22553019225597382,0.11493313312530518,0.5979855060577393,0.9133,,
191,58,2900,-39.69445334978736,0.002129015512764454,0.002129015512764454,0.0,0.03066078945994377,0.23154324293136597,0.10072069615125656,0.528985857963562,0.23843370378017426,0.10738722234964371,0.598414957523346,0.913,,
192,59,2910,-11.265050539855173,0.002356891753152013,0.002356891753152013,0.0,0.030921149998903275,0.21830704808235168,0.0967199057340622,0.5277722477912903,0.22152584791183472,0.10362604260444641,0.49956607818603516,0.9127,,
193,59,2920,-25.379418059908712,0.00393079686909914,0.00393079686909914,0.0,0.046151839196681976,0.20745497941970825,0.09670227020978928,0.6074447631835938,0.20522882044315338,0.11613885313272476,0.5647637844085693,0.9124,,
194,59,2930,-37.62411132659694,0.001862863777205348,0.001862863777205348,0.0,0.026492832228541374,0.2064521610736847,0.1042422279715538,0.557387113571167,0.21119755506515503,0.10487683862447739,0.5163931250572205,0.9121,,
195,59,2940,-50.40006761946716,0.0034571869764477015,0.0034571869764477015,0.0,0.04974021390080452,0.21689260005950928,0.09628479927778244,0.48059818148612976,0.21294155716896057,0.10593681037425995,0.420342355966568,0.9117999999999999,,
196,59,2950,-66.34686118770207,0.002687144326046109,0.002687144326046109,0.0,0.027597960084676743,0.2108924686908722,0.10050119459629059,0.6146696209907532,0.21267350018024445,0.11604820191860199,0.566497802734375,0.9115,,
197,60,2960,-8.780719306799309,0.0027735044714063406,0.0027735044714063406,0.0,0.031564272940158844,0.21165309846401215,0.10176587104797363,0.5363850593566895,0.2119768261909485,0.11147740483283997,0.6014965772628784,0.9112,,
198,60,2970,-15.396657244349944,0.0035881572403013706,0.0035881572403013706,0.0,0.03828750550746918,0.21132037043571472,0.10251490026712418,0.617708683013916,0.20996268093585968,0.10652823746204376,0.5676822066307068,0.9109,,
199,60,2980,-25.36400930617155,0.002064043190330267,0.002064043190330267,0.0,0.028412412852048874,0.19490504264831543,0.09792694449424744,0.4723203182220459,0.19848571717739105,0.096460722386837,0.3954962193965912,0.9106,,
200,60,2990,-37.49449078637558,0.0031028524972498417,0.0031028524972498417,0.0,0.05049638822674751,0.20464704930782318,0.09370815008878708,0.4844926595687866,0.2113359570503235,0.10913237929344177,0.4801202714443207,0.9103,,
201,60,3000,-52.37517379067657,0.0024300897493958473,0.0024300897493958473,0.0,0.039845097810029984,0.22070729732513428,0.1032700315117836,0.5083686113357544,0.2328210175037384,0.10723917186260223,0.4798583388328552,0.91,,
202,61,3010,-5.54489803587873,0.003030463121831417,0.003030463121831417,0.0,0.031811293214559555,0.19615577161312103,0.09458611905574799,0.5043343901634216,0.19929443299770355,0.10995307564735413,0.6129786372184753,0.9097,,
203,61,3020,-13.153921856252245,0.0036809085868299007,0.0036809085868299007,0.0,0.05352610722184181,0.22214867174625397,0.10306194424629211,0.5178124904632568,0.21535223722457886,0.12513281404972076,0.6186884641647339,0.9094,,
204,61,3030,-23.449164264117044,0.003425249829888344,0.003425249829888344,0.0,0.043306078761816025,0.20522141456604004,0.08503460139036179,0.4530433118343353,0.20640957355499268,0.1109757199883461,0.49136900901794434,0.9091,,
205,61,3040,-37.96887401640101,0.0029501731041818857,0.0029501731041818857,0.0,0.034851137548685074,0.21976155042648315,0.1059187799692154,0.7623311281204224,0.2239147573709488,0.11475485563278198,0.6010703444480896,0.9088,,
206,61,3050,-57.630214773508015,0.0031089852564036846,0.0031089852564036846,0.0,0.04244532436132431,0.20381978154182434,0.09551649540662766,0.5265372395515442,0.21853545308113098,0.1087273582816124,0.6236492395401001,0.9085,,
207,62,3060,-7.4958767935921635,0.0019468067912384868,0.0019468067912384868,0.0,0.030458800494670868,0.21906176209449768,0.1055566594004631,0.494388610124588,0.22658590972423553,0.10229353606700897,0.611099123954773,0.9082,,
208,62,3070,-20.225241975210285,0.002979342360049486,0.002979342360049486,0.0,0.05197286233305931,0.22625726461410522,0.10491427034139633,0.5515227913856506,0.23748475313186646,0.12637414038181305,0.5735483765602112,0.9079,,
209,62,3080,-32.16260058654705,0.002976507879793644,0.002976507879793644,0.0,0.0417817123234272,0.22343860566616058,0.09762925654649734,0.5611518025398254,0.2405286729335785,0.10631611943244934,0.6087917685508728,0.9076,,
210,62,3090,-40.084472111109854,0.002139634918421507,0.002139634918421507,0.0,0.03314661979675293,0.20772714912891388,0.09310336410999298,0.50142502784729,0.21290841698646545,0.10506994277238846,0.5981387495994568,0.9073,,
211,62,3100,-47.58920762672562,0.005812815390527248,0.005812815390527248,0.0,0.08993824571371078,0.21533918380737305,0.09683019667863846,0.510430097579956,0.19684451818466187,0.11035776138305664,0.531017005443573,0.907,,
212,63,3110,-10.118255597130261,0.0010933388257399201,0.0010933388257399201,0.0,0.02137507125735283,0.22467292845249176,0.09449101984500885,0.5609598159790039,0.22112545371055603,0.09263642132282257,0.49482715129852295,0.9067,,
213,63,3120,-19.557640148824355,0.0014550172490999103,0.0014550172490999103,0.0,0.026120608672499657,0.2033810019493103,0.08567576855421066,0.44603487849235535,0.20396532118320465,0.08955210447311401,0.4764159321784973,0.9064,,
214,63,3130,-30.548271915214784,0.003483026986941695,0.003483026986941695,0.0,0.04623575136065483,0.21702443063259125,0.10272489488124847,0.4756161868572235,0.2183995395898819,0.11137168854475021,0.47622859477996826,0.9061,,
215,63,3140,-40.61752336914999,0.002455968875437975,0.002455968875437975,0.0,0.0370505265891552,0.2244238555431366,0.10332689434289932,0.5129276514053345,0.21612957119941711,0.12445715069770813,0.6349865198135376,0.9057999999999999,,
216,63,3150,-50.650593585956116,0.0025605582632124424,0.0025605582632124424,0.0,0.0323665477335453,0.20985892415046692,0.09797010570764542,0.5402057766914368,0.20583446323871613,0.1112338975071907,0.6105753779411316,0.9055,,
217,64,3160,-8.510411666618376,0.0024454197846353054,0.0024454197846353054,0.0,0.031067565083503723,0.1957070231437683,0.09773621708154678,0.5500253438949585,0.20480714738368988,0.11280953884124756,0.6140470504760742,0.9052,,
218,64,3170,-15.443847414531767,0.0021082607563585043,0.0021082607563585043,0.0,0.03234338015317917,0.2279699444770813,0.11024913191795349,0.7611343860626221,0.21921205520629883,0.11250407248735428,0.6060958504676819,0.9049,,
219,64,3180,-20.50584278307072,0.002351823030039668,0.002351823030039668,0.0,0.03348519280552864,0.20649710297584534,0.10305814445018768,0.5004032254219055,0.21456538140773773,0.1071380153298378,0.6225485801696777,0.9046,,
220,64,3190,-31.210160064747942,0.0017779665067791939,0.0017779665067791939,0.0,0.02595481276512146,0.2036919891834259,0.09973771870136261,0.47079992294311523,0.2035055160522461,0.09989460557699203,0.5926524996757507,0.9043,,
221,64,3200,-41.19994090561688,0.002666555577889085,0.002666555577889085,0.0,0.03463958576321602,0.21610431373119354,0.09531178325414658,0.5558291673660278,0.22220084071159363,0.1149076297879219,0.590455949306488,0.904,,
222,65,3210,-5.029086959439416,0.002950999652966857,0.002950999652966857,0.0,0.038071222603321075,0.19899828732013702,0.09251905977725983,0.42872726917266846,0.19570259749889374,0.10144608467817307,0.4976796507835388,0.9037,,
223,65,3220,-13.848313432230102,0.0028611868619918823,0.0028611868619918823,0.0,0.042146794497966766,0.20302250981330872,0.08684857189655304,0.42492616176605225,0.21269260346889496,0.09853717684745789,0.4836096167564392,0.9034,,
224,65,3230,-24.68341584486128,0.004543183837085962,0.004543183837085962,0.0,0.045777030289173126,0.2113255113363266,0.1046646237373352,0.45493465662002563,0.2169208526611328,0.12720102071762085,0.6144618391990662,0.9031,,
225,65,3240,-36.182613124529354,0.001501958817243576,0.001501958817243576,0.0,0.02952468767762184,0.21241387724876404,0.09462225437164307,0.4524654746055603,0.21773000061511993,0.10738838464021683,0.5158991813659668,0.9028,,
226,65,3250,-48.68200229997036,0.002985356841236353,0.002985356841236353,0.0,0.03131501004099846,0.1973288655281067,0.08899452537298203,0.4596647620201111,0.19987544417381287,0.10515351593494415,0.5101274847984314,0.9025,,
227,66,3260,-13.939430544903463,0.0026623010635375977,0.0026623010635375977,0.0,0.0377570278942585,0.2011602222919464,0.09107373654842377,0.5197685360908508,0.21052870154380798,0.10094816237688065,0.6105316877365112,0.9022,,
228,66,3270,-24.884413332649153,0.0018805342260748148,0.0018805342260748148,0.0,0.03009805455803871,0.21342113614082336,0.10235545039176941,0.5288347601890564,0.22249586880207062,0.10126796364784241,0.5094397068023682,0.9019,,
229,66,3280,-35.78955088123826,0.002314597135409713,0.002314597135409713,0.0,0.035634152591228485,0.19725845754146576,0.08552245050668716,0.4610298275947571,0.200521782040596,0.09504979103803635,0.5195215344429016,0.9016,,
230,66,3290,-45.90241811799011,0.0024274447932839394,0.0024274447932839394,0.0,0.03323434665799141,0.21367843449115753,0.10064689815044403,0.528672993183136,0.21359208226203918,0.11396783590316772,0.613365650177002,0.9013,,
231,66,3300,-55.68278419777239,0.0020304773934185505,0.0020304773934185505,0.0,0.037942662835121155,0.19765061140060425,0.09542147815227509,0.5287960171699524,0.19962933659553528,0.11113729327917099,0.616101861000061,0.901,,
232,67,3310,-10.316073895579498,0.002767718629911542,0.002767718629911542,0.0,0.04765670746564865,0.20221301913261414,0.10237859189510345,0.4890339970588684,0.20331242680549622,0.11245673894882202,0.6609557867050171,0.9007,,
233,67,3320,-19.35266630506219,0.0015772806946188211,0.0015772806946188211,0.0,0.03003784455358982,0.201255202293396,0.08711562305688858,0.4734700322151184,0.21040882170200348,0.10047030448913574,0.48782017827033997,0.9004,,
234,67,3330,-29.71162108086994,0.003285839222371578,0.003285839222371578,0.0,0.0367877297103405,0.2074653059244156,0.09600918740034103,0.5582925081253052,0.21348945796489716,0.12070589512586594,0.6617092490196228,0.9001,,
235,67,3340,-42.89532979789982,0.0026764599606394768,0.0026764599606394768,0.0,0.03529379516839981,0.21087639033794403,0.09880746155977249,0.4750393331050873,0.19981573522090912,0.11324908584356308,0.6111206412315369,0.8997999999999999,,
236,67,3350,-57.806248419979546,0.002413311507552862,0.002413311507552862,0.0,0.03943038731813431,0.21761953830718994,0.10826123505830765,0.576445996761322,0.2131335735321045,0.11739130318164825,0.5899445414543152,0.8995,,
237,68,3360,-7.074258048035944,0.0028447341173887253,0.0028447341173887253,0.0,0.040601033717393875,0.22092150151729584,0.1025317832827568,0.5715267062187195,0.21261128783226013,0.10412751138210297,0.48751503229141235,0.8992,,
238,68,3370,-14.970960303161348,0.0021157474257051945,0.0021157474257051945,0.0,0.031325846910476685,0.2110164314508438,0.09780430793762207,0.5360547304153442,0.22012042999267578,0.10951359570026398,0.6098455190658569,0.8989,,
239,68,3380,-23.12006260048167,0.0027153724804520607,0.0027153724804520607,0.0,0.03661978989839554,0.21243758499622345,0.09339046478271484,0.4714672267436981,0.20515106618404388,0.11293197423219681,0.5029329061508179,0.8986,,
240,68,3390,-33.60386295628753,0.0024806021247059107,0.0024806021247059107,0.0,0.036232151091098785,0.2141321897506714,0.11017467826604843,0.470253050327301,0.22724023461341858,0.10982707887887955,0.6185697913169861,0.8983,,
241,68,3400,-48.59615594811915,0.002470227889716625,0.002470227889716625,0.0,0.0355990044772625,0.20822890102863312,0.09775932878255844,0.5338934063911438,0.1981259435415268,0.11347832530736923,0.646399736404419,0.898,,
242,69,3410,-13.238471960052888,0.001305367797613144,0.001305367797613144,0.0,0.021974217146635056,0.21708619594573975,0.09183516353368759,0.48561954498291016,0.21806736290454865,0.09450977295637131,0.4957183301448822,0.8976999999999999,,
243,69,3420,-24.584568949016777,0.0030192735139280558,0.0030192735139280558,0.0,0.03698419779539108,0.21201416850090027,0.10623209923505783,0.5339192748069763,0.211461141705513,0.11995460838079453,0.5757374167442322,0.8974,,
244,69,3430,-33.54625147762777,0.002773780608549714,0.002773780608549714,0.0,0.038405995815992355,0.2177828848361969,0.09634401649236679,0.5321477055549622,0.20847418904304504,0.11541205644607544,0.6658402681350708,0.8971,,
245,69,3440,-42.69289226114907,0.002070951508358121,0.002070951508358121,0.0,0.03434259071946144,0.20413285493850708,0.10933388024568558,0.582309365272522,0.2173164188861847,0.11450110375881195,0.6199150681495667,0.8968,,
246,69,3450,-52.62733050616541,0.0016753131058067083,0.0016753131058067083,0.0,0.027065858244895935,0.22345921397209167,0.1041727215051651,0.518464207649231,0.22450950741767883,0.11097519099712372,0.5062512159347534,0.8965,,
247,70,3460,-9.858785731185272,0.0035575239453464746,0.0035575239453464746,0.0,0.04085351154208183,0.21103794872760773,0.09860144555568695,0.5507073998451233,0.21192364394664764,0.1123119667172432,0.6078979969024658,0.8962,,
248,70,3470,-15.663662447174529,0.0030036151874810457,0.0030036151874810457,0.0,0.04252760112285614,0.21175482869148254,0.09711755812168121,0.5215681791305542,0.20666581392288208,0.11415980011224747,0.6283485293388367,0.8959,,
249,70,3480,-22.934874920119377,0.001823590719141066,0.001823590719141066,0.0,0.027811018750071526,0.20739951729774475,0.09325920045375824,0.4331192970275879,0.21376124024391174,0.09440972656011581,0.5853161811828613,0.8956,,
250,70,3490,-30.10017419060778,0.002826174721121788,0.002826174721121788,0.0,0.033252958208322525,0.21055783331394196,0.08858229964971542,0.5463433861732483,0.20464728772640228,0.11290701478719711,0.5126542448997498,0.8953,,
251,70,3500,-35.54366016949811,0.0012726904824376106,0.0012726904824376106,0.0,0.02275220863521099,0.2184329777956009,0.10565140098333359,0.49097150564193726,0.22005397081375122,0.10312364995479584,0.6137093305587769,0.895,,
252,71,3510,-12.76290107159148,0.0013913679867982864,0.0013913679867982864,0.0,0.029487496241927147,0.21404388546943665,0.1014246717095375,0.47968927025794983,0.22363398969173431,0.10399304330348969,0.5505749583244324,0.8947,,
253,71,3520,-24.580917811748506,0.0027277502231299877,0.0027277502231299877,0.0,0.04028607904911041,0.2043127566576004,0.10845591127872467,0.4911578297615051,0.21349939703941345,0.10881154984235764,0.5683082342147827,0.8944,,
254,71,3530,-33.77110559893293,0.0023455836344510317,0.0023455836344510317,0.0,0.030984198674559593,0.22426837682724,0.10570384562015533,0.5207250118255615,0.220674529671669,0.10965456813573837,0.503709614276886,0.8941,,
255,71,3540,-42.260922837814206,0.0010646134614944458,0.0010646134614944458,0.0,0.02503625676035881,0.20142652094364166,0.09075785428285599,0.5312622785568237,0.2140384018421173,0.09226467460393906,0.6315231919288635,0.8938,,
256,71,3550,-55.96175537988049,0.002066234825178981,0.002066234825178981,0.0,0.036427222192287445,0.2225904017686844,0.10240907222032547,0.5351722240447998,0.22386518120765686,0.10937753319740295,0.6239967346191406,0.8935,,
257,72,3560,-12.911859797248956,0.001892922562547028,0.001892922562547028,0.0,0.03336077556014061,0.22209015488624573,0.10710404068231583,0.5276941061019897,0.2294885814189911,0.1211131140589714,0.5986424684524536,0.8932,,
258,72,3570,-21.790829259854117,0.0023922438267618418,0.0023922438267618418,0.0,0.026882881298661232,0.2013888657093048,0.08763625472784042,0.5444135069847107,0.20198266208171844,0.098133385181427,0.450863778591156,0.8929,,
259,72,3580,-34.73679983185477,0.0019604861736297607,0.0019604861736297607,0.0,0.032211121171712875,0.216882586479187,0.10641972720623016,0.4829690456390381,0.2140447199344635,0.1153082475066185,0.5980429649353027,0.8926000000000001,,
260,72,3590,-53.43668165469307,0.002021619351580739,0.002021619351580739,0.0,0.03358243778347969,0.2194681316614151,0.10641251504421234,0.5319893956184387,0.2280125916004181,0.11210007220506668,0.5105037093162537,0.8923,,
261,72,3600,-74.98680347467239,0.003308316692709923,0.003308316692709923,0.0,0.05151183158159256,0.22247979044914246,0.1027984544634819,0.5383552312850952,0.21816569566726685,0.11967127025127411,0.5700358152389526,0.892,,
262,73,3610,-12.393738336891879,0.003886190243065357,0.003886190243065357,0.0,0.04900737851858139,0.22210699319839478,0.10002609342336655,0.4873826205730438,0.21384559571743011,0.10822812467813492,0.5889434814453125,0.8916999999999999,,
263,73,3620,-24.697592989709598,0.0015154696302488446,0.0015154696302488446,0.0,0.0234978124499321,0.22438746690750122,0.11134333908557892,0.5460538864135742,0.22078877687454224,0.12073136121034622,0.6550268530845642,0.8914,,
264,73,3630,-37.77944744934445,0.0020390739664435387,0.0020390739664435387,0.0,0.027858806774020195,0.21158353984355927,0.09409885108470917,0.5658103823661804,0.20859327912330627,0.11264381557703018,0.6022863984107971,0.8911,,
265,73,3640,-52.83123323813179,0.0019221826223656535,0.0019221826223656535,0.0,0.031165629625320435,0.2076978087425232,0.1092228814959526,0.5251051783561707,0.21188604831695557,0.11999909579753876,0.5965206027030945,0.8908,,
266,73,3650,-69.73389511853205,0.001420608488842845,0.001420608488842845,0.0,0.030027220025658607,0.19860537350177765,0.09381642192602158,0.4782518148422241,0.2077202945947647,0.09232230484485626,0.4578038454055786,0.8905,,
267,74,3660,-13.346810660870581,0.0021888096816837788,0.0021888096816837788,0.0,0.03702535107731819,0.2223236858844757,0.0996657982468605,0.532448947429657,0.2143706977367401,0.11551021784543991,0.5996740460395813,0.8902,,
268,74,3670,-28.002090281900312,0.0015623229555785656,0.0015623229555785656,0.0,0.02373271808028221,0.20140424370765686,0.10172881931066513,0.5609703063964844,0.208818256855011,0.10265614837408066,0.4530584216117859,0.8899,,
269,74,3680,-39.926688926391975,0.0020909749437123537,0.0020909749437123537,0.0,0.026053212583065033,0.20518235862255096,0.08854034543037415,0.5792087316513062,0.2045672982931137,0.10690931230783463,0.576852560043335,0.8896,,
270,74,3690,-48.284219406901485,0.0030780339147895575,0.0030780339147895575,0.0,0.0449630469083786,0.2112114280462265,0.0924839898943901,0.46584200859069824,0.20977431535720825,0.11237763613462448,0.5945455431938171,0.8893,,
271,74,3700,-57.96210426944085,0.0031583390664309263,0.0031583390664309263,0.0,0.039837054908275604,0.2166806310415268,0.09754962474107742,0.5151067972183228,0.21286219358444214,0.10517210513353348,0.5013725757598877,0.889,,
272,75,3710,-8.831534358915897,0.0028879214078187943,0.0028879214078187943,0.0,0.040207892656326294,0.18943236768245697,0.10294625163078308,0.5092779397964478,0.18726807832717896,0.09834618121385574,0.4645389914512634,0.8887,,
273,75,3720,-22.292872670369444,0.0011356082977727056,0.0011356082977727056,0.0,0.023865286260843277,0.22181709110736847,0.09877324849367142,0.5331224799156189,0.2294704020023346,0.1038379818201065,0.6386309862136841,0.8884,,
274,75,3730,-36.45608554737842,0.0020045493729412556,0.0020045493729412556,0.0,0.03295149281620979,0.19603972136974335,0.10150600224733353,0.5347918272018433,0.20519906282424927,0.10455431044101715,0.48996588587760925,0.8881,,
275,75,3740,-50.61022624826391,0.002673912327736616,0.002673912327736616,0.0,0.04450215399265289,0.21411393582820892,0.11359427869319916,0.5646421909332275,0.2183157056570053,0.12108416855335236,0.6577802896499634,0.8878,,
276,75,3750,-66.61369794165755,0.0020830370485782623,0.0020830370485782623,0.0,0.03208579123020172,0.20034590363502502,0.09924037009477615,0.5071706771850586,0.20471535623073578,0.11213579028844833,0.6260795593261719,0.8875,-83.98785307189493,-83.98785307189493
277,76,3760,-10.36490913667746,0.0013819480082020164,0.0013819480082020164,0.0,0.021927349269390106,0.20496998727321625,0.10814245790243149,0.5793654322624207,0.2088838666677475,0.10724956542253494,0.5981096625328064,0.8872,,
278,76,3770,-22.10918142265411,0.002146183280274272,0.002146183280274272,0.0,0.040926869958639145,0.20671379566192627,0.10186318308115005,0.5652961730957031,0.21538878977298737,0.10349290072917938,0.4593600630760193,0.8869,,
279,76,3780,-33.75261073398473,0.0019843042828142643,0.0019843042828142643,0.0,0.02816581353545189,0.2119387984275818,0.07769367098808289,0.4818456470966339,0.20982003211975098,0.09145285934209824,0.459422767162323,0.8866,,
280,76,3790,-47.39478231713295,0.002158202463760972,0.002158202463760972,0.0,0.030288027599453926,0.2086225301027298,0.10757637768983841,0.584821879863739,0.21129725873470306,0.10677774995565414,0.5449227690696716,0.8863,,
281,76,3800,-61.296848708259354,0.0017078726086765528,0.0017078726086765528,0.0,0.027616288512945175,0.2057073414325714,0.09059598296880722,0.4727628827095032,0.2117055356502533,0.09730471670627594,0.4629802703857422,0.886,,
282,77,3810,-10.841845361747202,0.002582109998911619,0.002582109998911619,0.0,0.0376310758292675,0.2126743644475937,0.09561020880937576,0.512091875076294,0.22356921434402466,0.10926178097724915,0.5995059609413147,0.8857,,
283,77,3820,-22.76196089707847,0.002126829931512475,0.002126829931512475,0.0,0.023884786292910576,0.21101489663124084,0.10476597398519516,0.5825196504592896,0.214045450091362,0.11166733503341675,0.5443800091743469,0.8854,,
284,77,3830,-40.014679937485354,0.0015611290000379086,0.0015611290000379086,0.0,0.036740757524967194,0.20418110489845276,0.10286454856395721,0.5110333561897278,0.22415556013584137,0.10613062232732773,0.6260602474212646,0.8851,,
285,77,3840,-60.929038220577524,0.002333803800866008,0.002333803800866008,0.0,0.044705647975206375,0.20594440400600433,0.10476426780223846,0.6013322472572327,0.21197745203971863,0.11207211017608643,0.6078735589981079,0.8848,,
286,77,3850,-88.9366624091375,0.002122708363458514,0.002122708363458514,0.0,0.03797098994255066,0.21812081336975098,0.10254348069429398,0.5223758816719055,0.2137388437986374,0.11036928743124008,0.6261549592018127,0.8845000000000001,,
287,78,3860,-15.786302475838028,0.0015195964369922876,0.0015195964369922876,0.0,0.023059988394379616,0.22038400173187256,0.1130586639046669,0.5654129981994629,0.22212567925453186,0.10632172971963882,0.486468106508255,0.8842,,
288,78,3870,-36.37497753078822,0.0025528816040605307,0.0025528816040605307,0.0,0.03438982367515564,0.20572121441364288,0.09384340792894363,0.4765900671482086,0.20367494225502014,0.10377796739339828,0.4928802251815796,0.8839,,
289,78,3880,-56.06089324424422,0.0027139331214129925,0.0027139331214129925,0.0,0.045978643000125885,0.21483081579208374,0.12109313905239105,0.5467492341995239,0.22673925757408142,0.1256352812051773,0.6781606078147888,0.8835999999999999,,
290,78,3890,-71.44054142226236,0.0018304820405319333,0.0018304820405319333,0.0,0.03088654763996601,0.21881605684757233,0.10876555740833282,0.5339698195457458,0.2197868973016739,0.11522329598665237,0.5605415105819702,0.8833,,
291,78,3900,-84.48067213248908,0.002638318343088031,0.002638318343088031,0.0,0.04717939347028732,0.21486106514930725,0.09945027530193329,0.4901176691055298,0.20614394545555115,0.11303991079330444,0.5000524520874023,0.883,,
292,79,3910,-8.546663398667805,0.0021555351559072733,0.0021555351559072733,0.0,0.03508509695529938,0.21361765265464783,0.10995323210954666,0.7193790078163147,0.21407629549503326,0.113166444003582,0.6192635297775269,0.8827,,
293,79,3920,-16.881627386434072,0.001642606919631362,0.001642606919631362,0.0,0.024699101224541664,0.2289913445711136,0.11351881921291351,0.6232527494430542,0.22842563688755035,0.11756393313407898,0.6101472973823547,0.8824,,
294,79,3930,-25.740976807585913,0.0018426666501909494,0.0018426666501909494,0.0,0.03728141263127327,0.20590049028396606,0.11680010706186295,0.5788553953170776,0.22068151831626892,0.1182979941368103,0.6440004110336304,0.8821,,
295,79,3940,-34.71821115203589,0.0014077937230467796,0.0014077937230467796,0.0,0.027566222473978996,0.2138643115758896,0.10529904067516327,0.525529682636261,0.21020784974098206,0.1070905327796936,0.4833761155605316,0.8818,,
296,79,3950,-39.71058540636388,0.004642348270863295,0.004642348270863295,0.0,0.062015846371650696,0.2312147617340088,0.1153281182050705,0.6501681804656982,0.22134087979793549,0.10740771144628525,0.5294638276100159,0.8815,,
297,80,3960,-4.741382078008959,0.001608598162420094,0.001608598162420094,0.0,0.028991544619202614,0.21162483096122742,0.10804325342178345,0.5824525356292725,0.213263139128685,0.10474509000778198,0.5423220992088318,0.8812,,
298,80,3970,-13.146669820664815,0.002165190875530243,0.002165190875530243,0.0,0.03447407856583595,0.22078905999660492,0.11078610271215439,0.6827530860900879,0.2135438174009323,0.1175670400261879,0.5787462592124939,0.8809,,
299,80,3980,-26.896245285389604,0.0011096105445176363,0.0011096105445176363,0.0,0.022936299443244934,0.21447110176086426,0.10115638375282288,0.5064159035682678,0.21959975361824036,0.10187219828367233,0.49346572160720825,0.8806,,
300,80,3990,-43.553767947050126,0.0025998870842158794,0.0025998870842158794,0.0,0.04840776324272156,0.20509549975395203,0.11303585767745972,0.5791016221046448,0.20635735988616943,0.11241087317466736,0.6275268793106079,0.8803,,
301,80,4000,-56.92554743342279,0.002888620598241687,0.002888620598241687,0.0,0.03657054156064987,0.21467798948287964,0.11180057376623154,0.4991772770881653,0.21624357998371124,0.12154310196638107,0.5372439026832581,0.88,,
302,81,4010,-22.564959582305217,0.0016398802399635315,0.0016398802399635315,0.0,0.03586951270699501,0.21091696619987488,0.09869944304227829,0.595057487487793,0.22124627232551575,0.1152384877204895,0.6340486407279968,0.8797,,
303,81,4020,-45.02251792142456,0.0015980866737663746,0.0015980866737663746,0.0,0.02897951938211918,0.21698316931724548,0.10390172898769379,0.6145758032798767,0.21941909193992615,0.09743451327085495,0.5880570411682129,0.8794,,
304,81,4030,-70.55040866068177,0.001495842239819467,0.001495842239819467,0.0,0.0291754137724638,0.21343407034873962,0.10019668191671371,0.4674096703529358,0.22619792819023132,0.10748811066150665,0.5610300302505493,0.8791,,
305,81,4040,-99.25893142055972,0.0015828381292521954,0.0015828381292521954,0.0,0.02763555757701397,0.205170676112175,0.10467012971639633,0.6163361072540283,0.21149833500385284,0.10462474077939987,0.5516020655632019,0.8788,,
306,81,4050,-127.70845916929981,0.0030371409375220537,0.0030371409375220537,0.0,0.052301522344350815,0.23602557182312012,0.11138572543859482,0.6809364557266235,0.22649359703063965,0.12385909259319305,0.6051408052444458,0.8785,,
307,82,4060,-9.027515296896743,0.002238529734313488,0.002238529734313488,0.0,0.031747933477163315,0.22149020433425903,0.12036450207233429,0.7384343147277832,0.2136785387992859,0.13346286118030548,0.6815914511680603,0.8782,,
308,82,4070,-16.86858204006586,0.0027264526579529047,0.0027264526579529047,0.0,0.04407139867544174,0.21919375658035278,0.10444336384534836,0.5180376172065735,0.2141599953174591,0.10943249613046646,0.5592272877693176,0.8779,,
309,82,4080,-25.746199375295582,0.002187693491578102,0.002187693491578102,0.0,0.02972538396716118,0.21011674404144287,0.11316673457622528,0.5766474008560181,0.21594692766666412,0.11452935636043549,0.5819447040557861,0.8775999999999999,,
310,82,4090,-42.71598398856472,0.0013756718253716826,0.0013756718253716826,0.0,0.030762488022446632,0.22962413728237152,0.11410648375749588,0.658059298992157,0.24108374118804932,0.11146428436040878,0.6816970705986023,0.8773,,
311,82,4100,-58.69185022435744,0.002058573067188263,0.002058573067188263,0.0,0.03787196800112724,0.2183886170387268,0.11367905884981155,0.6056512594223022,0.21005913615226746,0.11695986986160278,0.5865231156349182,0.877,,
312,83,4110,-11.84771957280056,0.0014329273253679276,0.0014329273253679276,0.0,0.026453835889697075,0.23313066363334656,0.11298221349716187,0.6270797252655029,0.23554879426956177,0.12267503142356873,0.6754051446914673,0.8767,,
313,83,4120,-24.92465472426229,0.0012143317144364119,0.0012143317144364119,0.0,0.01733919233083725,0.2130056917667389,0.10039164870977402,0.6678335070610046,0.21714013814926147,0.10584819316864014,0.6442795395851135,0.8764,,
314,83,4130,-37.41170695579936,0.001912151463329792,0.001912151463329792,0.0,0.03130119666457176,0.21456465125083923,0.11421787738800049,0.6932887434959412,0.21175697445869446,0.10688096284866333,0.6384339928627014,0.8761,,
315,83,4140,-54.47636466484321,0.002757484093308449,0.002757484093308449,0.0,0.03123529627919197,0.2166057676076889,0.10322417318820953,0.5653316378593445,0.2120535671710968,0.12082677334547043,0.6562620997428894,0.8758,,
316,83,4150,-74.03588790448168,0.0018881596624851227,0.0018881596624851227,0.0,0.03492869436740875,0.22328421473503113,0.11222377419471741,0.7269214987754822,0.2268187701702118,0.11945658922195435,0.6823447942733765,0.8755,,
317,84,4160,-6.266283484536694,0.0010903161019086838,0.0010903161019086838,0.0,0.0194577407091856,0.21423709392547607,0.10324462503194809,0.6612929701805115,0.2176755964756012,0.11166997253894806,0.6047623753547668,0.8752,,
318,84,4170,-11.20263994412572,0.0015323240077123046,0.0015323240077123046,0.0,0.031129436567425728,0.21595455706119537,0.10682827234268188,0.5556162595748901,0.22344842553138733,0.11425338685512543,0.5021453499794006,0.8749,,
319,84,4180,-14.195001885887313,0.0008334650192409754,0.0008334650192409754,0.0,0.020161813125014305,0.2265186607837677,0.119020476937294,0.6809445023536682,0.23141776025295258,0.12030940502882004,0.6758860349655151,0.8746,,
320,84,4190,-19.35574669387003,0.002508576260879636,0.002508576260879636,0.0,0.03993747755885124,0.21650229394435883,0.10829931497573853,0.5927687883377075,0.21610307693481445,0.11195742338895798,0.5593183636665344,0.8743,,
321,84,4200,-24.065237256379028,0.001956602092832327,0.001956602092832327,0.0,0.03136733919382095,0.22095008194446564,0.10632544010877609,0.6056231260299683,0.22816681861877441,0.11024782806634903,0.534497082233429,0.874,,
322,85,4210,-10.395933427985678,0.004022213164716959,0.004022213164716959,0.0,0.060919132083654404,0.24064478278160095,0.12380599230527878,0.7443768382072449,0.23485353589057922,0.1196017861366272,0.6022316217422485,0.8737,,
323,85,4220,-23.567102574341874,0.002192532876506448,0.002192532876506448,0.0,0.030265681445598602,0.2220049798488617,0.10728351771831512,0.6231958270072937,0.22380386292934418,0.1081971824169159,0.5618506669998169,0.8734,,
324,85,4230,-38.389245127331556,0.0036004490684717894,0.0036004490684717894,0.0,0.05532332509756088,0.19247835874557495,0.09607572108507156,0.4528375267982483,0.18643462657928467,0.09923703223466873,0.42446404695510864,0.8731,,
325,85,4240,-58.48437246194657,0.0016552815213799477,0.0016552815213799477,0.0,0.035221390426158905,0.2231641560792923,0.11396987736225128,0.5772265195846558,0.2309141755104065,0.1116495206952095,0.5580508708953857,0.8728,,
326,85,4250,-83.62246371327474,0.002803812501952052,0.002803812501952052,0.0,0.03986396640539169,0.21281321346759796,0.11474361270666122,0.6005270481109619,0.21417082846164703,0.11476648598909378,0.5340180397033691,0.8725,,
327,86,4260,-10.834980266037007,0.0013506454415619373,0.0013506454415619373,0.0,0.028556765988469124,0.20199880003929138,0.11482376605272293,0.631607174873352,0.21512183547019958,0.11864457279443741,0.5825282335281372,0.8722,,
328,86,4270,-19.68918253852842,0.0020203767344355583,0.0020203767344355583,0.0,0.029854783788323402,0.22832554578781128,0.10434679687023163,0.5937165021896362,0.23119890689849854,0.11508437246084213,0.5867022275924683,0.8719,,
329,86,4280,-28.026628638540455,0.0023634082172065973,0.0023634082172065973,0.0,0.03772391006350517,0.21373890340328217,0.11789888888597488,0.6468527913093567,0.23016799986362457,0.1188291385769844,0.6060274839401245,0.8715999999999999,,
330,86,4290,-42.657121321832214,0.0014422262320294976,0.0014422262320294976,0.0,0.03144163265824318,0.21115314960479736,0.1169678345322609,0.7321953177452087,0.22515834867954254,0.10869759321212769,0.6310622096061707,0.8713,,
331,86,4300,-63.036449462270035,0.0017176229739561677,0.0017176229739561677,0.0,0.027775336056947708,0.21431083977222443,0.10794858634471893,0.5810233354568481,0.21098919212818146,0.10639674961566925,0.5144670009613037,0.871,,
332,87,4310,-13.416688249724565,0.0014286269433796406,0.0014286269433796406,0.0,0.03387093171477318,0.20392288267612457,0.10508791357278824,0.5254250764846802,0.2131371945142746,0.10314897447824478,0.6001677513122559,0.8707,,
333,87,4320,-26.706698201474907,0.0015936921117827296,0.0015936921117827296,0.0,0.026380570605397224,0.20842614769935608,0.10007660835981369,0.47687214612960815,0.21112625300884247,0.10377451032400131,0.42827698588371277,0.8704000000000001,,
334,87,4330,-37.4810710432736,0.0037909180391579866,0.0037909180391579866,0.0,0.04824095591902733,0.2215733677148819,0.11255086958408356,0.6135286688804626,0.21485894918441772,0.12163384258747101,0.5959996581077576,0.8701,,
335,87,4340,-50.06682327022192,0.003017091192305088,0.003017091192305088,0.0,0.049805887043476105,0.22171621024608612,0.11484471708536148,0.6589498519897461,0.22818712890148163,0.11613631993532181,0.6320861577987671,0.8698,,
336,87,4350,-67.14089043509566,0.004577815067023039,0.004577815067023039,0.0,0.06265895813703537,0.22351691126823425,0.11064515262842178,0.7037492990493774,0.20632678270339966,0.11853871494531631,0.6831645965576172,0.8694999999999999,,
337,88,4360,-8.557718636694165,0.001111440360546112,0.001111440360546112,0.0,0.028641492128372192,0.2194523960351944,0.10148583352565765,0.5787603259086609,0.22949478030204773,0.1015545129776001,0.5523504614830017,0.8692,,
338,88,4370,-19.657892156117562,0.0017686460632830858,0.0017686460632830858,0.0,0.03184622898697853,0.2239086627960205,0.12596213817596436,0.8375970125198364,0.23118899762630463,0.12717676162719727,0.7109514474868774,0.8689,,
339,88,4380,-31.12463127670291,0.0026920705568045378,0.0026920705568045378,0.0,0.045388028025627136,0.23849652707576752,0.11307898908853531,0.5651383399963379,0.24119171500205994,0.12740227580070496,0.6887458562850952,0.8686,,
340,88,4390,-43.101704778467905,0.0018721581436693668,0.0018721581436693668,0.0,0.0279193464666605,0.21650463342666626,0.11080192774534225,0.8292770385742188,0.211765855550766,0.11590780317783356,0.7109622955322266,0.8683,,
341,88,4400,-58.02718860927841,0.0024879046250134706,0.0024879046250134706,0.0,0.037806436419487,0.21643736958503723,0.1216924861073494,0.6587173938751221,0.21640729904174805,0.12975256145000458,0.65484219789505,0.868,,
342,89,4410,-9.06229178241591,0.0026199454441666603,0.0026199454441666603,0.0,0.02918262965977192,0.21383090317249298,0.10540005564689636,0.709802508354187,0.20930831134319305,0.11796912550926208,0.6830915212631226,0.8677,,
343,89,4420,-16.584399660163015,0.002919584047049284,0.002919584047049284,0.0,0.04594571143388748,0.21662403643131256,0.11726883798837662,0.5796787738800049,0.2159576117992401,0.12493530660867691,0.5818503499031067,0.8674,,
344,89,4430,-26.270453554207776,0.0013674679212272167,0.0013674679212272167,0.0,0.026485325768589973,0.1946752965450287,0.08708521723747253,0.44394010305404663,0.19736923277378082,0.09182977676391602,0.44485750794410706,0.8671,,
345,89,4440,-38.38810873356831,0.001910396502353251,0.001910396502353251,0.0,0.03040354512631893,0.221440851688385,0.11253336071968079,0.7031604051589966,0.22206099331378937,0.1263577789068222,0.6804420948028564,0.8668,,
346,89,4450,-48.523095720477514,0.0010549469152465463,0.0010549469152465463,0.0,0.024468708783388138,0.2107706218957901,0.09107883274555206,0.5645016431808472,0.2172161489725113,0.09839930385351181,0.5792962312698364,0.8665,,
347,90,4460,-6.413041649990242,0.003474925411865115,0.003474925411865115,0.0,0.05005819723010063,0.21157105267047882,0.10636524856090546,0.5169819593429565,0.2080191820859909,0.11904850602149963,0.5409945845603943,0.8662,,
348,90,4470,-18.0312713125318,0.0013647580053657293,0.0013647580053657293,0.0,0.02630518563091755,0.1996331512928009,0.0989089235663414,0.5088136792182922,0.20759505033493042,0.11129236966371536,0.5227692723274231,0.8659,,
349,90,4480,-35.3006665145735,0.0015388350002467632,0.0015388350002467632,0.0,0.0333719328045845,0.21665194630622864,0.10977039486169815,0.6427062749862671,0.22255870699882507,0.11936500668525696,0.6071361899375916,0.8655999999999999,,
350,90,4490,-58.76141090887894,0.003416825085878372,0.003416825085878372,0.0,0.04456281289458275,0.23195143043994904,0.10865950584411621,0.5219157338142395,0.2301110327243805,0.11529383808374405,0.5973193049430847,0.8653,,
351,90,4500,-76.18211727747212,0.002894567558541894,0.002894567558541894,0.0,0.043355755507946014,0.2119855284690857,0.10717208683490753,0.5614400506019592,0.22158800065517426,0.11012007296085358,0.5971730947494507,0.865,,
352,91,4510,-9.70257690829191,0.002213928382843733,0.002213928382843733,0.0,0.03330148011445999,0.1878543645143509,0.11264904588460922,0.6761155128479004,0.19117307662963867,0.12237188220024109,0.652600884437561,0.8647,,
353,91,4520,-26.86977591746877,0.002161563839763403,0.002161563839763403,0.0,0.033929143100976944,0.21644754707813263,0.1229424774646759,0.6198858022689819,0.2177920937538147,0.12806595861911774,0.6464830636978149,0.8644000000000001,,
354,91,4530,-43.547611562213774,0.0016499775229021907,0.0016499775229021907,0.0,0.034632358700037,0.21432693302631378,0.11537685990333557,0.5596490502357483,0.2306426614522934,0.12061234563589096,0.5777068734169006,0.8641,,
355,91,4540,-55.6827812975304,0.00154811330139637,0.00154811330139637,0.0,0.028542710468173027,0.20570456981658936,0.10918720066547394,0.6330552697181702,0.21166777610778809,0.11805908381938934,0.6230829358100891,0.8638,,
356,91,4550,-70.5408159558912,0.001627021818421781,0.001627021818421781,0.0,0.02669745869934559,0.21363875269889832,0.10895207524299622,0.6427990794181824,0.21309369802474976,0.12018541246652603,0.5793102383613586,0.8634999999999999,,
357,92,4560,-7.000412745586192,0.001493276096880436,0.001493276096880436,0.0,0.023144720122218132,0.22470197081565857,0.10535278916358948,0.5243089199066162,0.22132350504398346,0.10802356898784637,0.5369937419891357,0.8632,,
358,92,4570,-14.56049062138927,0.002675964729860425,0.002675964729860425,0.0,0.04714834317564964,0.20276017487049103,0.1078513041138649,0.6709016561508179,0.20596928894519806,0.11401689052581787,0.6721906661987305,0.8629,,
359,92,4580,-23.3790200025757,0.0013756569242104888,0.0013756569242104888,0.0,0.024443069472908974,0.23180627822875977,0.11534017324447632,0.6597148180007935,0.23357008397579193,0.11873176693916321,0.606866180896759,0.8626,,
360,92,4590,-35.153955005482175,0.007612086832523346,0.007612086832523346,0.0,0.0871126800775528,0.22729776799678802,0.11739232391119003,0.7226883769035339,0.20691543817520142,0.1220671609044075,0.49614226818084717,0.8623000000000001,,
361,92,4600,-48.13294269831709,0.002325266832485795,0.002325266832485795,0.0,0.034353986382484436,0.21745844185352325,0.09659633785486221,0.571955144405365,0.2242816686630249,0.10891833901405334,0.5441935658454895,0.862,,
362,93,4610,-9.287655660805179,0.003953272942453623,0.003953272942453623,0.0,0.04795174300670624,0.2227529138326645,0.10772469639778137,0.6747616529464722,0.2234819233417511,0.1100771501660347,0.6334238648414612,0.8617,,
363,93,4620,-19.24797666774752,0.0036484103184193373,0.0036484103184193373,0.0,0.046443045139312744,0.21559423208236694,0.11984546482563019,0.7023504376411438,0.21762380003929138,0.1256958395242691,0.6776026487350464,0.8613999999999999,,
364,93,4630,-26.090017412686677,0.0015775907086208463,0.0015775907086208463,0.0,0.028980514034628868,0.22395773231983185,0.10107938945293427,0.498660683631897,0.23100309073925018,0.10439339280128479,0.5175887942314148,0.8611,,
365,93,4640,-33.66559961209229,0.002591412514448166,0.002591412514448166,0.0,0.039832327514886856,0.22521354258060455,0.11588131636381149,0.6398530602455139,0.2191437929868698,0.12874358892440796,0.6455273628234863,0.8608,,
366,93,4650,-40.33065212013806,0.002097536576911807,0.002097536576911807,0.0,0.0343024805188179,0.23029401898384094,0.11546917259693146,0.6793133020401001,0.22915327548980713,0.12907099723815918,0.6722447276115417,0.8605,,
367,94,4660,-7.837453127507761,0.0015608599642291665,0.0015608599642291665,0.0,0.02284880355000496,0.2258870005607605,0.10560721158981323,0.5735104084014893,0.22831423580646515,0.1102576032280922,0.5810818672180176,0.8602,,
368,94,4670,-16.533007464916214,0.0010246087331324816,0.0010246087331324816,0.0,0.021341364830732346,0.20057545602321625,0.09155777841806412,0.5589097142219543,0.20480838418006897,0.1013207957148552,0.5719535946846008,0.8599,,
369,94,4680,-28.0865966714066,0.0014458365039899945,0.0014458365039899945,0.0,0.0377977192401886,0.20143818855285645,0.08811841160058975,0.5252935886383057,0.21803972125053406,0.09816829860210419,0.5166894793510437,0.8596,,
370,94,4690,-40.95626195360259,0.002103209961205721,0.002103209961205721,0.0,0.0358092337846756,0.21706700325012207,0.10377494990825653,0.5263528227806091,0.21946553885936737,0.1097467765212059,0.6913747191429138,0.8593,,
371,94,4700,-52.03431686052081,0.0022123330272734165,0.0022123330272734165,0.0,0.03645437955856323,0.19941221177577972,0.10173647850751877,0.5489885807037354,0.206572026014328,0.11527644842863083,0.5303066968917847,0.859,,
372,95,4710,-13.074977533436284,0.0026099258102476597,0.0026099258102476597,0.0,0.04245535656809807,0.189827561378479,0.0850764587521553,0.44073352217674255,0.1995789110660553,0.10576082766056061,0.575383186340332,0.8587,,
373,95,4720,-27.15685379447388,0.0010848201345652342,0.0010848201345652342,0.0,0.024225732311606407,0.18788108229637146,0.08537831902503967,0.4498509168624878,0.1886918991804123,0.09768027812242508,0.4910748302936554,0.8584,,
374,95,4730,-37.90946946266506,0.0018160233739763498,0.0018160233739763498,0.0,0.034812938421964645,0.21540586650371552,0.10279209166765213,0.6246696710586548,0.2172790765762329,0.11631304025650024,0.6044551134109497,0.8581,,
375,95,4740,-49.377162040995415,0.0016626836732029915,0.0016626836732029915,0.0,0.035749804228544235,0.22092518210411072,0.10532034188508987,0.677215576171875,0.2287236452102661,0.11427793651819229,0.6507914066314697,0.8578,,
376,95,4750,-60.267519867831744,0.0012176402378827333,0.0012176402378827333,0.0,0.022940751165151596,0.20877894759178162,0.11252428591251373,0.6940851211547852,0.21011663973331451,0.10807594656944275,0.6713881492614746,0.8575,,
377,96,4760,-11.590427252782971,0.001995788887143135,0.001995788887143135,0.0,0.03562282398343086,0.22197261452674866,0.11484957486391068,0.5600185394287109,0.22630661725997925,0.12667758762836456,0.6469346880912781,0.8572,,
378,96,4770,-22.735257673539394,0.003274312475696206,0.003274312475696206,0.0,0.04185553267598152,0.2266724407672882,0.11411947757005692,0.602742075920105,0.22768259048461914,0.12264039367437363,0.6175426244735718,0.8569,,
379,96,4780,-33.238127396147014,0.0011420979863032699,0.0011420979863032699,0.0,0.026496050879359245,0.21998855471611023,0.11244872957468033,0.5542762875556946,0.2266884297132492,0.11179959028959274,0.6377323269844055,0.8566,,
380,96,4790,-43.852640232080866,0.0031679009553045034,0.0031679009553045034,0.0,0.054875146597623825,0.24309684336185455,0.11248967051506042,0.725319504737854,0.23696252703666687,0.12963682413101196,0.6765335202217102,0.8563,,
381,96,4800,-54.6418873901307,0.002413261914625764,0.002413261914625764,0.0,0.04214409738779068,0.23077456653118134,0.10721144825220108,0.6455548405647278,0.2202480137348175,0.12065420299768448,0.608126163482666,0.856,,
382,97,4810,-10.841779039570511,0.002053032862022519,0.002053032862022519,0.0,0.03307610750198364,0.2326384037733078,0.11053115874528885,0.5402668714523315,0.2305321842432022,0.11338173598051071,0.5155753493309021,0.8557,,
383,97,4820,-32.781875422910616,0.0019396780990064144,0.0019396780990064144,0.0,0.03958767279982567,0.22384461760520935,0.10205013304948807,0.6305235624313354,0.22369760274887085,0.1063748300075531,0.6027919054031372,0.8553999999999999,,
384,97,4830,-58.00265709358266,0.0013079829514026642,0.0013079829514026642,0.0,0.023303216323256493,0.21357306838035583,0.09953900426626205,0.5110045671463013,0.21443378925323486,0.10936562716960907,0.49518895149230957,0.8551,,
385,97,4840,-81.64463877669125,0.0027425584848970175,0.0027425584848970175,0.0,0.045242369174957275,0.24001123011112213,0.12085616588592529,0.6273497343063354,0.23717765510082245,0.13031096756458282,0.6590695381164551,0.8548,,
386,97,4850,-109.45151347536938,0.0023004496470093727,0.0023004496470093727,0.0,0.037794724106788635,0.2232607752084732,0.11047898232936859,0.5286769270896912,0.21599388122558594,0.11651348322629929,0.5293400287628174,0.8545,,
387,98,4860,-7.813002701846919,0.0018280954100191593,0.0018280954100191593,0.0,0.033177655190229416,0.21718716621398926,0.11208384484052658,0.48986268043518066,0.21378500759601593,0.11946945637464523,0.5267157554626465,0.8542,,
388,98,4870,-18.266577951288003,0.002026434289291501,0.002026434289291501,0.0,0.0347348153591156,0.23400446772575378,0.11226686835289001,0.6678898930549622,0.22986763715744019,0.12422208487987518,0.6744091510772705,0.8539,,
389,98,4880,-30.511230558822373,0.0028176449704915285,0.0028176449704915285,0.0,0.035625159740448,0.21307626366615295,0.11201810091733932,0.6852133274078369,0.2124466449022293,0.12042677402496338,0.6497681736946106,0.8536,,
390,98,4890,-40.40618582319063,0.0009785030269995332,0.0009785030269995332,0.0,0.019450148567557335,0.2160923033952713,0.09421394020318985,0.5278624296188354,0.21374398469924927,0.1079949140548706,0.5800248384475708,0.8533,,
391,98,4900,-54.61774128738149,0.0030398680828511715,0.0030398680828511715,0.0,0.04060680419206619,0.20408907532691956,0.09982186555862427,0.5056026577949524,0.20315322279930115,0.10430511832237244,0.49762779474258423,0.853,,
392,99,4910,-10.838044087658806,0.0014444979606196284,0.0014444979606196284,0.0,0.03372909873723984,0.19501660764217377,0.10073243826627731,0.49553540349006653,0.20841357111930847,0.11077085882425308,0.6470702290534973,0.8527,,
393,99,4920,-21.790438884819057,0.000937052711378783,0.000937052711378783,0.0,0.024071715772151947,0.2131870836019516,0.09275322407484055,0.5079295039176941,0.2235635221004486,0.09884154796600342,0.5260676145553589,0.8524,,
394,99,4930,-31.84286050315081,0.002645447151735425,0.002645447151735425,0.0,0.02990138530731201,0.22639800608158112,0.11732875555753708,0.614250898361206,0.2284650206565857,0.1261158585548401,0.6591174602508545,0.8521,,
395,99,4940,-40.656732546045134,0.0027491769287735224,0.0027491769287735224,0.0,0.03731745481491089,0.2227168083190918,0.10863862931728363,0.5467585325241089,0.22373723983764648,0.12091144174337387,0.5521808862686157,0.8518,,
396,99,4950,-47.54688039730722,0.004422189202159643,0.004422189202159643,0.0,0.05541934445500374,0.22135235369205475,0.10382630676031113,0.6956652402877808,0.21298696100711823,0.1246052011847496,0.660963773727417,0.8514999999999999,,
397,100,4960,-3.3874080978727257,0.0020012566819787025,0.0020012566819787025,0.0,0.03512590378522873,0.21383793652057648,0.11367107927799225,0.7068867683410645,0.2181045413017273,0.11595658212900162,0.6753672361373901,0.8512,,
398,100,4970,-10.211070899840209,0.0014722301857545972,0.0014722301857545972,0.0,0.02703256718814373,0.20641188323497772,0.10357087105512619,0.5437228679656982,0.21747179329395294,0.11177053302526474,0.6290064454078674,0.8509,,
399,100,4980,-19.387992979804892,0.001147222938016057,0.001147222938016057,0.0,0.021663079038262367,0.21969503164291382,0.11276914179325104,0.7923859357833862,0.22144865989685059,0.11876746267080307,0.708467960357666,0.8506,,
400,100,4990,-35.483597108849295,0.0030415647197514772,0.0030415647197514772,0.0,0.04104835167527199,0.19757391512393951,0.10392884910106659,0.6992189288139343,0.20685288310050964,0.1178208515048027,0.674942672252655,0.8503000000000001,,
401,100,5000,-56.76226942431743,0.0017598564736545086,0.0017598564736545086,0.0,0.03615771234035492,0.20287488400936127,0.10403750836849213,0.6197495460510254,0.21066895127296448,0.11629735678434372,0.6797548532485962,0.85,-104.6237852714271,-104.6237852714271
402,101,5010,-5.784694847730623,0.0017369440756738186,0.0017369440756738186,0.0,0.02924085408449173,0.22332581877708435,0.1003056988120079,0.467679500579834,0.22692176699638367,0.10611775517463684,0.49303746223449707,0.8497,,
403,101,5020,-11.59364244462332,0.0013939409982413054,0.0013939409982413054,0.0,0.027544263750314713,0.2056816667318344,0.10684633255004883,0.6007730960845947,0.21607649326324463,0.11522404849529266,0.6439218521118164,0.8493999999999999,,
404,101,5030,-17.12385215557682,0.003221956081688404,0.003221956081688404,0.0,0.05242645740509033,0.21251599490642548,0.10772105306386948,0.5543035864830017,0.21492999792099,0.11291484534740448,0.628879725933075,0.8491,,
405,101,5040,-26.203256592939315,0.0019825852941721678,0.0019825852941721678,0.0,0.03746424615383148,0.21570095419883728,0.10229284316301346,0.5948824882507324,0.21681511402130127,0.10567466169595718,0.5966658592224121,0.8488,,
406,101,5050,-35.03325191873181,0.002405231585726142,0.002405231585726142,0.0,0.04881333187222481,0.20761658251285553,0.100863516330719,0.5567083954811096,0.20101182162761688,0.11350053548812866,0.5771844387054443,0.8485,,
407,102,5060,-9.72214200783968,0.0036577023565769196,0.0036577023565769196,0.0,0.04228309914469719,0.22883419692516327,0.11900049448013306,0.6458814144134521,0.22993263602256775,0.13027101755142212,0.6736965179443359,0.8482000000000001,,
408,102,5070,-18.568657302460323,0.0021227060351520777,0.0021227060351520777,0.0,0.03302376717329025,0.22353391349315643,0.11635193228721619,0.6493005752563477,0.22742611169815063,0.12534870207309723,0.6735954284667969,0.8479,,
409,102,5080,-26.3942585083489,0.0008519365219399333,0.0008519365219399333,0.0,0.0252494215965271,0.21616683900356293,0.10971271991729736,0.6007503867149353,0.22454947233200073,0.1182580217719078,0.6322336792945862,0.8476,,
410,102,5090,-32.73469019533427,0.002706045052036643,0.002706045052036643,0.0,0.04735954850912094,0.21615886688232422,0.0997573733329773,0.5297545790672302,0.2116718888282776,0.10492014139890671,0.4861757755279541,0.8472999999999999,,
411,102,5100,-39.71925176325592,0.0018727118149399757,0.0018727118149399757,0.0,0.029741715639829636,0.21301549673080444,0.1039845421910286,0.5940359830856323,0.21528299152851105,0.1111428514122963,0.6292932033538818,0.847,,
412,103,5110,-9.32603452153721,0.0012766120489686728,0.0012766120489686728,0.0,0.023027796298265457,0.2084830403327942,0.11495384573936462,0.7107096910476685,0.21145761013031006,0.12228074669837952,0.6781390905380249,0.8467,,
413,103,5120,-25.265268498461005,0.003459540195763111,0.003459540195763111,0.0,0.04341545328497887,0.19995521008968353,0.10007532685995102,0.47326698899269104,0.19904494285583496,0.1089819148182869,0.4454812705516815,0.8464,,
414,103,5130,-44.77336232497503,0.002782160649076104,0.002782160649076104,0.0,0.04504841938614845,0.22015604376792908,0.12101130932569504,0.6493551135063171,0.20924879610538483,0.12584415078163147,0.6783765554428101,0.8461,,
415,103,5140,-61.285720475838914,0.00279631488956511,0.00279631488956511,0.0,0.03663715347647667,0.22180961072444916,0.10088113695383072,0.5989697575569153,0.2166409194469452,0.11870475858449936,0.6382347941398621,0.8458,,
416,103,5150,-81.50881621545463,0.0015400322154164314,0.0015400322154164314,0.0,0.032048407942056656,0.2099907100200653,0.09594102203845978,0.4599103331565857,0.21704219281673431,0.1063290685415268,0.4882994592189789,0.8455,,
417,104,5160,-8.235749159608647,0.002013120800256729,0.002013120800256729,0.0,0.032927680760622025,0.20475223660469055,0.10377185791730881,0.5548088550567627,0.20537102222442627,0.11179111152887344,0.6325405836105347,0.8452,,
418,104,5170,-16.820253636266166,0.002077302895486355,0.002077302895486355,0.0,0.03804881498217583,0.20876196026802063,0.10179360955953598,0.5373257398605347,0.21211150288581848,0.10545956343412399,0.5224551558494568,0.8449,,
419,104,5180,-28.939151269608768,0.0017566493479534984,0.0017566493479534984,0.0,0.02791505493223667,0.20640471577644348,0.10812683403491974,0.596904993057251,0.2112727016210556,0.11518446356058121,0.6387550830841064,0.8446,,
420,104,5190,-40.80537987643796,0.001569964922964573,0.001569964922964573,0.0,0.032153815031051636,0.20768998563289642,0.09617024660110474,0.5455718636512756,0.2129519134759903,0.10749034583568573,0.594330906867981,0.8443,,
421,104,5200,-51.74182427954068,0.0038881131913512945,0.0038881131913512945,0.0,0.04810106009244919,0.22780676186084747,0.11808186769485474,0.7160778045654297,0.23137713968753815,0.11766862124204636,0.6728289723396301,0.844,,
422,105,5210,-11.632848527714,0.0029662030283361673,0.0029662030283361673,0.0,0.05143963173031807,0.2091577649116516,0.09493989497423172,0.4960050880908966,0.20714309811592102,0.10483206808567047,0.4702152609825134,0.8437,,
423,105,5220,-17.647011340783283,0.003192178439348936,0.003192178439348936,0.0,0.04630792513489723,0.21361581981182098,0.09481696784496307,0.4652191400527954,0.2181769460439682,0.11388825625181198,0.5081073641777039,0.8434,,
424,105,5230,-24.42280213629175,0.0011929752072319388,0.0011929752072319388,0.0,0.022387191653251648,0.22377347946166992,0.11948411911725998,0.6251055598258972,0.22871068120002747,0.1178564578294754,0.5950338244438171,0.8431,,
425,105,5240,-41.079671006250784,0.0015437710098922253,0.0015437710098922253,0.0,0.028782717883586884,0.2123437076807022,0.09283195436000824,0.505967378616333,0.2151082307100296,0.09398385882377625,0.4736868739128113,0.8428,,
426,105,5250,-65.16387708959941,0.0012767830630764365,0.0012767830630764365,0.0,0.02055647037923336,0.20045387744903564,0.09336299449205399,0.554070234298706,0.20368365943431854,0.09457364678382874,0.5861895084381104,0.8425,,
427,106,5260,-8.312750341477933,0.001261153956875205,0.001261153956875205,0.0,0.026411492377519608,0.1974582076072693,0.0898115411400795,0.4835318326950073,0.20461426675319672,0.09161439538002014,0.4546322226524353,0.8422,,
428,106,5270,-17.322216587144162,0.0014513564528897405,0.0014513564528897405,0.0,0.02493642084300518,0.2081543356180191,0.09876804053783417,0.5533698797225952,0.21566486358642578,0.110616035759449,0.5861405730247498,0.8419,,
429,106,5280,-28.666580067071806,0.001303991535678506,0.001303991535678506,0.0,0.023580476641654968,0.2118695229291916,0.11710044741630554,0.7104575037956238,0.21531404554843903,0.12145499885082245,0.6415019631385803,0.8416,,
430,106,5290,-39.94311092144672,0.0022742936853319407,0.0022742936853319407,0.0,0.02965826913714409,0.22519993782043457,0.10750111937522888,0.700249969959259,0.22763097286224365,0.12139489501714706,0.6772177815437317,0.8412999999999999,,
431,106,5300,-52.56828872355272,0.0016240613767877221,0.0016240613767877221,0.0,0.024727508425712585,0.20657303929328918,0.08969897776842117,0.5679893493652344,0.20249025523662567,0.09852564334869385,0.5316507816314697,0.841,,
432,107,5310,-12.577231587182371,0.0008699006866663694,0.0008699006866663694,0.0,0.017879582941532135,0.22002719342708588,0.10362454503774643,0.531346321105957,0.22166669368743896,0.10201235860586166,0.542123556137085,0.8407,,
433,107,5320,-28.1683663104279,0.0012773653725162148,0.0012773653725162148,0.0,0.021361298859119415,0.22997599840164185,0.10789358615875244,0.5107989311218262,0.23278963565826416,0.11588376015424728,0.649075448513031,0.8404,,
434,107,5330,-42.06964570138543,0.0018999117892235518,0.0018999117892235518,0.0,0.02991603873670101,0.2050555944442749,0.10074808448553085,0.5370028614997864,0.20576104521751404,0.10711732506752014,0.5445141196250916,0.8401,,
435,107,5340,-56.864147383182726,0.0033246432431042194,0.0033246432431042194,0.0,0.04397425055503845,0.21520273387432098,0.10163132846355438,0.5388684272766113,0.21432368457317352,0.12042463570833206,0.6961872577667236,0.8398,,
436,107,5350,-75.39377033505983,0.002461420837789774,0.002461420837789774,0.0,0.03670213744044304,0.2270406186580658,0.10820406675338745,0.5234078168869019,0.22488254308700562,0.1262604296207428,0.5401163697242737,0.8395,,
437,108,5360,-9.785259394158372,0.003050612984225154,0.003050612984225154,0.0,0.05410204455256462,0.23669983446598053,0.10335470736026764,0.5335244536399841,0.2244270145893097,0.10942621529102325,0.5504282116889954,0.8392,,
438,108,5370,-20.61321965173317,0.0013518398627638817,0.0013518398627638817,0.0,0.028546612709760666,0.2114471048116684,0.10356230288743973,0.49559450149536133,0.215964213013649,0.10886235535144806,0.5307135581970215,0.8389,,
439,108,5380,-29.848364810061206,0.0014313219580799341,0.0014313219580799341,0.0,0.03203607723116875,0.21755927801132202,0.09599569439888,0.5246534943580627,0.22890408337116241,0.10295286774635315,0.5075664520263672,0.8386,,
440,108,5390,-38.57286839631304,0.003269980661571026,0.003269980661571026,0.0,0.04963706433773041,0.2032843381166458,0.09038939327001572,0.4633338749408722,0.19133692979812622,0.10118994861841202,0.42808565497398376,0.8383,,
441,108,5400,-47.950450907918174,0.0014852917520329356,0.0014852917520329356,0.0,0.02972591295838356,0.20036132633686066,0.10073370486497879,0.5976852178573608,0.21175865828990936,0.10650154948234558,0.5943665504455566,0.838,,
442,109,5410,-10.169195291846751,0.0014081852277740836,0.0014081852277740836,0.0,0.025222228839993477,0.21154306828975677,0.09963784366846085,0.509906530380249,0.21462254226207733,0.10707075148820877,0.5074536800384521,0.8377,,
