FS-tar/marl-mpe-learning/outputs/qmix_mpe/simple_spread/run006/train_log.csv
update,episode,total_steps,train_team_return,td_loss,q_tot_mean,target_q_tot_mean,epsilon,eval_team_return,eval_mean_agent_return
0,25,2500,-57.56408780042994,,,,0.9625,-312.56929532837285,-312.5692953283729
1,30,3000,-134.41244557273887,4.153409957885742,1.4485667943954468,2.1970126628875732,0.955,,
2,31,3020,-21.434609806557937,2.0863561630249023,1.5812606811523438,2.006061553955078,0.9547,,
3,31,3040,-32.80386493813431,2.436692714691162,1.6318542957305908,1.91668701171875,0.9544,,
4,31,3060,-44.42542670319075,2.3531198501586914,1.793701410293579,1.902449131011963,0.9541,,
5,31,3080,-77.96186712510882,2.200484275817871,1.8741626739501953,1.9299721717834473,0.9538,,
6,31,3100,-116.85723598271453,1.4103994369506836,2.1250832080841064,2.048055648803711,0.9535,,
7,32,3120,-20.069353121967115,1.2626534700393677,2.172964096069336,2.031697988510132,0.9532,,
8,32,3140,-46.843602399268406,1.4162511825561523,2.249907970428467,2.008690118789673,0.9529,,
9,32,3160,-64.03243328707465,1.509133219718933,2.4240822792053223,2.1376285552978516,0.9526,,
10,32,3180,-82.63954596291651,1.3416593074798584,2.260685443878174,1.9550275802612305,0.9523,,
11,32,3200,-99.35234528265134,1.194347858428955,2.2145934104919434,2.004232168197632,0.952,,
12,33,3220,-33.48722214240844,1.4538723230361938,2.293494462966919,1.890501618385315,0.9517,,
13,33,3240,-89.55932542246752,1.8794351816177368,2.448969841003418,2.086021900177002,0.9514,,
14,33,3260,-140.10361953263876,1.0095970630645752,2.1204731464385986,1.792964220046997,0.9511000000000001,,
15,33,3280,-180.06172639784697,1.1533968448638916,2.324420690536499,1.9826741218566895,0.9508,,
16,33,3300,-199.42519344430815,1.3025556802749634,2.0420358180999756,1.7979912757873535,0.9505,,
17,34,3320,-23.564817212468053,0.9046400785446167,2.355198860168457,2.027219295501709,0.9502,,
18,34,3340,-46.08446337389881,1.6631609201431274,1.8123663663864136,1.5203531980514526,0.9499,,
19,34,3360,-69.42350524429956,0.5330938696861267,1.8912708759307861,1.6395511627197266,0.9496,,
20,34,3380,-99.59463349164878,1.139616847038269,2.025272846221924,1.83015775680542,0.9493,,
21,34,3400,-144.32785077155643,0.5903342366218567,1.9396190643310547,1.836280107498169,0.949,,
22,35,3420,-15.131178462900976,0.8117189407348633,1.7068631649017334,1.556781530380249,0.9487,,
23,35,3440,-33.014111479850754,0.89974045753479,2.446340799331665,2.237645387649536,0.9484,,
24,35,3460,-51.2214346450443,0.6887575387954712,1.894887089729309,1.8208067417144775,0.9480999999999999,,
25,35,3480,-68.65573052675532,2.250802516937256,2.076366662979126,1.897266149520874,0.9478,,
26,35,3500,-94.92857456705649,0.5905128121376038,1.8101390600204468,1.7053700685501099,0.9475,,
27,36,3520,-22.590810089039145,2.031449556350708,2.047574281692505,1.8079349994659424,0.9472,,
28,36,3540,-46.04062592631784,1.497084379196167,1.9671863317489624,1.7752259969711304,0.9469,,
29,36,3560,-77.37712424490996,0.6381855010986328,2.1027889251708984,2.028693437576294,0.9466,,
30,36,3580,-107.7193674940255,2.31050181388855,2.4483087062835693,2.340904712677002,0.9463,,
31,36,3600,-138.31716082515672,0.8690207600593567,1.9720816612243652,1.7941162586212158,0.946,,
32,37,3620,-20.232328121534252,0.7106937766075134,2.251246690750122,2.149824857711792,0.9457,,
33,37,3640,-50.714071632030645,1.2864078283309937,2.1709704399108887,2.0399010181427,0.9454,,
34,37,3660,-75.33107768896885,0.7513601779937744,2.4093973636627197,2.279491662979126,0.9451,,
35,37,3680,-104.26233863368684,0.5289919376373291,2.5104265213012695,2.4215893745422363,0.9448,,
36,37,3700,-128.8566260317528,0.49671992659568787,2.383227586746216,2.2944679260253906,0.9445,,
37,38,3720,-18.347518161363386,2.1798315048217773,2.3917031288146973,2.1571664810180664,0.9442,,
38,38,3740,-42.91879091355044,0.45838090777397156,2.369452953338623,2.204812526702881,0.9439,,
39,38,3760,-70.63855174550126,0.5012717843055725,2.064412832260132,1.9273585081100464,0.9436,,
40,38,3780,-105.37901538750276,1.453798532485962,2.373976707458496,2.099393129348755,0.9433,,
41,38,3800,-145.5153868582441,1.7823210954666138,2.4491617679595947,2.294414520263672,0.943,,
42,39,3820,-24.649380245412676,0.5700060725212097,2.321880340576172,2.136146068572998,0.9427,,
43,39,3840,-45.16936683282961,0.48362937569618225,2.023463487625122,1.9307409524917603,0.9424,,
44,39,3860,-70.68890855410571,1.199046015739441,2.1161983013153076,1.8972370624542236,0.9420999999999999,,
45,39,3880,-102.78835699495386,0.5691666603088379,2.3679568767547607,2.2144570350646973,0.9418,,
46,39,3900,-136.267749945175,0.5915446877479553,2.2513670921325684,2.067634344100952,0.9415,,
47,40,3920,-12.268548932816651,1.580747127532959,2.009552001953125,1.81284761428833,0.9412,,
48,40,3940,-29.984371739153993,0.45692527294158936,1.824269413948059,1.718623399734497,0.9409,,
49,40,3960,-48.62548831906013,0.958966076374054,1.89866304397583,1.7813754081726074,0.9406,,
50,40,3980,-79.20925361340589,0.5964787006378174,2.1660048961639404,2.0960822105407715,0.9403,,
51,40,4000,-101.03647742324885,1.0522016286849976,2.1803431510925293,2.054809331893921,0.94,,
52,41,4020,-18.32363552926631,0.3871707618236542,1.8463935852050781,1.7980717420578003,0.9397,,
53,41,4040,-46.85491016074672,0.6222672462463379,1.9738476276397705,1.920576572418213,0.9394,,
54,41,4060,-68.38706758620788,0.3532036542892456,1.9625962972640991,1.8836194276809692,0.9391,,
55,41,4080,-97.26446745088639,0.5254524350166321,2.1702780723571777,2.066006898880005,0.9388,,
56,41,4100,-136.98804880464874,0.414233922958374,1.95352303981781,1.8715285062789917,0.9385,,
57,42,4120,-23.190209267638878,0.4479951858520508,1.9077037572860718,1.7672598361968994,0.9382,,
58,42,4140,-50.15508325322794,0.5254389643669128,1.9006567001342773,1.6984343528747559,0.9379,,
59,42,4160,-87.21685824170369,0.4863320589065552,2.195824384689331,2.051851511001587,0.9376,,
60,42,4180,-132.6748352659861,0.31141865253448486,2.3484156131744385,2.193859100341797,0.9373,,
61,42,4200,-186.4343813977678,1.439618468284607,1.89700186252594,1.6601735353469849,0.9369999999999999,,
62,43,4220,-29.6456512544009,1.2676228284835815,2.560399293899536,2.3213536739349365,0.9367,,
63,43,4240,-56.18496178369082,2.4554388523101807,2.0767405033111572,1.7675288915634155,0.9364,,
64,43,4260,-78.49818154137697,0.5836320519447327,2.7400896549224854,2.5725905895233154,0.9361,,
65,43,4280,-108.62283079599945,1.5877623558044434,2.4435949325561523,2.200791597366333,0.9358,,
66,43,4300,-132.15861924865456,0.45105236768722534,1.979508876800537,1.9073330163955688,0.9355,,
67,44,4320,-8.694413779912008,0.49792492389678955,2.112362861633301,2.021298885345459,0.9352,,
68,44,4340,-20.395799411167744,0.30355244874954224,2.3902430534362793,2.40057373046875,0.9349,,
69,44,4360,-33.157539668162606,0.3865043818950653,2.3381733894348145,2.2427985668182373,0.9346,,
70,44,4380,-45.07580478765446,0.46890926361083984,2.0687835216522217,1.965748906135559,0.9343,,
71,44,4400,-62.72429830227543,0.533721923828125,2.260587215423584,2.202596664428711,0.9339999999999999,,
72,45,4420,-28.90482791044861,0.43599504232406616,2.231964588165283,2.2167704105377197,0.9337,,
73,45,4440,-59.74614704197868,0.4231167733669281,1.8166135549545288,1.7525192499160767,0.9334,,
74,45,4460,-110.61766905239249,2.6368191242218018,2.3242390155792236,2.086806058883667,0.9331,,
75,45,4480,-173.33469548421436,0.550719141960144,2.0870401859283447,1.965728759765625,0.9328,,
76,45,4500,-230.09250732703654,0.4705239534378052,2.4878573417663574,2.3552162647247314,0.9325,,
77,46,4520,-17.104273455744227,0.6005281209945679,2.318244695663452,2.1961612701416016,0.9322,,
78,46,4540,-36.34574729200496,1.235568642616272,2.148256301879883,1.9672677516937256,0.9319,,
79,46,4560,-53.77752773601621,1.6839468479156494,2.1694858074188232,2.0143768787384033,0.9316,,
80,46,4580,-73.76322469099469,0.31952473521232605,2.3563268184661865,2.223101854324341,0.9313,,
81,46,4600,-97.9082599877601,0.364657461643219,2.0675151348114014,1.955211877822876,0.931,,
82,47,4620,-23.345396368105586,1.2980566024780273,1.98256516456604,1.820899248123169,0.9307,,
83,47,4640,-48.85546040816363,1.31682550907135,2.1686084270477295,2.0049197673797607,0.9304,,
84,47,4660,-81.3556911297435,0.3408307731151581,2.0873000621795654,2.0038952827453613,0.9301,,
85,47,4680,-115.44690219765045,1.5150946378707886,2.255047082901001,2.1508328914642334,0.9298,,
86,47,4700,-134.3681654633173,0.2490966022014618,1.946303129196167,1.9419775009155273,0.9295,,
87,48,4720,-18.54878163679737,0.3770974576473236,2.364283323287964,2.295544147491455,0.9292,,
88,48,4740,-44.508301901309885,0.5841425657272339,1.868295669555664,1.7811766862869263,0.9289000000000001,,
89,48,4760,-69.24772550175744,0.6036250591278076,2.289754629135132,2.3017661571502686,0.9286,,
90,48,4780,-93.38323470086983,0.35344693064689636,1.9195469617843628,1.8855562210083008,0.9283,,
91,48,4800,-129.6837318421256,0.2940431237220764,2.280747413635254,2.298306941986084,0.9279999999999999,,
92,49,4820,-28.498774178951276,0.7244099378585815,2.1955366134643555,2.0732645988464355,0.9277,,
93,49,4840,-60.528601588316,1.1780463457107544,2.1415586471557617,1.9817818403244019,0.9274,,
94,49,4860,-87.40828892359976,0.47795966267585754,1.8777557611465454,1.7215059995651245,0.9271,,
95,49,4880,-116.02296534454065,0.9161766171455383,1.920587420463562,1.6882586479187012,0.9268,,
96,49,4900,-145.18330237382642,0.4166632294654846,2.197051525115967,2.0908031463623047,0.9265,,
97,50,4920,-22.1912420374038,0.3670796751976013,2.062251329421997,2.0048177242279053,0.9262,,
98,50,4940,-48.979299790193245,1.4638415575027466,2.466829776763916,2.2116940021514893,0.9259,,
99,50,4960,-90.00976294566938,0.4085884690284729,1.8312515020370483,1.7515027523040771,0.9256,,
100,50,4980,-140.6174885045386,0.2890549302101135,2.386125326156616,2.266369342803955,0.9253,,
101,50,5000,-208.01919991274468,1.0758603811264038,2.0697548389434814,1.8791604042053223,0.925,-509.7407851517578,-509.7407851517578
102,51,5020,-18.428329431598694,0.3135910928249359,1.9943757057189941,1.9005656242370605,0.9247,,
103,51,5040,-35.7691599460766,1.524410367012024,2.117626428604126,1.9092109203338623,0.9244,,
104,51,5060,-55.0875511386499,0.48870429396629333,2.2050626277923584,2.1421709060668945,0.9241,,
105,51,5080,-82.63291370673124,0.63264399766922,1.8799843788146973,1.86316978931427,0.9238,,
106,51,5100,-111.00205345683666,0.2562623918056488,1.912656307220459,1.9425978660583496,0.9235,,
107,52,5120,-35.272262459456684,0.3450261950492859,1.399662971496582,1.3376392126083374,0.9232,,
108,52,5140,-67.12511213605758,1.228979229927063,2.3165411949157715,2.1569972038269043,0.9229,,
109,52,5160,-92.05466194269802,1.2222613096237183,1.7542533874511719,1.68636953830719,0.9226,,
110,52,5180,-120.95308480800949,0.28309154510498047,1.6145763397216797,1.53358793258667,0.9223,,
111,52,5200,-155.0056277632447,0.33882564306259155,1.8967747688293457,1.8341546058654785,0.922,,
112,53,5220,-35.50288055519942,0.43174922466278076,2.1628928184509277,2.0334558486938477,0.9217,,
113,53,5240,-60.18962023055331,0.3837933838367462,2.07985520362854,1.9348723888397217,0.9214,,
114,53,5260,-92.78200174920303,0.3722498118877411,1.6445152759552002,1.5057005882263184,0.9211,,
115,53,5280,-131.73932416500048,1.3504606485366821,1.8407738208770752,1.6682114601135254,0.9208000000000001,,
116,53,5300,-177.91923301298132,0.4007346034049988,2.0288984775543213,1.8769022226333618,0.9205,,
117,54,5320,-13.512632841984361,0.6412074565887451,2.0478525161743164,1.9116418361663818,0.9202,,
118,54,5340,-27.263259428123405,0.26802101731300354,2.014622926712036,1.89905846118927,0.9198999999999999,,
119,54,5360,-41.47070986718326,0.25051358342170715,2.034227132797241,1.9515693187713623,0.9196,,
120,54,5380,-57.37415616998625,0.3610045313835144,1.8686267137527466,1.7238428592681885,0.9193,,
121,54,5400,-89.463180507316,0.8843708038330078,1.9031645059585571,1.7644590139389038,0.919,,
122,55,5420,-19.718356603684988,0.5203616619110107,2.1451334953308105,2.163515567779541,0.9187,,
123,55,5440,-36.18447851399982,0.5199652910232544,1.8303719758987427,1.748200535774231,0.9184,,
124,55,5460,-59.75863678757345,0.4298015534877777,1.624802827835083,1.5912189483642578,0.9181,,
125,55,5480,-81.52637874668386,0.4574825167655945,2.1562843322753906,2.097489833831787,0.9178,,
126,55,5500,-101.4387551671252,0.2683153748512268,1.7122300863265991,1.665499210357666,0.9175,,
127,56,5520,-17.59927915085899,0.8109371066093445,1.8859736919403076,1.8827818632125854,0.9172,,
128,56,5540,-34.70815506806688,1.3019049167633057,2.8678510189056396,2.7842752933502197,0.9169,,
129,56,5560,-67.28203192711103,0.32060563564300537,2.2274069786071777,2.2076642513275146,0.9166,,
130,56,5580,-110.97946140215532,2.027508020401001,2.174745798110962,2.009493112564087,0.9163,,
131,56,5600,-144.998217792253,1.0984402894973755,2.1537790298461914,1.9895763397216797,0.916,,
132,57,5620,-15.9115777734628,2.312156915664673,2.419201135635376,2.227806568145752,0.9157,,
133,57,5640,-39.15903146761266,0.47917473316192627,2.161513090133667,2.0483531951904297,0.9154,,
134,57,5660,-64.56886536574936,0.3165733218193054,2.0294241905212402,1.9260395765304565,0.9151,,
135,57,5680,-90.50492064421283,2.0646920204162598,2.0534286499023438,1.9233694076538086,0.9148000000000001,,
136,57,5700,-116.01358368279521,0.904494047164917,1.8500078916549683,1.7679109573364258,0.9145,,
137,58,5720,-19.551011212873252,0.46986123919487,2.1037003993988037,2.035794734954834,0.9142,,
138,58,5740,-46.98695765747673,0.4586326479911804,2.2278811931610107,2.156726837158203,0.9139,,
139,58,5760,-73.70200734694637,1.166572093963623,2.2856667041778564,2.2055861949920654,0.9136,,
140,58,5780,-106.47555688118587,0.30096620321273804,1.8505334854125977,1.8494162559509277,0.9133,,
141,58,5800,-136.0836347002033,0.40193966031074524,2.213432788848877,2.131936550140381,0.913,,
142,59,5820,-20.701986315821948,0.8736695647239685,1.7215838432312012,1.5271341800689697,0.9127,,
143,59,5840,-44.785403215537656,1.8735241889953613,2.2964165210723877,2.0501763820648193,0.9124,,
144,59,5860,-76.66378578483095,0.23526625335216522,1.6711153984069824,1.592450499534607,0.9121,,
145,59,5880,-105.29891309063103,0.47134870290756226,2.3020594120025635,2.214733123779297,0.9117999999999999,,
146,59,5900,-138.51901328792073,0.8502402305603027,2.2649636268615723,2.0546092987060547,0.9115,,
147,60,5920,-14.124203685048016,0.4830886423587799,1.854625940322876,1.6237750053405762,0.9112,,
148,60,5940,-31.427530887449855,0.7892943024635315,2.1502063274383545,2.0202219486236572,0.9109,,
149,60,5960,-50.372807922568626,0.6130558252334595,2.3386807441711426,2.1913256645202637,0.9106,,
150,60,5980,-72.77334205897957,5.1826982498168945,2.3970797061920166,2.103421449661255,0.9103,,
151,60,6000,-94.68700104843484,0.6873668432235718,1.9273271560668945,1.859541416168213,0.91,,
152,61,6020,-16.37729497314823,0.20990873873233795,1.7377902269363403,1.6891759634017944,0.9097,,
153,61,6040,-37.110383125412056,0.5123400688171387,2.573246479034424,2.5591487884521484,0.9094,,
154,61,6060,-55.34456099789274,0.33231520652770996,2.053455352783203,2.0048444271087646,0.9091,,
155,61,6080,-78.4755108272871,0.3486936092376709,2.068115234375,2.11383318901062,0.9088,,
156,61,6100,-116.48746551402903,0.44364744424819946,1.8121381998062134,1.7473664283752441,0.9085,,
157,62,6120,-14.270266901798312,0.48298874497413635,1.906578779220581,1.8375333547592163,0.9082,,
158,62,6140,-35.20730218074578,0.31684717535972595,1.9788511991500854,1.9233897924423218,0.9079,,
159,62,6160,-66.64951413954738,0.1986253410577774,2.1026740074157715,2.023477077484131,0.9076,,
160,62,6180,-88.72781590404995,0.6809569597244263,1.7774074077606201,1.600582242012024,0.9073,,
161,62,6200,-107.91463263063206,0.2012500911951065,1.706054449081421,1.6347723007202148,0.907,,
162,63,6220,-19.693336697955107,0.2164059728384018,1.6547579765319824,1.5149668455123901,0.9067,,
163,63,6240,-48.77917780935631,0.9957143068313599,2.0769338607788086,1.9165081977844238,0.9064,,
164,63,6260,-88.66507699948149,1.0484265089035034,1.8739020824432373,1.697190284729004,0.9061,,
165,63,6280,-132.52193690745753,0.2092941850423813,1.6807023286819458,1.5770422220230103,0.9057999999999999,,
166,63,6300,-177.4529554239157,1.3080604076385498,2.4787259101867676,2.3543190956115723,0.9055,,
167,64,6320,-17.184047871049348,0.3605683445930481,2.3257558345794678,2.3078815937042236,0.9052,,
168,64,6340,-34.06659282520764,0.3784746527671814,1.794602394104004,1.7781771421432495,0.9049,,
169,64,6360,-49.08541739196462,1.0392400026321411,2.294482469558716,2.1634345054626465,0.9046,,
170,64,6380,-69.52304483410752,0.20939600467681885,2.244704484939575,2.2435710430145264,0.9043,,
171,64,6400,-89.07370801238584,0.6838977932929993,2.1447930335998535,2.117894411087036,0.904,,
172,65,6420,-11.806718232937005,1.8717716932296753,2.069514274597168,1.960414171218872,0.9037,,
173,65,6440,-29.362584615998333,0.34961965680122375,2.1088216304779053,1.9957067966461182,0.9034,,
174,65,6460,-47.916235051140774,0.33567124605178833,2.0592846870422363,2.029648780822754,0.9031,,
175,65,6480,-66.46794157284704,0.5633434653282166,2.0044360160827637,1.9194581508636475,0.9028,,
176,65,6500,-90.20701443672175,1.0298153162002563,1.695311427116394,1.548163890838623,0.9025,,
177,66,6520,-21.745029325982877,0.27927228808403015,1.8022992610931396,1.6991338729858398,0.9022,,
178,66,6540,-43.795426307985615,0.347843199968338,1.6871094703674316,1.5402381420135498,0.9019,,
179,66,6560,-66.7000939593649,0.21972842514514923,1.7633978128433228,1.6886208057403564,0.9016,,
180,66,6580,-91.64786698068363,0.4386865794658661,1.710700273513794,1.5843980312347412,0.9013,,
181,66,6600,-128.0541643463001,0.2833026945590973,1.6020066738128662,1.520100474357605,0.901,,
182,67,6620,-24.024254511479242,0.24930086731910706,1.9409773349761963,1.8734791278839111,0.9007,,
183,67,6640,-53.996844016000935,0.34270739555358887,1.6100096702575684,1.5597320795059204,0.9004,,
184,67,6660,-94.70895063505805,0.27759844064712524,1.9271767139434814,1.854607105255127,0.9001,,
185,67,6680,-150.2700581612385,0.5461809635162354,1.6318354606628418,1.5407005548477173,0.8997999999999999,,
186,67,6700,-198.69680432190026,0.6907556653022766,1.618962287902832,1.6086217164993286,0.8995,,
187,68,6720,-21.518432125394327,0.39406901597976685,1.4608932733535767,1.3775686025619507,0.8992,,
188,68,6740,-43.42436724819257,0.17768937349319458,1.6158421039581299,1.6070235967636108,0.8989,,
189,68,6760,-79.07570466743742,0.9810957312583923,1.9631246328353882,1.9390537738800049,0.8986,,
190,68,6780,-125.3425561407478,0.21892961859703064,1.6208572387695312,1.574218988418579,0.8983,,
191,68,6800,-161.20002775124573,0.2942695915699005,1.889404535293579,1.8883253335952759,0.898,,
192,69,6820,-23.494458590241997,0.24679911136627197,1.9384751319885254,1.9418940544128418,0.8976999999999999,,
193,69,6840,-51.09134958390936,0.20167410373687744,1.5580384731292725,1.4634919166564941,0.8974,,
194,69,6860,-101.72268622763917,0.8466312885284424,1.9587821960449219,1.827974557876587,0.8971,,
195,69,6880,-171.07971614815818,0.6901713609695435,1.9029786586761475,1.8256572484970093,0.8968,,
196,69,6900,-235.54763232531133,0.33810123801231384,2.205338716506958,2.133866786956787,0.8965,,
197,70,6920,-15.18699268201626,1.310110330581665,1.6938414573669434,1.5045013427734375,0.8962,,
198,70,6940,-25.962042021792747,0.6939671635627747,1.8446738719940186,1.6898274421691895,0.8959,,
199,70,6960,-44.4167884444092,1.160200834274292,1.8047796487808228,1.6015503406524658,0.8956,,
200,70,6980,-73.36140027458731,0.48905056715011597,1.5542545318603516,1.3778024911880493,0.8953,,
201,70,7000,-113.14043921425612,0.26832178235054016,2.0712192058563232,2.00095796585083,0.895,,
202,71,7020,-23.559009260787327,0.9221601486206055,1.9802765846252441,1.9175347089767456,0.8947,,
203,71,7040,-46.837840884241785,0.28079965710639954,1.8852026462554932,1.8591680526733398,0.8944,,
204,71,7060,-69.30798506288822,0.6658204197883606,1.9847065210342407,1.9492751359939575,0.8941,,
205,71,7080,-99.78095044380983,0.24037188291549683,1.8122434616088867,1.8168975114822388,0.8938,,
206,71,7100,-140.80774519651078,0.23993605375289917,1.722274661064148,1.7034697532653809,0.8935,,
207,72,7120,-26.49427877838328,0.6799464821815491,1.7447707653045654,1.6729679107666016,0.8932,,
208,72,7140,-51.8157814319514,1.2223893404006958,2.025944709777832,1.8642035722732544,0.8929,,
209,72,7160,-83.0125638788434,0.3848446309566498,1.5463329553604126,1.4184927940368652,0.8926000000000001,,
210,72,7180,-110.35763414293709,0.18662092089653015,1.4977771043777466,1.4721626043319702,0.8923,,
211,72,7200,-137.4853137185369,0.4285171329975128,1.955171823501587,1.8477683067321777,0.892,,
212,73,7220,-25.8510840198313,0.3488154709339142,1.8261107206344604,1.6990001201629639,0.8916999999999999,,
213,73,7240,-48.89611278792575,3.570037841796875,1.7358860969543457,1.5486267805099487,0.8914,,
214,73,7260,-70.4480982110756,0.29866987466812134,2.0092368125915527,1.967242956161499,0.8911,,
215,73,7280,-94.00599744449488,0.9144719243049622,1.4501128196716309,1.344404935836792,0.8908,,
216,73,7300,-122.21536213442506,1.5644100904464722,1.957014560699463,1.8535828590393066,0.8905,,
217,74,7320,-25.80853000938543,0.3036844730377197,1.6587094068527222,1.680532693862915,0.8902,,
218,74,7340,-58.03591754021834,0.22574695944786072,2.0605387687683105,2.1078810691833496,0.8899,,
219,74,7360,-91.52353330296826,0.2330358326435089,1.447929859161377,1.448969841003418,0.8896,,
220,74,7380,-125.29791098309457,0.36082297563552856,1.7747647762298584,1.7987772226333618,0.8893,,
221,74,7400,-151.3810939697659,0.4101599454879761,1.5846987962722778,1.5254833698272705,0.889,,
222,75,7420,-19.940737827424133,0.28175801038742065,2.054111957550049,2.0322964191436768,0.8887,,
223,75,7440,-58.44161713232249,0.5562489032745361,2.013500213623047,1.9511253833770752,0.8884,,
224,75,7460,-107.45072940893647,0.3241409659385681,1.999980092048645,1.9762588739395142,0.8881,,
225,75,7480,-161.9829443281967,0.27816760540008545,1.9466782808303833,1.9631166458129883,0.8878,,
226,75,7500,-222.6146825395218,0.7685790657997131,1.6338824033737183,1.5225074291229248,0.8875,-357.7393480636532,-357.7393480636532
227,76,7520,-14.36879455636612,0.6606505513191223,2.049940347671509,1.9187688827514648,0.8872,,
228,76,7540,-33.14716786777275,0.26134195923805237,1.867569923400879,1.7292662858963013,0.8869,,
229,76,7560,-59.55425593366997,0.37438368797302246,1.6186472177505493,1.5343506336212158,0.8866,,
230,76,7580,-107.05236595851662,0.6598548293113708,2.1595492362976074,1.9828617572784424,0.8863,,
231,76,7600,-174.68397060399118,0.24522294104099274,2.112583637237549,1.9831910133361816,0.886,,
232,77,7620,-21.22218938959839,0.6922273635864258,2.2679085731506348,2.095052719116211,0.8857,,
233,77,7640,-46.01114341770481,1.2787396907806396,2.7065927982330322,2.599937677383423,0.8854,,
234,77,7660,-67.79556727753794,0.4841366112232208,1.6515129804611206,1.5061365365982056,0.8851,,
235,77,7680,-99.35724211825462,0.7158001065254211,1.8487046957015991,1.804818034172058,0.8848,,
236,77,7700,-143.27971863599208,0.34585845470428467,2.201127767562866,2.1381349563598633,0.8845000000000001,,
237,78,7720,-37.910864660499385,0.9363067150115967,1.8523976802825928,1.699694037437439,0.8842,,
238,78,7740,-78.91025959256875,3.0482516288757324,1.9259026050567627,1.71946120262146,0.8839,,
239,78,7760,-133.8471055761719,0.29815924167633057,2.0464868545532227,1.970834493637085,0.8835999999999999,,
240,78,7780,-188.75574301122523,0.4002336859703064,1.9659714698791504,1.8901711702346802,0.8833,,
241,78,7800,-255.3863127452883,0.6953516602516174,1.9621015787124634,1.802532434463501,0.883,,
242,79,7820,-18.42331078817775,0.34149235486984253,1.6241806745529175,1.50741708278656,0.8827,,
243,79,7840,-36.34149149839381,0.3157469630241394,2.7806248664855957,2.6971352100372314,0.8824,,
244,79,7860,-51.357261910743624,0.38531631231307983,1.842111349105835,1.7866287231445312,0.8821,,
245,79,7880,-68.86817559432916,0.559416651725769,2.1363463401794434,2.038541793823242,0.8818,,
246,79,7900,-91.41463321822161,0.43555504083633423,2.037976026535034,2.0249898433685303,0.8815,,
247,80,7920,-8.517091351674246,0.9891946911811829,2.4047224521636963,2.2043497562408447,0.8812,,
248,80,7940,-22.934681584661302,0.27382469177246094,2.3326804637908936,2.264683723449707,0.8809,,
249,80,7960,-44.49953993241325,0.2335619181394577,2.1012680530548096,2.033156156539917,0.8806,,
250,80,7980,-69.3242953521611,0.5006444454193115,1.5580447912216187,1.4573255777359009,0.8803,,
251,80,8000,-110.37404774211892,0.2913758456707001,2.348529815673828,2.3234517574310303,0.88,,
252,81,8020,-39.30786044905165,0.21191221475601196,2.122643232345581,2.0629403591156006,0.8797,,
253,81,8040,-66.19890282581237,1.009958267211914,1.9290616512298584,1.7574782371520996,0.8794,,
254,81,8060,-81.17786976204398,0.42343956232070923,2.2212250232696533,2.1419851779937744,0.8791,,
255,81,8080,-99.16904587140066,0.6262622475624084,1.7945821285247803,1.714988112449646,0.8788,,
256,81,8100,-130.07729569363644,0.9046599268913269,2.1867053508758545,2.1020615100860596,0.8785,,
257,82,8120,-20.642593000996026,0.298709899187088,1.908064603805542,1.847651720046997,0.8782,,
258,82,8140,-44.05405757031959,8.609970092773438,2.272500514984131,2.075810670852661,0.8779,,
259,82,8160,-69.82492380600567,0.2374129742383957,2.2642111778259277,2.2693569660186768,0.8775999999999999,,
260,82,8180,-104.37335001279543,0.25427401065826416,1.8776881694793701,1.8517467975616455,0.8773,,
261,82,8200,-161.19278132852838,1.1411844491958618,2.093606472015381,1.9166598320007324,0.877,,
262,83,8220,-20.767530295360555,0.3331886827945709,1.908194661140442,1.8315789699554443,0.8767,,
263,83,8240,-41.01748909556643,0.31955695152282715,1.852860450744629,1.6951361894607544,0.8764,,
264,83,8260,-63.497145630699755,1.2054296731948853,2.1492724418640137,1.9836437702178955,0.8761,,
265,83,8280,-88.60197710503235,0.18155187368392944,1.7582560777664185,1.6888748407363892,0.8758,,
266,83,8300,-106.15733867112499,0.3202168047428131,1.9231972694396973,1.8235983848571777,0.8755,,
267,84,8320,-12.413515189405176,0.19734002649784088,1.616138219833374,1.5628328323364258,0.8752,,
268,84,8340,-24.51681869422655,0.1731528639793396,1.833392858505249,1.8139173984527588,0.8749,,
269,84,8360,-35.399876692991164,0.3389692008495331,1.9527136087417603,1.9163539409637451,0.8746,,
270,84,8380,-44.731027290766555,1.3606220483779907,2.1499109268188477,2.0479507446289062,0.8743,,
271,84,8400,-55.78773932931408,0.8179568648338318,2.1355693340301514,2.0520341396331787,0.874,,
272,85,8420,-21.582576881214916,8.587733268737793,2.3598814010620117,2.074201822280884,0.8737,,
273,85,8440,-58.38764635581888,0.6668248176574707,1.9882620573043823,1.9762622117996216,0.8734,,
274,85,8460,-91.78661931053219,0.6103430390357971,2.176422595977783,2.1480579376220703,0.8731,,
275,85,8480,-114.31607805505791,0.8092259168624878,1.773486852645874,1.7522425651550293,0.8728,,
276,85,8500,-133.91822264251905,0.7028965950012207,1.6672322750091553,1.63393235206604,0.8725,,
277,86,8520,-20.741525225747935,4.439062595367432,2.358891010284424,2.1860711574554443,0.8722,,
278,86,8540,-52.618735907906384,0.7643915414810181,2.2113494873046875,2.1082746982574463,0.8719,,
279,86,8560,-75.57496997793031,0.2083551585674286,1.9819608926773071,2.0213446617126465,0.8715999999999999,,
280,86,8580,-99.42610147640487,1.58064866065979,1.5671314001083374,1.452707052230835,0.8713,,
281,86,8600,-118.9210089138956,0.22710725665092468,1.8581233024597168,1.8368687629699707,0.871,,
282,87,8620,-21.43960443991884,0.5759045481681824,2.080048084259033,1.9041132926940918,0.8707,,
283,87,8640,-36.74190727450003,3.552962303161621,2.030141592025757,1.8030786514282227,0.8704000000000001,,
284,87,8660,-52.46364580624807,1.2816027402877808,1.798811674118042,1.6736222505569458,0.8701,,
285,87,8680,-73.57467945666588,3.836322069168091,2.2803597450256348,2.123474359512329,0.8698,,
286,87,8700,-113.92533958237738,0.3256617486476898,2.1985604763031006,2.1764845848083496,0.8694999999999999,,
287,88,8720,-22.002869076394887,0.8932603597640991,1.8936936855316162,1.8863540887832642,0.8692,,
288,88,8740,-45.55008672183716,0.2916836142539978,1.67983078956604,1.6616322994232178,0.8689,,
289,88,8760,-77.35693427147265,0.27702203392982483,1.7106451988220215,1.7540839910507202,0.8686,,
290,88,8780,-123.96849400399584,7.243879318237305,1.9291942119598389,1.6841567754745483,0.8683,,
291,88,8800,-172.6877950763268,0.9941362142562866,1.9344860315322876,1.8436200618743896,0.868,,
292,89,8820,-23.496688647028094,0.7285858392715454,1.7582019567489624,1.695356011390686,0.8677,,
293,89,8840,-45.64397214099779,1.3185274600982666,1.930366039276123,1.8457682132720947,0.8674,,
294,89,8860,-71.57868123345713,0.29757198691368103,2.413681983947754,2.37766695022583,0.8671,,
295,89,8880,-97.23778573863954,2.8983922004699707,1.9651670455932617,1.8467943668365479,0.8668,,
296,89,8900,-118.80554020470169,0.2166774570941925,2.015871047973633,1.9492603540420532,0.8665,,
297,90,8920,-9.22252830652166,0.25408023595809937,2.1639933586120605,2.082470655441284,0.8662,,
298,90,8940,-25.70427087175799,1.5491242408752441,2.2506957054138184,2.026343584060669,0.8659,,
299,90,8960,-47.34379030694331,2.4688804149627686,1.7324424982070923,1.5275651216506958,0.8655999999999999,,
300,90,8980,-78.96661938592892,0.7368777394294739,2.049729585647583,1.920346736907959,0.8653,,
301,90,9000,-111.17120519785655,2.296753406524658,1.8647383451461792,1.6719621419906616,0.865,,
302,91,9020,-17.41202184448434,0.6012366414070129,1.8769093751907349,1.7741477489471436,0.8647,,
303,91,9040,-42.58940754542873,0.3157312572002411,1.957085371017456,1.9360357522964478,0.8644000000000001,,
304,91,9060,-60.83904869092041,0.3886816203594208,1.7758865356445312,1.7101874351501465,0.8641,,
305,91,9080,-85.87467082713461,0.26602810621261597,1.7278809547424316,1.6677660942077637,0.8638,,
306,91,9100,-113.36891608298824,0.20917049050331116,1.7427092790603638,1.6690912246704102,0.8634999999999999,,
307,92,9120,-18.2066685319871,0.6308056712150574,1.89301598072052,1.8546816110610962,0.8632,,
308,92,9140,-42.0405881160981,0.4440677762031555,1.6738120317459106,1.5684690475463867,0.8629,,
309,92,9160,-74.6029355769548,0.8062910437583923,1.5726571083068848,1.497122049331665,0.8626,,
310,92,9180,-103.78042879230237,0.729258120059967,1.6775269508361816,1.556795358657837,0.8623000000000001,,
311,92,9200,-137.98704625791834,0.28415316343307495,2.107006072998047,2.0335066318511963,0.862,,
312,93,9220,-10.645471368068467,3.0208635330200195,1.863516092300415,1.6463730335235596,0.8617,,
313,93,9240,-26.886158121864394,0.628331184387207,1.9187376499176025,1.8530070781707764,0.8613999999999999,,
314,93,9260,-52.7109947119429,0.5365694761276245,2.4318528175354004,2.385462522506714,0.8611,,
315,93,9280,-83.06831873469055,0.26326146721839905,1.4557839632034302,1.3952817916870117,0.8608,,
316,93,9300,-113.32260962987631,0.21187376976013184,2.016747236251831,1.939420461654663,0.8605,,
317,94,9320,-18.30871295757017,0.6872411370277405,2.15793776512146,2.0243022441864014,0.8602,,
318,94,9340,-40.71309223431185,2.5318586826324463,2.1657257080078125,1.8903992176055908,0.8599,,
319,94,9360,-75.45539212696028,0.9783526659011841,1.9071918725967407,1.7432481050491333,0.8596,,
320,94,9380,-104.99821281354642,0.2276926040649414,1.9388885498046875,1.8337538242340088,0.8593,,
321,94,9400,-132.74127416451304,0.32925426959991455,1.675542950630188,1.6127173900604248,0.859,,
322,95,9420,-24.71870840195879,0.2526337802410126,1.6117501258850098,1.4683750867843628,0.8587,,
323,95,9440,-43.21643558461128,2.1573054790496826,1.682494878768921,1.5176924467086792,0.8584,,
324,95,9460,-71.9668767730462,1.177841067314148,1.6723685264587402,1.6045758724212646,0.8581,,
325,95,9480,-117.65041578746612,0.6927343606948853,1.4599192142486572,1.4040125608444214,0.8578,,
326,95,9500,-173.18859309435734,0.9154559969902039,1.6766908168792725,1.5826939344406128,0.8575,,
327,96,9520,-25.017109226222708,0.8202246427536011,1.4620877504348755,1.4297170639038086,0.8572,,
328,96,9540,-45.308765784359345,0.5730974674224854,1.453159213066101,1.4445087909698486,0.8569,,
329,96,9560,-72.59556686803454,0.34849289059638977,1.7428350448608398,1.8242805004119873,0.8566,,
330,96,9580,-105.77785383008168,0.2782454490661621,1.6665213108062744,1.7684954404830933,0.8563,,
331,96,9600,-146.30387748776175,1.771520733833313,1.9366008043289185,1.907979130744934,0.856,,
332,97,9620,-39.600474371959585,2.850837230682373,2.135096311569214,1.9965723752975464,0.8557,,
333,97,9640,-75.4177690447931,0.4795030355453491,2.3793044090270996,2.2957186698913574,0.8553999999999999,,
334,97,9660,-91.79227825196965,7.333820819854736,1.8275548219680786,1.6876089572906494,0.8551,,
335,97,9680,-124.25167935600766,0.21646897494792938,1.8847687244415283,1.8947827816009521,0.8548,,
336,97,9700,-159.2408323296492,0.1917128711938858,1.0932960510253906,1.135624647140503,0.8545,,
337,98,9720,-18.031111289981467,0.408886581659317,1.9747217893600464,1.9499412775039673,0.8542,,
338,98,9740,-39.13260057990425,5.0563764572143555,1.71268630027771,1.4245100021362305,0.8539,,
339,98,9760,-59.854109125272004,0.2875209450721741,2.2918550968170166,2.1687092781066895,0.8536,,
340,98,9780,-87.11507997508464,0.2670918107032776,1.8182003498077393,1.6728065013885498,0.8533,,
341,98,9800,-126.20787875922672,1.478026270866394,1.6507337093353271,1.4861851930618286,0.853,,
342,99,9820,-22.082389324666465,3.2446391582489014,1.5288019180297852,1.268742322921753,0.8527,,
343,99,9840,-47.620426251781076,1.3198015689849854,1.8453350067138672,1.6389397382736206,0.8524,,
344,99,9860,-71.42016963006074,0.6531196236610413,1.6969130039215088,1.6353678703308105,0.8521,,
345,99,9880,-99.07940011582674,1.1974525451660156,1.6263703107833862,1.532425880432129,0.8518,,
346,99,9900,-127.61428369145547,2.4178943634033203,1.4832127094268799,1.3487913608551025,0.8514999999999999,,
347,100,9920,-13.070777256820826,0.22153566777706146,1.3456509113311768,1.330916166305542,0.8512,,
348,100,9940,-31.94222842062712,0.4683087468147278,1.7056626081466675,1.703648567199707,0.8509,,
349,100,9960,-55.51212157284819,1.1974629163742065,1.5497239828109741,1.5134387016296387,0.8506,,
350,100,9980,-95.8065273031682,0.5199845433235168,1.2097033262252808,1.177871823310852,0.8503000000000001,,
351,100,10000,-157.5333537613179,0.574174165725708,1.7426284551620483,1.7233705520629883,0.85,-366.5117720393047,-366.5117720393047
352,101,10020,-18.674931867727604,1.3952124118804932,1.9022390842437744,1.8425571918487549,0.8497,,
353,101,10040,-44.7310957928159,2.36098575592041,1.9950824975967407,1.8972105979919434,0.8493999999999999,,
354,101,10060,-90.24081609699999,0.3343627154827118,1.9872932434082031,1.9446702003479004,0.8491,,
355,101,10080,-128.78159735903054,0.3073958158493042,1.4451849460601807,1.426575779914856,0.8488,,
356,101,10100,-160.63098522195094,0.2700527608394623,1.7100690603256226,1.611984372138977,0.8485,,
357,102,10120,-25.686841610697616,0.9494906067848206,1.3044565916061401,1.1250548362731934,0.8482000000000001,,
358,102,10140,-69.62646383286217,2.5636138916015625,1.8876886367797852,1.6560499668121338,0.8479,,
359,102,10160,-116.60116362369769,0.8247374296188354,1.6919372081756592,1.53828763961792,0.8476,,
360,102,10180,-169.1128000591817,0.3023488223552704,1.8734641075134277,1.7447737455368042,0.8472999999999999,,
361,102,10200,-207.5634029757337,0.3079129457473755,1.6300995349884033,1.6013996601104736,0.847,,
362,103,10220,-16.707897377022718,0.2506650984287262,1.714009165763855,1.6720503568649292,0.8467,,
363,103,10240,-39.61964558326249,0.3871315121650696,2.1789515018463135,2.0382814407348633,0.8464,,
364,103,10260,-65.72831903802476,0.286721795797348,1.6374534368515015,1.5995256900787354,0.8461,,
365,103,10280,-96.22013401735872,7.1317524909973145,2.3470325469970703,2.0946877002716064,0.8458,,
366,103,10300,-135.31455942984985,0.7409303784370422,1.3116134405136108,1.1459726095199585,0.8455,,
367,104,10320,-32.29426023162638,1.032513976097107,1.9346473217010498,1.7062207460403442,0.8452,,
368,104,10340,-72.61463938654306,6.602762699127197,1.5565613508224487,1.32417631149292,0.8449,,
369,104,10360,-132.61385993228936,0.6332180500030518,1.3860697746276855,1.3459265232086182,0.8446,,
370,104,10380,-205.84800376498083,0.2696513235569,1.734079360961914,1.7737723588943481,0.8443,,
371,104,10400,-291.47503769505323,0.4811820387840271,1.7081215381622314,1.691823124885559,0.844,,
372,105,10420,-16.47076075171738,0.9272831678390503,1.6557954549789429,1.6193671226501465,0.8437,,
373,105,10440,-40.713628894714226,0.23357678949832916,1.493185043334961,1.473086953163147,0.8434,,
374,105,10460,-76.69287409647049,0.67511385679245,1.2970120906829834,1.193972110748291,0.8431,,
375,105,10480,-93.24911170426063,1.028403878211975,1.8875212669372559,1.8721904754638672,0.8428,,
376,105,10500,-116.24108707854651,1.9345128536224365,2.0285520553588867,1.8903173208236694,0.8425,,
377,106,10520,-22.710190556960193,0.8550426363945007,1.5906535387039185,1.5028164386749268,0.8422,,
378,106,10540,-48.19621209532226,0.6960881352424622,2.0904035568237305,2.036498546600342,0.8419,,
379,106,10560,-72.68013250010026,3.6588134765625,1.9350718259811401,1.609856128692627,0.8416,,
380,106,10580,-94.60998032305898,0.9295509457588196,2.2683162689208984,2.1610755920410156,0.8412999999999999,,
381,106,10600,-123.00966877263556,0.8068053722381592,1.5288379192352295,1.4278275966644287,0.841,,
382,107,10620,-31.282430424048776,0.2475697249174118,1.7572236061096191,1.718904972076416,0.8407,,
383,107,10640,-74.52249654285319,0.4393698573112488,1.930354356765747,1.955399751663208,0.8404,,
384,107,10660,-132.42041656916274,0.5153064727783203,1.4963221549987793,1.4202690124511719,0.8401,,
385,107,10680,-193.76665193973645,0.45945364236831665,1.8569903373718262,1.7956849336624146,0.8398,,
386,107,10700,-251.20407891352448,0.4707105755805969,1.741105079650879,1.6158382892608643,0.8395,,
387,108,10720,-21.96852826854908,0.2562113106250763,1.8906992673873901,1.794708490371704,0.8392,,
388,108,10740,-39.08361329897382,0.3466706871986389,2.0096678733825684,1.9177672863006592,0.8389,,
389,108,10760,-60.87833266092319,1.251733422279358,1.429277777671814,1.232825517654419,0.8386,,
390,108,10780,-94.57030311097061,0.6088571548461914,1.9018568992614746,1.766366720199585,0.8383,,
391,108,10800,-122.0629713620898,2.3132801055908203,1.242529273033142,1.097487211227417,0.838,,
392,109,10820,-17.515357027212584,0.22460632026195526,1.7557315826416016,1.7499966621398926,0.8377,,
393,109,10840,-37.88423562553442,0.6151427030563354,1.7383915185928345,1.6404231786727905,0.8374,,
394,109,10860,-61.89262254787473,0.6495530605316162,1.1542854309082031,1.0644851922988892,0.8371,,
395,109,10880,-79.88181596396356,1.2973639965057373,1.8538732528686523,1.7009406089782715,0.8368,,
396,109,10900,-103.98499425596874,0.5097757577896118,1.5171257257461548,1.529226303100586,0.8365,,
397,110,10920,-21.773290764610763,0.6234134435653687,2.150534152984619,2.2002649307250977,0.8362,,
398,110,10940,-54.67873352536767,1.0687828063964844,1.5746647119522095,1.4718983173370361,0.8359,,
399,110,10960,-73.826438866284,0.31414929032325745,1.1158438920974731,1.1393364667892456,0.8356,,
400,110,10980,-97.73979550684493,1.8069020509719849,1.7255582809448242,1.5702003240585327,0.8352999999999999,,
401,110,11000,-124.32753003663711,0.3002742528915405,1.9264823198318481,1.9356658458709717,0.835,,
402,111,11020,-18.02502464272073,0.48794126510620117,1.960045337677002,1.90510892868042,0.8347,,
403,111,11040,-38.42740081903652,0.33260324597358704,1.1479684114456177,1.0829917192459106,0.8344,,
404,111,11060,-70.60571925545575,0.5194108486175537,1.4756468534469604,1.3212409019470215,0.8341000000000001,,
405,111,11080,-113.00263864432948,0.8383930325508118,1.6493396759033203,1.4834938049316406,0.8338,,
406,111,11100,-165.42789669236265,2.5890746116638184,1.6954113245010376,1.5440285205841064,0.8335,,
407,112,11120,-21.386766612419528,0.33807215094566345,1.485893964767456,1.3971564769744873,0.8331999999999999,,
408,112,11140,-47.27222231948146,0.7910230159759521,1.571105718612671,1.4595330953598022,0.8329,,
409,112,11160,-83.2324118875322,1.2214082479476929,1.6365749835968018,1.5093778371810913,0.8326,,
410,112,11180,-117.03231327193515,2.3152782917022705,1.6840718984603882,1.4809761047363281,0.8323,,
411,112,11200,-172.07814852977074,1.2840356826782227,1.6007988452911377,1.4474941492080688,0.832,,
412,113,11220,-19.962666327079667,0.6465269923210144,1.4413700103759766,1.4119839668273926,0.8317,,
413,113,11240,-34.37931157331938,0.5186237096786499,1.4412492513656616,1.4713488817214966,0.8314,,
414,113,11260,-54.25063899091542,0.6187106370925903,1.372174859046936,1.3910475969314575,0.8311,,
415,113,11280,-79.49485979535731,0.25652724504470825,1.2457040548324585,1.2536628246307373,0.8308,,
416,113,11300,-112.16925229815014,1.09486985206604,1.4238317012786865,1.4232364892959595,0.8305,,
417,114,11320,-12.612894268658938,0.2850784361362457,1.4799808263778687,1.4878872632980347,0.8302,,
418,114,11340,-36.56737437553028,0.2685733735561371,1.5002944469451904,1.5582408905029297,0.8299,,
419,114,11360,-55.1435420606486,0.24788625538349152,1.2882709503173828,1.2830226421356201,0.8296,,
420,114,11380,-90.93616120221343,0.3441407084465027,1.5772459506988525,1.4349662065505981,0.8292999999999999,,
421,114,11400,-143.00202944917405,0.3111170530319214,1.7725331783294678,1.6578571796417236,0.829,,
422,115,11420,-11.06968385205159,0.18616580963134766,1.3238091468811035,1.179553747177124,0.8287,,
423,115,11440,-34.9175207257603,0.47939532995224,1.8845185041427612,1.7440357208251953,0.8284,,
424,115,11460,-51.19227941471839,1.9443608522415161,1.7913448810577393,1.5860058069229126,0.8281000000000001,,
425,115,11480,-65.89617956043955,0.9596344232559204,1.5664055347442627,1.3773175477981567,0.8278,,
426,115,11500,-81.81126065521252,0.7125569581985474,1.562732219696045,1.4442555904388428,0.8275,,
427,116,11520,-20.848631172393326,0.2368110716342926,1.265673279762268,1.207201600074768,0.8271999999999999,,
428,116,11540,-56.21141757096433,0.2976960837841034,1.2966632843017578,1.2598786354064941,0.8269,,
429,116,11560,-100.24539178583517,0.37294507026672363,1.304222822189331,1.2205232381820679,0.8266,,
430,116,11580,-156.32936037964606,0.35739368200302124,1.3370803594589233,1.322318434715271,0.8263,,
431,116,11600,-226.06143934211923,0.25350356101989746,1.4983558654785156,1.4982489347457886,0.8260000000000001,,
432,117,11620,-31.29839272361552,0.26649773120880127,0.9494074583053589,0.9001654982566833,0.8257,,
433,117,11640,-74.73117161964963,0.23898039758205414,1.3338098526000977,1.3289769887924194,0.8254,,
434,117,11660,-125.6888018011831,0.2283475548028946,0.9784550666809082,0.9036940932273865,0.8251,,
435,117,11680,-175.379904607513,0.4953248202800751,1.5743629932403564,1.4099113941192627,0.8248,,
436,117,11700,-202.68622941921143,7.206281661987305,1.625068187713623,1.3479737043380737,0.8245,,
437,118,11720,-32.00845626595042,0.217228502035141,0.8968484401702881,0.7825406789779663,0.8242,,
438,118,11740,-81.73151104549844,0.4181056022644043,1.3725978136062622,1.2360175848007202,0.8239,,
439,118,11760,-165.16685030794093,2.309130907058716,1.6591548919677734,1.468982219696045,0.8236,,
440,118,11780,-272.70863467401205,0.3452080488204956,1.0878775119781494,0.9980961084365845,0.8233,,
441,118,11800,-397.1992951780062,1.1515544652938843,1.541223168373108,1.4287981986999512,0.823,,
442,119,11820,-19.30196232551676,0.8655491471290588,1.9584612846374512,1.8341361284255981,0.8227,,
443,119,11840,-56.079365739446075,0.24864597618579865,1.6928163766860962,1.620666742324829,0.8224,,
444,119,11860,-93.355613851582,1.5765231847763062,1.43790602684021,1.2585484981536865,0.8221,,
445,119,11880,-128.22774950096868,1.0960792303085327,1.6247349977493286,1.5283517837524414,0.8218,,
446,119,11900,-185.91764366247713,0.2771248519420624,1.8015940189361572,1.7823007106781006,0.8215,,
447,120,11920,-14.84311978849926,3.6924211978912354,1.5250706672668457,1.3895893096923828,0.8212,,
448,120,11940,-41.10896112345425,0.33224302530288696,1.6989781856536865,1.7502784729003906,0.8209,,
449,120,11960,-68.34187605356175,0.7315014600753784,1.752467393875122,1.744252324104309,0.8206,,
450,120,11980,-95.64239504784919,0.4326625466346741,1.6062220335006714,1.5892678499221802,0.8203,,
451,120,12000,-127.3723961460934,0.27806559205055237,1.201267957687378,1.2359368801116943,0.82,,
452,121,12020,-24.463474263929214,0.290957510471344,1.7896697521209717,1.7791237831115723,0.8197,,
453,121,12040,-54.33137445226008,0.617214024066925,1.939307689666748,1.8732950687408447,0.8194,,
454,121,12060,-97.94546079657334,0.583723783493042,1.7081217765808105,1.6505415439605713,0.8190999999999999,,
455,121,12080,-139.7098525066323,0.30074089765548706,1.7326374053955078,1.6481646299362183,0.8188,,
456,121,12100,-199.99037761602992,0.28786298632621765,1.545316219329834,1.3896121978759766,0.8185,,
457,122,12120,-33.51945517145642,0.2898380160331726,2.2135159969329834,2.1331374645233154,0.8182,,
458,122,12140,-75.95819638163324,0.7173382043838501,1.6043301820755005,1.4371455907821655,0.8179,,
459,122,12160,-123.83152742613474,0.38466334342956543,1.9315478801727295,1.787179708480835,0.8176,,
460,122,12180,-164.19153112645944,1.1739699840545654,2.2288339138031006,2.0801219940185547,0.8172999999999999,,
461,122,12200,-201.7934495128343,0.3760795295238495,1.1379038095474243,1.0496339797973633,0.817,,
462,123,12220,-26.7453965152511,0.3817923963069916,1.582046627998352,1.5003786087036133,0.8167,,
463,123,12240,-42.777774018825475,0.2661918103694916,1.673857569694519,1.7002103328704834,0.8164,,
464,123,12260,-61.394861407878025,0.6318407654762268,1.8953313827514648,1.830277442932129,0.8161,,
465,123,12280,-79.83928818557071,2.159943103790283,1.785869836807251,1.6795910596847534,0.8158,,
466,123,12300,-109.14351228948073,0.3274860680103302,1.6864573955535889,1.672605276107788,0.8155,,
467,124,12320,-18.5331304862876,0.4676845371723175,1.6678969860076904,1.6400140523910522,0.8151999999999999,,
468,124,12340,-45.54720007957016,0.29168635606765747,1.5630731582641602,1.5178676843643188,0.8149,,
469,124,12360,-83.52688264888808,0.3009468913078308,1.9803814888000488,1.957512617111206,0.8146,,
470,124,12380,-113.17311665928356,0.3637540936470032,2.20442533493042,2.256460189819336,0.8143,,
471,124,12400,-135.48770504693908,0.6326272487640381,1.2806792259216309,1.2178725004196167,0.8140000000000001,,
472,125,12420,-39.93740750081522,0.2526753544807434,0.9598453640937805,0.8950641751289368,0.8137,,
473,125,12440,-90.55570098089633,0.5970611572265625,1.5243698358535767,1.399889588356018,0.8134,,
474,125,12460,-133.36002117111371,0.6376245021820068,1.5973384380340576,1.4595731496810913,0.8130999999999999,,
475,125,12480,-189.9054217652479,0.3493862450122833,1.8358738422393799,1.686556339263916,0.8128,,
476,125,12500,-264.39140971965804,2.081845760345459,1.3195070028305054,1.0903900861740112,0.8125,-242.20916319583708,-242.20916319583708
