FS-tar/marl-mpe-learning/outputs/qmix_mpe_rnn/simple_spread/run010/train_log.csv
update,episode,total_steps,train_team_return,td_loss,total_loss,grad_norm,q_tot_mean,q_tot_std,q_tot_max,target_q_tot_mean,target_q_tot_std,target_q_tot_max,epsilon,action_entropy_mean,used_action_count_min,max_action_ratio_max,top2_action_ratio_max,eval_team_return,eval_mean_agent_return
1,8,400,-62.707876945527985,0.1428956836462021,0.1428956836462021,1.2385730743408203,0.03191024541854858,0.25370585918426514,0.7470636367797852,0.5743252563476563,0.13936853408813477,0.8586362600326538,0.9924,,,,,,
2,9,450,-60.368327758853454,0.10902812331914902,0.10902812331914902,1.049391269683838,0.05712911605834961,0.24628877639770508,0.645964503288269,0.5414749908447266,0.11778213083744049,0.8671212196350098,0.99145,,,,,,
3,10,500,-71.44860231496156,0.08894764631986618,0.08894764631986618,0.9137077331542969,0.07464279174804687,0.24355503916740417,0.6453457474708557,0.4995726013183594,0.10238106548786163,0.7279326915740967,0.9905,,,,,,
4,11,550,-63.180044679159934,0.12074998766183853,0.12074998766183853,1.1871697902679443,0.10018631935119629,0.2564643919467926,0.6334640979766846,0.6168096923828125,0.10804599523544312,0.8672540783882141,0.98955,,,,,,
5,12,600,-53.51741417983077,0.12770482897758484,0.12770482897758484,1.173048734664917,0.06029638767242432,0.2500440180301666,0.7049997448921204,0.5755385208129883,0.12817005813121796,0.8588385581970215,0.9886,,,,,,
6,13,650,-40.499334336085234,0.13654451072216034,0.13654451072216034,1.228415846824646,0.08575031280517578,0.26149994134902954,0.694848358631134,0.618981704711914,0.1368599683046341,0.8674883842468262,0.98765,,,,,,
7,14,700,-43.775478482929124,0.11002441495656967,0.11002441495656967,1.019501805305481,0.07767183780670166,0.25690534710884094,0.7236987352371216,0.5487580108642578,0.12769488990306854,0.870751678943634,0.9867,,,,,,
8,15,750,-90.20094756633264,0.11586619168519974,0.11586619168519974,1.1004881858825684,0.10314715385437012,0.2590577006340027,0.6739885807037354,0.5865249252319336,0.11640666425228119,0.8592041730880737,0.98575,,,,,,
9,16,800,-44.05743109235415,0.12625189125537872,0.12625189125537872,1.1827540397644043,0.1140272045135498,0.2573147118091583,0.6849962472915649,0.6277677154541016,0.11233318597078323,0.8680171370506287,0.9848,,,,,,
10,17,850,-37.97354799101181,0.10865644365549088,0.10865644365549088,1.0586310625076294,0.09940828323364258,0.24984699487686157,0.6885510087013245,0.5802444076538086,0.11559039354324341,0.868238091468811,0.98385,,,,,,
11,18,900,-62.71873013621094,0.10479491204023361,0.10479491204023361,1.0285416841506958,0.10778994560241699,0.2297915816307068,0.6995300650596619,0.5830012893676758,0.10972190648317337,0.8445630073547363,0.9829,,,,,,
12,19,950,-58.07583665930098,0.11432277411222458,0.11432277411222458,1.1015615463256836,0.14202022552490234,0.2585027813911438,0.6810426712036133,0.6272574996948242,0.11429066956043243,0.868746280670166,0.98195,,,,,,
13,20,1000,-54.06418463744084,0.10820899903774261,0.10820899903774261,1.0019274950027466,0.1582796287536621,0.281505286693573,0.7478371858596802,0.610277214050293,0.13053926825523376,0.8718520402908325,0.981,,,,,,
14,21,1050,-36.764102117662844,0.08642707020044327,0.08642707020044327,0.9034691452980042,0.13373952865600586,0.2287595123052597,0.7410029768943787,0.5471391296386718,0.1127370148897171,0.9161866903305054,0.98005,,,,,,
15,22,1100,-46.222725963184374,0.09444728493690491,0.09444728493690491,0.9810531139373779,0.1228885841369629,0.22210752964019775,0.7067313194274902,0.5625869750976562,0.10403584688901901,0.7749475240707397,0.9791,,,,,,
16,23,1150,-103.06947283950174,0.07600599527359009,0.07600599527359009,0.8434017300605774,0.162880802154541,0.23462256789207458,0.7485939264297485,0.5523898696899414,0.13077735900878906,0.9168370962142944,0.97815,,,,,,
17,24,1200,-89.8382554333234,0.12772630155086517,0.12772630155086517,1.2393863201141357,0.1589223861694336,0.2657832205295563,0.9723950624465942,0.6826493072509766,0.13508830964565277,0.9171866178512573,0.9772,,,,,,
18,25,1250,-28.878944042022354,0.10347342491149902,0.10347342491149902,1.035227656364441,0.13881587028503417,0.2309790551662445,0.9771937131881714,0.6051254272460938,0.11791223287582397,0.9083232283592224,0.97625,0.9870651059502474,3,0.5868,0.8244,-105.87272912831412,-105.87272912831412
19,26,1300,-54.558197484062795,0.10812091827392578,0.10812091827392578,1.104051947593689,0.1620430564880371,0.23914214968681335,0.982064425945282,0.6380043411254883,0.1427033394575119,0.9179357886314392,0.9753000000000001,,,,,,
20,27,1350,-79.71035369183201,0.08127464354038239,0.08127464354038239,0.8708879351615906,0.12972755432128907,0.21833670139312744,0.725196897983551,0.537761459350586,0.11576926708221436,0.8699549436569214,0.97435,,,,,,
21,28,1400,-36.54790721938811,0.06963083148002625,0.06963083148002625,0.8207406401634216,0.157129487991333,0.21356827020645142,0.741161048412323,0.5493099594116211,0.08222624659538269,0.8479183912277222,0.9734,,,,,,
22,29,1450,-45.0642440364013,0.07690181583166122,0.07690181583166122,0.8286979794502258,0.18237796783447266,0.2404336780309677,0.7842088937759399,0.5610050201416016,0.12943775951862335,0.8746950030326843,0.97245,,,,,,
23,30,1500,-58.90203119045072,0.07050866633653641,0.07050866633653641,0.8074212074279785,0.16398590087890624,0.22157402336597443,0.7370112538337708,0.5407950592041015,0.1096673235297203,0.7326177954673767,0.9715,,,,,,
24,31,1550,-55.59984017201748,0.06831994652748108,0.06831994652748108,0.7913042306900024,0.15026894569396973,0.21389880776405334,0.7316806316375732,0.5262379074096679,0.09811999648809433,0.7226571440696716,0.97055,,,,,,
25,32,1600,-37.13798310765315,0.07586643099784851,0.07586643099784851,0.8584943413734436,0.20429128646850586,0.22545678913593292,0.7629750967025757,0.6047897338867188,0.08726684004068375,0.8718902468681335,0.9696,,,,,,
26,33,1650,-47.16774024153699,0.07219388335943222,0.07219388335943222,0.7490851283073425,0.20399873733520507,0.2481776773929596,0.7995491027832031,0.560731201171875,0.16524778306484222,0.8763532042503357,0.96865,,,,,,
27,34,1700,-56.85562836841154,0.05905552953481674,0.05905552953481674,0.7180091738700867,0.23910648345947266,0.22662219405174255,0.8430089950561523,0.5734095764160156,0.14124320447444916,0.9215043783187866,0.9677,,,,,,
28,35,1750,-47.0702265852724,0.0722363218665123,0.0722363218665123,0.8383421301841736,0.22595142364501952,0.23885737359523773,0.846868097782135,0.6004890060424805,0.10159460455179214,0.887176513671875,0.96675,,,,,,
29,36,1800,-101.06804643993769,0.06236867979168892,0.06236867979168892,0.7374635934829712,0.18427499771118164,0.21309061348438263,0.7518060803413391,0.53457275390625,0.09950355440378189,0.73154217004776,0.9658,,,,,,
30,37,1850,-52.812414439790864,0.07426431775093079,0.07426431775093079,0.8194108009338379,0.24536516189575194,0.24796293675899506,1.1010030508041382,0.6318922424316407,0.16196946799755096,1.087418556213379,0.96485,,,,,,
31,38,1900,-48.2327449117366,0.06671600043773651,0.06671600043773651,0.7669814825057983,0.20875024795532227,0.24376989901065826,0.8588138818740845,0.5580679321289063,0.14534112811088562,0.8889514207839966,0.9639,,,,,,
32,39,1950,-76.20219757225577,0.07816359400749207,0.07816359400749207,0.8776020407676697,0.22073934555053712,0.2403101921081543,0.8627941608428955,0.6281654739379883,0.12584902346134186,0.8895719647407532,0.96295,,,,,,
33,40,2000,-54.6386701355492,0.060392409563064575,0.060392409563064575,0.6869677901268005,0.24060855865478514,0.22639569640159607,0.8982818126678467,0.5866419982910156,0.10090775787830353,0.8595304489135742,0.962,,,,,,
34,41,2050,-59.21659966657524,0.09162302315235138,0.09162302315235138,1.0001397132873535,0.23781057357788085,0.251131534576416,1.1189970970153809,0.6781441497802735,0.14005091786384583,1.090287685394287,0.96105,,,,,,
35,42,2100,-70.85336580702405,0.07925143092870712,0.07925143092870712,0.8835777640342712,0.2264302444458008,0.24527095258235931,1.0534095764160156,0.6309096145629883,0.14074324071407318,1.0190140008926392,0.9601,,,,,,
36,43,2150,-85.72090499322508,0.06865892559289932,0.06865892559289932,0.7642390727996826,0.2269049835205078,0.23072896897792816,0.8171502351760864,0.587121467590332,0.14112573862075806,0.8771964311599731,0.95915,,,,,,
37,44,2200,-32.001466209396355,0.05195741355419159,0.05195741355419159,0.6661920547485352,0.2548602867126465,0.20472601056098938,0.8213115334510803,0.5726815795898438,0.09142301231622696,0.8565124273300171,0.9582,,,,,,
38,45,2250,-102.00061540178017,0.04888885095715523,0.04888885095715523,0.5920647978782654,0.25872207641601563,0.2107335776090622,1.063719391822815,0.557123908996582,0.17935584485530853,0.9802594184875488,0.95725,,,,,,
39,46,2300,-39.64801762675197,0.05906997621059418,0.05906997621059418,0.6801577806472778,0.2750312042236328,0.22343280911445618,0.9164721965789795,0.6121426010131836,0.11171326041221619,0.8788574934005737,0.9563,,,,,,
40,47,2350,-66.45398347396147,0.04792465269565582,0.04792465269565582,0.6457181572914124,0.2599091911315918,0.2088056355714798,0.7445474863052368,0.5742318344116211,0.12076933681964874,0.8523460626602173,0.95535,,,,,,
41,48,2400,-61.25534583080816,0.049445562064647675,0.049445562064647675,0.653703510761261,0.2807320022583008,0.2260679453611374,0.8951283693313599,0.5894683074951171,0.15572099387645721,0.9292252063751221,0.9544,,,,,,
42,49,2450,-65.76250200302204,0.06973884254693985,0.06973884254693985,0.7719982266426086,0.29097278594970705,0.23642027378082275,1.0778067111968994,0.648187255859375,0.1346227377653122,0.9248983860015869,0.95345,,,,,,
43,50,2500,-58.02249227813588,0.06056860089302063,0.06056860089302063,0.7231130599975586,0.26426183700561523,0.2227029949426651,0.9249842166900635,0.6082076644897461,0.1437363475561142,0.8862488865852356,0.9525,1.0488447275519899,3,0.5852,0.8704,-105.31256948465422,-105.31256948465422
44,51,2550,-62.09311627099643,0.05432410165667534,0.05432410165667534,0.6516566276550293,0.29678403854370117,0.22456149756908417,1.0846431255340576,0.6192779541015625,0.12413141876459122,0.9266738891601562,0.95155,,,,,,
45,52,2600,-62.602416193389615,0.05159936472773552,0.05159936472773552,0.597944974899292,0.2925701141357422,0.239167258143425,0.9764795303344727,0.5858933639526367,0.1963139921426773,1.0269330739974976,0.9506,,,,,,
46,53,2650,-77.99493044327079,0.049221400171518326,0.049221400171518326,0.5956588983535767,0.3074086761474609,0.23630766570568085,0.978557825088501,0.5976136016845703,0.1558029055595398,1.0277736186981201,0.94965,,,,,,
47,54,2700,-38.022360189135746,0.05371645465493202,0.05371645465493202,0.6335644125938416,0.2789187240600586,0.23945559561252594,1.1663401126861572,0.5848392105102539,0.19958670437335968,1.1009330749511719,0.9487,,,,,,
48,55,2750,-83.71041497578018,0.0459313839673996,0.0459313839673996,0.5733919739723206,0.29618879318237307,0.22137239575386047,1.1689107418060303,0.577716064453125,0.14416302740573883,1.0858662128448486,0.94775,,,,,,
49,56,2800,-37.75721899094808,0.05476181581616402,0.05476181581616402,0.6561314463615417,0.32602081298828123,0.24402405321598053,0.9842092990875244,0.6361056900024414,0.16609004139900208,1.0272988080978394,0.9468,,,,,,
50,57,2850,-50.78502113352042,0.03580104932188988,0.03580104932188988,0.4621637463569641,0.2743635940551758,0.20054908096790314,0.9379059076309204,0.5165155029296875,0.12124057114124298,0.8711334466934204,0.94585,,,,,,
51,58,2900,-69.8762003129232,0.043118420988321304,0.043118420988321304,0.5342777371406555,0.32314529418945315,0.2278209924697876,0.878518283367157,0.6068896865844726,0.12287519127130508,0.8901242613792419,0.9449,,,,,,
52,59,2950,-84.44121154041213,0.05201457813382149,0.05201457813382149,0.5974274277687073,0.30833782196044923,0.24230925738811493,1.1011654138565063,0.6028060913085938,0.1908349096775055,1.0299232006072998,0.94395,,,,,,
53,60,3000,-42.75363356894371,0.05635451897978783,0.05635451897978783,0.6611290574073792,0.3831428909301758,0.25322216749191284,1.180127739906311,0.7061783599853516,0.1396932750940323,1.0907649993896484,0.9430000000000001,,,,,,
54,61,3050,-27.323256032720057,0.046313658356666565,0.046313658356666565,0.5976576209068298,0.3390922546386719,0.2199982851743698,1.1034281253814697,0.6500022888183594,0.13587215542793274,0.9359169006347656,0.94205,,,,,,
55,62,3100,-61.501939670226534,0.037559639662504196,0.037559639662504196,0.47723639011383057,0.33897880554199217,0.21489033102989197,1.0188791751861572,0.5885508728027343,0.1778591424226761,0.9379048943519592,0.9411,,,,,,
56,63,3150,-51.843729031635824,0.03264054283499718,0.03264054283499718,0.4517645239830017,0.3149224281311035,0.1846492737531662,0.7804163694381714,0.5621009063720703,0.07492899894714355,0.7586026191711426,0.94015,,,,,,
57,64,3200,-54.80194954100413,0.042277611792087555,0.042277611792087555,0.4908115267753601,0.36971511840820315,0.23311039805412292,0.947084367275238,0.6231401824951172,0.14143678545951843,0.8938174247741699,0.9392,,,,,,
58,65,3250,-66.14829637724463,0.031395651400089264,0.031395651400089264,0.4172952473163605,0.32568504333496096,0.19905449450016022,0.8272851705551147,0.5549535369873047,0.11307855695486069,0.890766441822052,0.93825,,,,,,
59,66,3300,-69.36965381889705,0.04070436581969261,0.04070436581969261,0.5491569638252258,0.34632293701171873,0.20044325292110443,1.024967074394226,0.6309346008300781,0.1290161907672882,0.9157674312591553,0.9373,,,,,,
60,67,3350,-54.16667312912537,0.03149954974651337,0.03149954974651337,0.45375868678092957,0.3191622543334961,0.18136487901210785,0.8348912000656128,0.5492938232421875,0.11212310194969177,0.806024432182312,0.93635,,,,,,
61,68,3400,-54.51213231114999,0.03340229019522667,0.03340229019522667,0.4315951466560364,0.35485828399658204,0.20653122663497925,0.9336617588996887,0.5896228790283203,0.1303691267967224,0.8881020545959473,0.9354,,,,,,
62,69,3450,-58.07785447896687,0.034698694944381714,0.034698694944381714,0.5164109468460083,0.3602449035644531,0.187676802277565,0.8779046535491943,0.6153101348876953,0.10977160185575485,0.9422628879547119,0.93445,,,,,,
63,70,3500,-57.906609158783745,0.028851954266428947,0.028851954266428947,0.37934261560440063,0.3513339614868164,0.19816388189792633,0.9451265335083008,0.5580607604980469,0.14691397547721863,0.9984971284866333,0.9335,,,,,,
64,71,3550,-61.101356694494996,0.035322077572345734,0.035322077572345734,0.45245254039764404,0.31084854125976563,0.19918860495090485,0.9510003328323364,0.5575736618041992,0.13274993002414703,0.8812321424484253,0.93255,,,,,,
65,72,3600,-63.76119194697669,0.023341186344623566,0.023341186344623566,0.31563931703567505,0.3420742416381836,0.1741006225347519,0.8293375372886658,0.5243845748901367,0.12322492152452469,0.8680819272994995,0.9316,,,,,,
66,73,3650,-65.6094696765946,0.04008599370718002,0.04008599370718002,0.5167847275733948,0.35975189208984376,0.21608759462833405,0.9864903092384338,0.6092819595336914,0.1362983137369156,0.9506384134292603,0.93065,,,,,,
67,74,3700,-68.89563628824531,0.02492472715675831,0.02492472715675831,0.35258713364601135,0.320566291809082,0.17530396580696106,0.8850448131561279,0.5194325637817383,0.13801603019237518,0.9452860951423645,0.9297,,,,,,
68,75,3750,-63.67177766141886,0.034912362694740295,0.034912362694740295,0.48775485157966614,0.39961349487304687,0.20882228016853333,1.0371662378311157,0.6487860107421874,0.1493237167596817,0.9458744525909424,0.92875,1.1136986236746709,5,0.6148,0.8468,-100.8176388891557,-100.8176388891557
69,76,3800,-41.06282331214181,0.02212751843035221,0.02212751843035221,0.2949296832084656,0.32357627868652344,0.1687493920326233,0.9500319957733154,0.4911172866821289,0.1232202798128128,0.8846806287765503,0.9278,,,,,,
70,77,3850,-69.30325954779352,0.03128104656934738,0.03128104656934738,0.3994622230529785,0.4506378173828125,0.19583198428153992,0.9911594390869141,0.6687044525146484,0.12498189508914948,0.953883945941925,0.92685,,,,,,
71,78,3900,-62.98812370071058,0.045238666236400604,0.045238666236400604,0.5865103602409363,0.4348823928833008,0.2147255539894104,1.116081953048706,0.7247228240966797,0.12802192568778992,0.9546860456466675,0.9259,,,,,,
72,79,3950,-49.537707011270186,0.028084848076105118,0.028084848076105118,0.40355199575424194,0.41307762145996096,0.2029338777065277,1.0390684604644775,0.6284593963623046,0.19908452033996582,0.9554828405380249,0.92495,,,,,,
73,80,4000,-54.4422287075318,0.028050970286130905,0.028050970286130905,0.4041672646999359,0.33050445556640623,0.18535776436328888,0.9020005464553833,0.5493949890136719,0.13917483389377594,0.9357037544250488,0.924,,,,,,
74,81,4050,-74.87876712958648,0.02800881676375866,0.02800881676375866,0.2830444276332855,0.4045676040649414,0.1975739300251007,0.9937887191772461,0.5896065521240235,0.15863575041294098,0.9570603966712952,0.92305,,,,,,
75,82,4100,-78.38490281062015,0.03206904977560043,0.03206904977560043,0.39002326130867004,0.4277547836303711,0.2071267068386078,1.1131149530410767,0.6576553344726562,0.14324429631233215,1.006657600402832,0.9221,,,,,,
76,83,4150,-60.10742728380015,0.02652605064213276,0.02652605064213276,0.3830294609069824,0.3870478820800781,0.20687949657440186,1.111929178237915,0.6062753295898438,0.17316173017024994,0.9561153650283813,0.92115,,,,,,
77,84,4200,-73.5785774628613,0.039593033492565155,0.039593033492565155,0.48294535279273987,0.394277458190918,0.22994551062583923,1.0389724969863892,0.6469926452636718,0.18793551623821259,0.9509597420692444,0.9202,,,,,,
78,85,4250,-77.46930863469689,0.017939120531082153,0.017939120531082153,0.18841609358787537,0.37842884063720705,0.18119759857654572,0.9361754059791565,0.49514888763427733,0.1171598732471466,0.8757689595222473,0.91925,,,,,,
79,86,4300,-84.91548836061521,0.021793154999613762,0.021793154999613762,0.2990652620792389,0.37015438079833984,0.178175151348114,0.9243335723876953,0.5582359313964844,0.12369301170110703,0.8412076234817505,0.9183,,,,,,
80,87,4350,-43.73490031119412,0.023503892123699188,0.023503892123699188,0.3132234513759613,0.3946767044067383,0.18385586142539978,0.9132004976272583,0.5827696609497071,0.11873677372932434,0.9410340785980225,0.91735,,,,,,
81,88,4400,-51.2633047853168,0.02538154646754265,0.02538154646754265,0.2877938151359558,0.38598209381103515,0.17725515365600586,0.8738165497779846,0.5577134704589843,0.12063948065042496,0.8774086833000183,0.9164,,,,,,
82,89,4450,-50.30786615766969,0.024277720600366592,0.024277720600366592,0.3172233998775482,0.46331573486328126,0.22105717658996582,1.0438616275787354,0.6478827667236328,0.16105785965919495,0.9631209373474121,0.91545,,,,,,
83,90,4500,-42.69392581762274,0.025361837819218636,0.025361837819218636,0.33555349707603455,0.364757194519043,0.18996161222457886,1.0095915794372559,0.5497607803344726,0.15081769227981567,1.056889533996582,0.9145,,,,,,
84,91,4550,-51.55568188018368,0.02284901775419712,0.02284901775419712,0.32834506034851074,0.41867431640625,0.20206965506076813,1.198939323425293,0.6131131362915039,0.16725732386112213,1.1220512390136719,0.91355,,,,,,
85,92,4600,-45.977626501062446,0.01945526897907257,0.01945526897907257,0.16586515307426453,0.4347172927856445,0.17981839179992676,0.9566366672515869,0.5620030975341797,0.17844055593013763,0.9297000169754028,0.9126,,,,,,
86,93,4650,-33.395207894649076,0.02875477820634842,0.02875477820634842,0.2669239342212677,0.45010528564453123,0.1775917410850525,0.9932144284248352,0.6095979309082031,0.14290229976177216,0.9659533500671387,0.91165,,,,,,
87,94,4700,-51.44815188933501,0.021332578733563423,0.021332578733563423,0.26561760902404785,0.4388177108764648,0.19878043234348297,1.0516654253005981,0.597872085571289,0.17306295037269592,1.0637456178665161,0.9107000000000001,,,,,,
88,95,4750,-61.33519387008397,0.023415690287947655,0.023415690287947655,0.2969945967197418,0.416049690246582,0.17607712745666504,1.0078871250152588,0.605486068725586,0.13878802955150604,1.0607078075408936,0.9097500000000001,,,,,,
89,96,4800,-82.61416681930709,0.02187374420464039,0.02187374420464039,0.1883339285850525,0.40425327301025393,0.18468962609767914,1.0582001209259033,0.5307362747192382,0.1344631463289261,0.881414532661438,0.9088,,,,,,
90,97,4850,-57.12582361316172,0.028653757646679878,0.028653757646679878,0.26662805676460266,0.4230220031738281,0.1970471292734146,1.006382942199707,0.5898223114013672,0.18909679353237152,1.062156319618225,0.90785,,,,,,
91,98,4900,-64.37538135038278,0.023431740701198578,0.023431740701198578,0.25635001063346863,0.4199471282958984,0.16217772662639618,0.9303282499313354,0.5684894561767578,0.14828594028949738,0.9121378064155579,0.9069,,,,,,
92,99,4950,-46.505904236384715,0.022284116595983505,0.022284116595983505,0.35025715827941895,0.3660329818725586,0.16649718582630157,0.8142907619476318,0.5642266845703126,0.10510600358247757,0.8359805345535278,0.90595,,,,,,
93,100,5000,-42.23249567314735,0.023156529292464256,0.023156529292464256,0.25645536184310913,0.4619391632080078,0.17239031195640564,1.0639091730117798,0.6210915756225586,0.1296493113040924,0.913805365562439,0.905,1.2643401663992753,5,0.5384,0.7588,-103.02179139844084,-103.02179139844084
94,101,5050,-42.17481324670915,0.022185854613780975,0.022185854613780975,0.20789116621017456,0.4143439483642578,0.1848629266023636,0.9568755626678467,0.5540425872802734,0.15706780552864075,0.9354928731918335,0.90405,,,,,,
95,102,5100,-49.64973198673066,0.02126936987042427,0.02126936987042427,0.2235044538974762,0.4940966033935547,0.17268343269824982,0.9317908883094788,0.5709286880493164,0.11783257126808167,0.8839513659477234,0.9031,,,,,,
96,103,5150,-44.86301366564297,0.02046332322061062,0.02046332322061062,0.2578983008861542,0.4623202133178711,0.18265220522880554,1.0499073266983032,0.6325489807128907,0.15792930126190186,1.0743227005004883,0.90215,,,,,,
97,104,5200,-75.4381921429012,0.020662307739257812,0.020662307739257812,0.1726965308189392,0.4011801528930664,0.1684143990278244,0.9971655011177063,0.5095203399658204,0.1744190752506256,1.0667909383773804,0.9012,,,,,,
98,105,5250,-65.21382610958388,0.01696198061108589,0.01696198061108589,0.23079755902290344,0.4339932632446289,0.159560889005661,0.9625009894371033,0.5908063125610351,0.13024497032165527,0.9377408027648926,0.90025,,,,,,
99,106,5300,-64.3884274223966,0.02500496618449688,0.02500496618449688,0.16855643689632416,0.45815845489501955,0.17260387539863586,1.0099058151245117,0.5735333633422851,0.1901279091835022,0.9615243077278137,0.8993,,,,,,
100,107,5350,-49.18755240429693,0.016632333397865295,0.016632333397865295,0.2020086795091629,0.38999874114990235,0.15443380177021027,0.8759750127792358,0.547765007019043,0.0978817343711853,0.8756171464920044,0.89835,,,,,,
101,108,5400,-57.633786910873106,0.014553015120327473,0.014553015120327473,0.13551561534404755,0.45253711700439453,0.15768621861934662,0.8895920515060425,0.5622450256347656,0.12959352135658264,0.9481441378593445,0.8974,,,,,,
102,109,5450,-107.73069652299861,0.02180122770369053,0.02180122770369053,0.21130290627479553,0.41167148590087893,0.15998893976211548,0.901046633720398,0.5640730667114258,0.14572890102863312,0.8648287653923035,0.89645,,,,,,
103,110,5500,-51.79332334444828,0.01683240570127964,0.01683240570127964,0.2002546787261963,0.4465224456787109,0.178587406873703,0.9683137536048889,0.5740358352661132,0.12920460104942322,0.9402341246604919,0.8955,,,,,,
104,111,5550,-50.028832397897176,0.01962173730134964,0.01962173730134964,0.24918177723884583,0.41510284423828125,0.19009827077388763,0.9858627319335938,0.5784318542480469,0.16666537523269653,1.070683479309082,0.89455,,,,,,
105,112,5600,-57.46065765018873,0.02699168771505356,0.02699168771505356,0.3740600347518921,0.5362520599365235,0.19591733813285828,1.059013843536377,0.7539759063720703,0.14790202677249908,1.0839722156524658,0.8936,,,,,,
106,113,5650,-50.52642584857465,0.016173355281352997,0.016173355281352997,0.1582200676202774,0.457271728515625,0.17395642399787903,0.894707441329956,0.5870109176635743,0.11895270645618439,1.0066474676132202,0.8926499999999999,,,,,,
107,114,5700,-81.9480518179619,0.018968872725963593,0.018968872725963593,0.22015802562236786,0.45275985717773437,0.17158062756061554,1.0409188270568848,0.6095674896240234,0.16385817527770996,1.0859708786010742,0.8917,,,,,,
108,115,5750,-38.75015564926309,0.02022370882332325,0.02022370882332325,0.161818265914917,0.42850170135498045,0.16475550830364227,1.1327601671218872,0.5066295242309571,0.11552942544221878,0.7212474346160889,0.89075,,,,,,
109,116,5800,-43.04787984096276,0.019952785223722458,0.019952785223722458,0.1385083645582199,0.44094017028808596,0.1422082483768463,0.8668627142906189,0.5320541763305664,0.1491597592830658,0.855190098285675,0.8898,,,,,,
110,117,5850,-82.50023094462502,0.02250668965280056,0.02250668965280056,0.2071923017501831,0.46668300628662107,0.1733638495206833,1.0752894878387451,0.6024726104736328,0.15562058985233307,0.9217965602874756,0.88885,,,,,,
111,118,5900,-138.29543868651956,0.021167118102312088,0.021167118102312088,0.2746685743331909,0.4998797607421875,0.19494107365608215,1.0355559587478638,0.6859163665771484,0.15907926857471466,1.0897843837738037,0.8879,,,,,,
112,119,5950,-50.87848693714628,0.02082446590065956,0.02082446590065956,0.17192195355892181,0.472457160949707,0.1815609633922577,0.9819587469100952,0.6013174819946289,0.15078042447566986,0.9368501901626587,0.88695,,,,,,
113,120,6000,-72.60043574986207,0.020975129678845406,0.020975129678845406,0.2199362814426422,0.4801488876342773,0.16699910163879395,0.9727252721786499,0.5429850006103516,0.15693072974681854,0.9543483257293701,0.886,,,,,,
114,121,6050,-82.44884695819589,0.022692732512950897,0.022692732512950897,0.16701464354991913,0.44579612731933593,0.16329647600650787,1.0089010000228882,0.5119939041137695,0.1666153371334076,0.9783716201782227,0.88505,,,,,,
115,122,6100,-52.03893490276606,0.015535359270870686,0.015535359270870686,0.13410694897174835,0.46325714111328126,0.17016087472438812,0.9570045471191406,0.5714816665649414,0.1675565391778946,0.9804126620292664,0.8841,,,,,,
116,123,6150,-47.68929362862263,0.024389591068029404,0.024389591068029404,0.19817204773426056,0.4635769271850586,0.17383426427841187,1.0733346939086914,0.5951420593261719,0.15013395249843597,0.9277845025062561,0.88315,,,,,,
117,124,6200,-46.5632070371778,0.02012147754430771,0.02012147754430771,0.19362039864063263,0.45814491271972657,0.18184414505958557,1.072257399559021,0.5405851364135742,0.11863778531551361,0.8216039538383484,0.8822,,,,,,
118,125,6250,-116.4091017273228,0.022654356434941292,0.022654356434941292,0.248201385140419,0.44408580780029294,0.16576409339904785,0.8532215356826782,0.6161961364746094,0.16047270596027374,0.9286954402923584,0.88125,1.4630729480379443,5,0.4636,0.6928,-110.01812066570078,-110.01812066570075
119,126,6300,-80.16871611994983,0.02333543263375759,0.02333543263375759,0.18045923113822937,0.484351806640625,0.18809571862220764,1.076267957687378,0.605772590637207,0.13740667700767517,0.993425190448761,0.8803,,,,,,
120,127,6350,-62.62838016097914,0.017856979742646217,0.017856979742646217,0.15689678490161896,0.45926834106445313,0.1547461897134781,0.9483350515365601,0.5939052963256836,0.12879060208797455,0.9296779036521912,0.87935,,,,,,
121,128,6400,-66.929803683973,0.016157109290361404,0.016157109290361404,0.13445866107940674,0.46221271514892576,0.1785861849784851,1.0096888542175293,0.5662619018554688,0.17621202766895294,1.0089833736419678,0.8784,,,,,,
122,129,6450,-50.12705266321396,0.015338734723627567,0.015338734723627567,0.139375239610672,0.43772254943847655,0.16396620869636536,0.9363669157028198,0.5735524368286132,0.13962699472904205,0.8826630711555481,0.8774500000000001,,,,,,
123,130,6500,-27.153412303572953,0.013753872364759445,0.013753872364759445,0.14710772037506104,0.4211077880859375,0.1274716705083847,0.8158051371574402,0.5539463043212891,0.12105444818735123,0.780693531036377,0.8765000000000001,,,,,,
124,131,6550,-52.823966981839405,0.01938060112297535,0.01938060112297535,0.15656891465187073,0.4187543487548828,0.14161978662014008,0.8873392343521118,0.4840932083129883,0.1422991305589676,0.7845017313957214,0.87555,,,,,,
125,132,6600,-24.611911808596158,0.02140287309885025,0.02140287309885025,0.16503892838954926,0.4257260513305664,0.16116981208324432,1.1857759952545166,0.4888279724121094,0.14232158660888672,0.8573819398880005,0.8746,,,,,,
126,133,6650,-42.324319620999155,0.017765400931239128,0.017765400931239128,0.16897524893283844,0.4257615280151367,0.14029887318611145,0.8968337774276733,0.47849109649658206,0.10969004034996033,0.767672598361969,0.87365,,,,,,
127,134,6700,-45.70861042162221,0.01889645867049694,0.01889645867049694,0.1707911640405655,0.43769371032714843,0.16035135090351105,0.9550932049751282,0.5648092651367187,0.14146369695663452,0.982512354850769,0.8727,,,,,,
128,135,6750,-77.07777787396371,0.021845366805791855,0.021845366805791855,0.18418365716934204,0.4955557632446289,0.17685650289058685,1.0563117265701294,0.5708212280273437,0.16428864002227783,0.9948558807373047,0.87175,,,,,,
129,136,6800,-80.56614675182855,0.017097260802984238,0.017097260802984238,0.14202922582626343,0.4457735061645508,0.15782904624938965,0.9117365479469299,0.5654312515258789,0.16249221563339233,0.9953304529190063,0.8708,,,,,,
130,137,6850,-61.47919754453891,0.02518009953200817,0.02518009953200817,0.37559252977371216,0.5207191467285156,0.17131710052490234,1.0768637657165527,0.5275054168701172,0.1564895212650299,0.9042844772338867,0.86985,,,,,,
131,138,6900,-42.24337899610569,0.02248150296509266,0.02248150296509266,0.17328213155269623,0.4852555084228516,0.1671731173992157,1.0755233764648438,0.6078025436401367,0.14988191425800323,1.0824872255325317,0.8689,,,,,,
132,139,6950,-74.32512295033744,0.01533397939056158,0.01533397939056158,0.09666288644075394,0.4366450881958008,0.13848595321178436,0.8586041927337646,0.5328495407104492,0.13347767293453217,0.8569134473800659,0.86795,,,,,,
133,140,7000,-38.48478537827114,0.011667557060718536,0.011667557060718536,0.08890921622514725,0.43084693908691407,0.15776854753494263,0.9649651050567627,0.5211926651000977,0.16383640468120575,0.9291551113128662,0.867,,,,,,
134,141,7050,-43.563859543419966,0.017855383455753326,0.017855383455753326,0.13701122999191284,0.3961906814575195,0.13266415894031525,0.7514628767967224,0.5006708526611328,0.136134535074234,0.8044976592063904,0.86605,,,,,,
135,142,7100,-57.454852744685745,0.022480536252260208,0.022480536252260208,0.13306951522827148,0.44834068298339846,0.14736954867839813,0.9208835363388062,0.5185028839111329,0.1738843321800232,0.9823919534683228,0.8651,,,,,,
136,143,7150,-88.86036910641957,0.020804388448596,0.020804388448596,0.13765791058540344,0.45285953521728517,0.16649936139583588,1.0324411392211914,0.5735869598388672,0.1511816531419754,1.0707242488861084,0.86415,,,,,,
137,144,7200,-66.47161385840269,0.020079929381608963,0.020079929381608963,0.18173383176326752,0.41963905334472656,0.132442444562912,0.7766910791397095,0.49057731628417967,0.13812199234962463,0.7674299478530884,0.8632,,,,,,
138,145,7250,-59.19258461426588,0.02137770503759384,0.02137770503759384,0.29137521982192993,0.4937537002563477,0.14500249922275543,0.8584010004997253,0.5174311447143555,0.14869022369384766,0.8782179355621338,0.86225,,,,,,
139,146,7300,-56.285266935818804,0.019858689978718758,0.019858689978718758,0.15762758255004883,0.3969975280761719,0.13905011117458344,0.8408268690109253,0.5159239196777343,0.17356863617897034,0.9252533912658691,0.8613,,,,,,
140,147,7350,-42.05094235650372,0.022590136155486107,0.022590136155486107,0.15057435631752014,0.4231912231445312,0.15791195631027222,0.973386287689209,0.521070556640625,0.2036583125591278,1.0099029541015625,0.86035,,,,,,
141,148,7400,-75.93081645451251,0.016421880573034286,0.016421880573034286,0.1371544748544693,0.43792247772216797,0.14606130123138428,0.8978434801101685,0.5283633041381836,0.14623211324214935,0.9098652601242065,0.8594,,,,,,
142,149,7450,-66.08419156869961,0.02373778074979782,0.02373778074979782,0.13540324568748474,0.4661162567138672,0.17474520206451416,1.2109460830688477,0.556272087097168,0.18741820752620697,1.082858920097351,0.85845,,,,,,
143,150,7500,-64.00940331456972,0.0158999040722847,0.0158999040722847,0.1433403491973877,0.41292003631591795,0.12661020457744598,0.767670750617981,0.4938441467285156,0.1448461264371872,0.9094895124435425,0.8575,1.509877034273113,5,0.4004,0.716,-116.29895875095309,-116.29895875095312
144,151,7550,-60.6159893163358,0.037169136106967926,0.037169136106967926,0.40007343888282776,0.5103459548950195,0.1577196568250656,1.2116756439208984,0.49888790130615235,0.19407866895198822,0.9805755615234375,0.85655,,,,,,
145,152,7600,-44.24634141343908,0.017135465517640114,0.017135465517640114,0.15148203074932098,0.4364040374755859,0.14051055908203125,0.8882901072502136,0.48765613555908205,0.13837888836860657,0.9802564382553101,0.8556,,,,,,
146,153,7650,-77.79657092204326,0.017307734116911888,0.017307734116911888,0.15525896847248077,0.420014762878418,0.15080834925174713,0.9422794580459595,0.4751108169555664,0.16642598807811737,0.8506342172622681,0.85465,,,,,,
147,154,7700,-30.699040901757588,0.02448398619890213,0.02448398619890213,0.2993278503417969,0.4180355453491211,0.15172052383422852,0.7583839893341064,0.43304168701171875,0.1322913020849228,0.7355844378471375,0.8537,,,,,,
148,155,7750,-117.07176550210725,0.022251468151807785,0.022251468151807785,0.1801125705242157,0.43574371337890627,0.1669427752494812,1.005802035331726,0.5754321670532226,0.171522855758667,1.0818052291870117,0.85275,,,,,,
149,156,7800,-65.28301698206751,0.02305317111313343,0.02305317111313343,0.11910168081521988,0.4326613998413086,0.1634661704301834,0.9670674204826355,0.5480558776855469,0.20258110761642456,0.9678045511245728,0.8518,,,,,,
150,157,7850,-50.968844085683564,0.01699826866388321,0.01699826866388321,0.18247416615486145,0.3910344696044922,0.1152246817946434,0.7334077954292297,0.4093547058105469,0.14901752769947052,0.7693583965301514,0.85085,,,,,,
151,158,7900,-60.905353588581356,0.01833983324468136,0.01833983324468136,0.12245525419712067,0.41081943511962893,0.14196336269378662,0.8787245154380798,0.47305702209472655,0.18732763826847076,0.8730270862579346,0.8499,,,,,,
152,159,7950,-57.25911817611932,0.01850924827158451,0.01850924827158451,0.14433373510837555,0.4107871246337891,0.1462632119655609,0.8469334840774536,0.4610964584350586,0.1873217672109604,0.8707279562950134,0.84895,,,,,,
153,160,8000,-48.456671084940176,0.02544391341507435,0.02544391341507435,0.30135470628738403,0.37814823150634763,0.14717021584510803,1.2008475065231323,0.3746930694580078,0.15719476342201233,0.6974629163742065,0.848,,,,,,
154,161,8050,-54.795836918999626,0.017896205186843872,0.017896205186843872,0.16774435341358185,0.4189102554321289,0.1438724845647812,0.8262794017791748,0.46574714660644534,0.13885946571826935,0.8506292700767517,0.84705,,,,,,
155,162,8100,-52.143398859877166,0.02609008364379406,0.02609008364379406,0.17216108739376068,0.44283050537109375,0.16854970157146454,1.1113606691360474,0.5337675476074218,0.15679684281349182,0.9878295660018921,0.8461,,,,,,
156,163,8150,-50.30062205106665,0.022018926218152046,0.022018926218152046,0.1803298145532608,0.4169972610473633,0.15500006079673767,0.9198905825614929,0.464110221862793,0.16515611112117767,0.9750809669494629,0.8451500000000001,,,,,,
157,164,8200,-59.72309689498931,0.01852226071059704,0.01852226071059704,0.12319805473089218,0.39848339080810546,0.12761752307415009,0.8029550313949585,0.4976556015014648,0.17906033992767334,0.9245645999908447,0.8442000000000001,,,,,,
158,165,8250,-68.33515641762187,0.021672112867236137,0.021672112867236137,0.19396059215068817,0.33842315673828127,0.14009109139442444,0.7782148718833923,0.3689517593383789,0.14932160079479218,0.774604082107544,0.84325,,,,,,
159,166,8300,-36.75584728709012,0.024600019678473473,0.024600019678473473,0.24988898634910583,0.404501953125,0.13440904021263123,0.8084944486618042,0.4338067626953125,0.14519479870796204,0.7842258214950562,0.8423,,,,,,
160,167,8350,-70.31370053108164,0.018613770604133606,0.018613770604133606,0.19487595558166504,0.38530841827392576,0.13529233634471893,0.7923113703727722,0.41860198974609375,0.11728329956531525,0.8475870490074158,0.84135,,,,,,
161,168,8400,-91.64886157085057,0.02681310474872589,0.02681310474872589,0.40181174874305725,0.46742130279541017,0.1666359305381775,1.0869419574737549,0.4590983200073242,0.14872799813747406,0.8658210039138794,0.8404,,,,,,
162,169,8450,-83.63390726727204,0.0179684329777956,0.0179684329777956,0.09531930088996887,0.3945856857299805,0.13903307914733887,0.9853528738021851,0.4978886413574219,0.14139389991760254,0.852759599685669,0.83945,,,,,,
163,170,8500,-45.59851905371623,0.017564667388796806,0.017564667388796806,0.144880473613739,0.4202741241455078,0.14091762900352478,0.8040930032730103,0.5616845703125,0.1458025425672531,0.8534992337226868,0.8385,,,,,,
164,171,8550,-48.05084790061791,0.01551645714789629,0.01551645714789629,0.09820253401994705,0.3846682357788086,0.13123191893100739,0.7880445718765259,0.46091888427734373,0.1766955852508545,0.8794019222259521,0.83755,,,,,,
165,172,8600,-63.95881383935932,0.015665516257286072,0.015665516257286072,0.08103982359170914,0.3878717041015625,0.13100820779800415,0.8279916048049927,0.4899245071411133,0.1406577080488205,0.8880592584609985,0.8366,,,,,,
166,173,8650,-44.63337065744267,0.018194597214460373,0.018194597214460373,0.13429053127765656,0.3892486572265625,0.11811856180429459,0.7736163139343262,0.43397777557373046,0.16706226766109467,0.8315572738647461,0.83565,,,,,,
167,174,8700,-56.22075132747385,0.017277544364333153,0.017277544364333153,0.15703001618385315,0.3800259780883789,0.1558404564857483,1.0028396844863892,0.4369184875488281,0.12448137253522873,0.8065662980079651,0.8347,,,,,,
168,175,8750,-56.446824635997544,0.017697352916002274,0.017697352916002274,0.10449045896530151,0.3945425796508789,0.127003476023674,0.788267195224762,0.48123291015625,0.1455651968717575,0.8081599473953247,0.83375,1.5304362089706445,5,0.386,0.5996,-120.8909742925376,-120.89097429253763
169,176,8800,-70.01297476140348,0.021587390452623367,0.021587390452623367,0.24672983586788177,0.4076040649414063,0.13099871575832367,0.7861162424087524,0.4235479736328125,0.15599805116653442,0.9653899073600769,0.8328,,,,,,
170,177,8850,-91.42274282752678,0.01748337782919407,0.01748337782919407,0.0818832665681839,0.3914861297607422,0.13295403122901917,0.7726032137870789,0.5033981323242187,0.1826290488243103,0.8814654350280762,0.83185,,,,,,
171,178,8900,-70.66244732334974,0.021556848660111427,0.021556848660111427,0.14674299955368042,0.4111448669433594,0.16091546416282654,0.9947885870933533,0.53566650390625,0.14303909242153168,0.853175163269043,0.8309,,,,,,
172,179,8950,-68.77877604227405,0.01481377612799406,0.01481377612799406,0.07809251546859741,0.3928141784667969,0.14527109265327454,0.8029654026031494,0.5047020721435547,0.1749495565891266,0.899140477180481,0.82995,,,,,,
173,180,9000,-50.62391579141913,0.02091790921986103,0.02091790921986103,0.12377922981977463,0.40044429779052737,0.1365448534488678,0.8016129732131958,0.5224871063232421,0.1935788094997406,0.9635069966316223,0.829,,,,,,
174,181,9050,-82.606040688588,0.013407129794359207,0.013407129794359207,0.09311671555042267,0.3532200622558594,0.12192539125680923,0.8005130290985107,0.43921379089355467,0.15353012084960938,0.879402220249176,0.82805,,,,,,
175,182,9100,-61.8196620129663,0.021571489050984383,0.021571489050984383,0.12970033288002014,0.4002704238891602,0.15810486674308777,1.0330259799957275,0.5000082778930665,0.13334326446056366,0.7315281629562378,0.8271,,,,,,
176,183,9150,-32.74550728432105,0.022697873413562775,0.022697873413562775,0.17951707541942596,0.4104053497314453,0.13768085837364197,0.8678745031356812,0.4711513900756836,0.18881835043430328,0.8979881405830383,0.82615,,,,,,
177,184,9200,-47.74806141571394,0.014176967553794384,0.014176967553794384,0.10892213881015778,0.3670482635498047,0.12106525152921677,0.7584622502326965,0.44232666015625,0.14428430795669556,0.8121621608734131,0.8252,,,,,,
178,185,9250,-50.455312184627694,0.01877337135374546,0.01877337135374546,0.10488812625408173,0.3823615264892578,0.13755382597446442,0.7696994543075562,0.46440662384033204,0.16757288575172424,0.8056764006614685,0.82425,,,,,,
179,186,9300,-55.811394168172626,0.016050264239311218,0.016050264239311218,0.13997527956962585,0.34193275451660154,0.12516796588897705,0.7945722937583923,0.4653987121582031,0.12917475402355194,0.8760785460472107,0.8233,,,,,,
180,187,9350,-55.73826150799631,0.01792888715863228,0.01792888715863228,0.12264351546764374,0.3380741500854492,0.126005619764328,0.8513727188110352,0.3985364532470703,0.15947730839252472,0.7002748250961304,0.82235,,,,,,
181,188,9400,-54.39072770321095,0.013218201696872711,0.013218201696872711,0.11084853857755661,0.36381725311279295,0.1199830174446106,0.8221098780632019,0.4277034759521484,0.12027955055236816,0.72214674949646,0.8214,,,,,,
182,189,9450,-37.245786268090114,0.01786886155605316,0.01786886155605316,0.09896109998226166,0.39886482238769533,0.12571322917938232,0.7875968813896179,0.5234193801879883,0.14414116740226746,0.883659303188324,0.82045,,,,,,
183,190,9500,-33.093765742391554,0.01801683008670807,0.01801683008670807,0.091509148478508,0.3285697555541992,0.13892647624015808,0.9418933987617493,0.4183991622924805,0.1590852588415146,0.8255633115768433,0.8195,,,,,,
184,191,9550,-50.63358533754547,0.02137911133468151,0.02137911133468151,0.09667657315731049,0.35363292694091797,0.12199167162179947,0.7503185272216797,0.4565690231323242,0.1980847865343094,0.8732855319976807,0.81855,,,,,,
185,192,9600,-77.97601587524542,0.01907268352806568,0.01907268352806568,0.19992859661579132,0.3872222900390625,0.1581977754831314,1.0060784816741943,0.45622035980224607,0.17864805459976196,0.9847766160964966,0.8176,,,,,,
186,193,9650,-79.89682762873687,0.017743736505508423,0.017743736505508423,0.0997067466378212,0.3352827072143555,0.12154611945152283,0.7561307549476624,0.4485923767089844,0.14026828110218048,0.8229938745498657,0.81665,,,,,,
187,194,9700,-101.1258871801707,0.017283547669649124,0.017283547669649124,0.11926348507404327,0.39293010711669923,0.17541705071926117,0.9706579446792603,0.4830730438232422,0.16073651611804962,0.8755289316177368,0.8157,,,,,,
188,195,9750,-85.2288555647131,0.015419356524944305,0.015419356524944305,0.07500584423542023,0.3482213973999023,0.1367826610803604,0.7428514361381531,0.43563697814941404,0.1724369376897812,0.8336646556854248,0.81475,,,,,,
189,196,9800,-110.28956395751824,0.012395740486681461,0.012395740486681461,0.08602616935968399,0.3333152770996094,0.12226343154907227,0.9941447973251343,0.4459537124633789,0.12796209752559662,0.8203622102737427,0.8138,,,,,,
190,197,9850,-77.49697271281437,0.014444559812545776,0.014444559812545776,0.18672099709510803,0.3616379928588867,0.12076470255851746,1.1028447151184082,0.3894007110595703,0.12985585629940033,0.782426118850708,0.81285,,,,,,
191,198,9900,-51.45832761494076,0.012910544872283936,0.012910544872283936,0.06171253323554993,0.3548955154418945,0.10747543722391129,0.7125645875930786,0.44902179718017576,0.12836606800556183,0.6980113983154297,0.8119000000000001,,,,,,
192,199,9950,-34.97376534657625,0.01393792126327753,0.01393792126327753,0.08890446275472641,0.33267333984375,0.1111462339758873,0.7033741474151611,0.45084663391113283,0.14557164907455444,0.9440212249755859,0.8109500000000001,,,,,,
193,200,10000,-53.087263528298045,0.01504618488252163,0.01504618488252163,0.08574981242418289,0.34526336669921875,0.11668940633535385,0.7733502388000488,0.4576719665527344,0.12021006643772125,0.8102304935455322,0.81,1.5171934728296848,5,0.3524,0.5924,-135.34463647364498,-135.34463647364498
194,201,10050,-74.40608669962052,0.014379206113517284,0.014379206113517284,0.10879767686128616,0.33417579650878904,0.15424339473247528,1.0815470218658447,0.4058017349243164,0.14279480278491974,0.8718127608299255,0.80905,,,,,,
195,202,10100,-49.84601271309899,0.02225486934185028,0.02225486934185028,0.21048840880393982,0.4031990051269531,0.15611569583415985,0.9227633476257324,0.5724037170410157,0.16933614015579224,0.914520263671875,0.8081,,,,,,
196,203,10150,-66.10640201694562,0.01855885237455368,0.01855885237455368,0.17394275963306427,0.3751373291015625,0.16168278455734253,0.9558713436126709,0.43179443359375,0.13130244612693787,0.756994366645813,0.80715,,,,,,
197,204,10200,-84.63237533357362,0.017336174845695496,0.017336174845695496,0.0942748412489891,0.39036930084228516,0.12566180527210236,0.8381887674331665,0.4849127197265625,0.1422540247440338,0.7715917825698853,0.8062,,,,,,
198,205,10250,-48.28764266050378,0.013896739110350609,0.013896739110350609,0.07454505562782288,0.34906219482421874,0.10786768794059753,0.6763077974319458,0.4514999771118164,0.1614660769701004,0.9246098399162292,0.80525,,,,,,
199,206,10300,-52.969201387710626,0.018254149705171585,0.018254149705171585,0.11232717335224152,0.3925213623046875,0.10916943848133087,0.7548621892929077,0.5193081665039062,0.15311969816684723,0.9120516180992126,0.8043,,,,,,
200,207,10350,-44.476589561359226,0.020026877522468567,0.020026877522468567,0.21725691854953766,0.41409793853759763,0.1562412530183792,0.9504677057266235,0.48183712005615237,0.15249165892601013,0.8516830801963806,0.80335,,,,,,
201,208,10400,-71.86584044759427,0.017248226329684258,0.017248226329684258,0.1811894029378891,0.4082033157348633,0.14182129502296448,1.055765986442566,0.4737062835693359,0.13862448930740356,0.8484418392181396,0.8024,,,,,,
202,209,10450,-47.160239903364214,0.020171618089079857,0.020171618089079857,0.20006133615970612,0.3150492286682129,0.13119523227214813,0.7108265161514282,0.46912086486816407,0.18286149203777313,0.8804493546485901,0.80145,,,,,,
203,210,10500,-41.75826981277148,0.017695510759949684,0.017695510759949684,0.10552723705768585,0.36542678833007813,0.11927473545074463,0.6831181645393372,0.48037483215332033,0.15801772475242615,0.8796547651290894,0.8005,,,,,,
204,211,10550,-53.86125658388541,0.013257274404168129,0.013257274404168129,0.08736734837293625,0.34849937438964845,0.11750480532646179,0.6365151405334473,0.46498023986816406,0.12429681420326233,0.7828370928764343,0.79955,,,,,,
205,212,10600,-75.58045381976316,0.01492792647331953,0.01492792647331953,0.13341954350471497,0.34831832885742187,0.1306808739900589,0.8447019457817078,0.4167316818237305,0.13196882605552673,0.8775391578674316,0.7986,,,,,,
206,213,10650,-103.27095827126276,0.013453028164803982,0.013453028164803982,0.13224482536315918,0.34013484954833983,0.11426985263824463,0.7288663983345032,0.40776397705078127,0.1607273817062378,0.8342763185501099,0.79765,,,,,,
207,214,10700,-64.09445243478768,0.018551453948020935,0.018551453948020935,0.11630760878324509,0.3881121826171875,0.1574448049068451,0.9770763516426086,0.48078399658203125,0.19865816831588745,1.0030995607376099,0.7967,,,,,,
208,215,10750,-80.79685722173298,0.015272226184606552,0.015272226184606552,0.09054763615131378,0.36378753662109375,0.12995806336402893,0.8853085041046143,0.47869731903076174,0.1874200403690338,1.0034477710723877,0.79575,,,,,,
209,216,10800,-69.98021731565206,0.016543351113796234,0.016543351113796234,0.09628798067569733,0.38800338745117186,0.14049112796783447,0.9705184698104858,0.5141315841674805,0.1370466947555542,0.9251513481140137,0.7948,,,,,,
210,217,10850,-64.2592237181416,0.019475040957331657,0.019475040957331657,0.20791572332382202,0.39668624877929687,0.1586565226316452,1.0174736976623535,0.5690578079223633,0.19030873477458954,1.2492291927337646,0.79385,,,,,,
211,218,10900,-84.0388767437855,0.019404524937272072,0.019404524937272072,0.08290966600179672,0.3721641540527344,0.14879564940929413,0.8390544652938843,0.46367042541503906,0.21196553111076355,0.9869633913040161,0.7929,,,,,,
212,219,10950,-57.61831004984022,0.010084616020321846,0.010084616020321846,0.07080785930156708,0.3087009429931641,0.11672376841306686,0.6842125654220581,0.416304931640625,0.13167856633663177,0.9225096106529236,0.79195,,,,,,
213,220,11000,-66.67973230876736,0.02089710533618927,0.02089710533618927,0.11367637664079666,0.3871307373046875,0.150680810213089,0.9621291160583496,0.49218753814697264,0.13930009305477142,0.869871199131012,0.791,,,,,,
214,221,11050,-44.224012523012874,0.013765939511358738,0.013765939511358738,0.12648610770702362,0.3949211883544922,0.14524543285369873,1.0226025581359863,0.4772391128540039,0.14827285706996918,0.8693910837173462,0.79005,,,,,,
215,222,11100,-67.47272493957061,0.016104282811284065,0.016104282811284065,0.11437889188528061,0.33938819885253907,0.14507122337818146,0.7790040969848633,0.457736701965332,0.17586122453212738,0.84330153465271,0.7891,,,,,,
216,223,11150,-107.36112401866887,0.01604195311665535,0.01604195311665535,0.14859700202941895,0.3828053283691406,0.14762340486049652,1.015047311782837,0.48665897369384764,0.1298443228006363,0.8722670078277588,0.78815,,,,,,
217,224,11200,-54.07382769076137,0.01598501205444336,0.01598501205444336,0.15462063252925873,0.38973262786865237,0.1588592231273651,0.9276584386825562,0.5486743927001954,0.14445774257183075,0.8129085302352905,0.7872,,,,,,
218,225,11250,-79.67678636946486,0.014554731547832489,0.014554731547832489,0.15120714902877808,0.37101455688476564,0.1464112401008606,0.7944678664207458,0.4400028610229492,0.16882018744945526,0.879889965057373,0.78625,1.4984225686628025,5,0.3788,0.6304,-123.89203369830172,-123.89203369830172
219,226,11300,-69.76451498805675,0.017890367656946182,0.017890367656946182,0.14931830763816833,0.35181400299072263,0.15211264789104462,0.910766065120697,0.44007823944091795,0.1442279815673828,0.7381591796875,0.7853,,,,,,
220,227,11350,-120.46067275741021,0.012268563732504845,0.012268563732504845,0.07006719708442688,0.3778690719604492,0.12000447511672974,0.7553735971450806,0.48994529724121094,0.1435403823852539,0.879426896572113,0.78435,,,,,,
221,228,11400,-47.601002348066416,0.017882544547319412,0.017882544547319412,0.22531536221504211,0.34383480072021483,0.13396191596984863,0.8115571737289429,0.5112999725341797,0.14958637952804565,0.8756929636001587,0.7834,,,,,,
222,229,11450,-118.75130345361045,0.01737314835190773,0.01737314835190773,0.13134340941905975,0.34523685455322267,0.15379221737384796,1.1791025400161743,0.46589664459228514,0.15781156718730927,0.8954983353614807,0.78245,,,,,,
223,230,11500,-73.18901291713037,0.015759171918034554,0.015759171918034554,0.1121613010764122,0.3523097991943359,0.1267264187335968,0.8638688325881958,0.4719338607788086,0.16365648806095123,0.8210667371749878,0.7815,,,,,,
224,231,11550,-66.56867837769585,0.017230989411473274,0.017230989411473274,0.10108353197574615,0.37161102294921877,0.1255093663930893,0.9138660430908203,0.49437168121337893,0.16326870024204254,0.8976477384567261,0.78055,,,,,,
225,232,11600,-45.75200774382877,0.016878103837370872,0.016878103837370872,0.2549353241920471,0.3325767517089844,0.10933149605989456,0.6629493236541748,0.5244708633422852,0.12631866335868835,0.8200466632843018,0.7796,,,,,,
226,233,11650,-64.93579431939985,0.011016207747161388,0.011016207747161388,0.08149468153715134,0.32782821655273436,0.12084202468395233,0.7069554328918457,0.4388176727294922,0.10835883021354675,0.7475993633270264,0.7786500000000001,,,,,,
227,234,11700,-103.14863189406387,0.017001671716570854,0.017001671716570854,0.2335907369852066,0.337996826171875,0.11191932111978531,0.6291412115097046,0.5038636779785156,0.1807178556919098,0.8961702585220337,0.7777000000000001,,,,,,
228,235,11750,-45.74504513313042,0.013852686621248722,0.013852686621248722,0.11963510513305664,0.357784309387207,0.14327777922153473,0.9338217973709106,0.4956913757324219,0.1446133702993393,0.8228981494903564,0.77675,,,,,,
229,236,11800,-53.32483841898161,0.012881683185696602,0.012881683185696602,0.08920948207378387,0.356038818359375,0.1256185919046402,0.7673304080963135,0.4520515823364258,0.11971112340688705,0.7309101819992065,0.7758,,,,,,
230,237,11850,-37.40483546031875,0.0140781095251441,0.0140781095251441,0.1375075876712799,0.36424415588378906,0.14089658856391907,0.9319593906402588,0.5119305038452149,0.14038704335689545,0.87736576795578,0.77485,,,,,,
231,238,11900,-44.602929173984556,0.013236576691269875,0.013236576691269875,0.1730472892522812,0.34638038635253904,0.14169608056545258,0.8677163124084473,0.41753311157226564,0.12816722691059113,0.7619913816452026,0.7739,,,,,,
232,239,11950,-97.38910113051395,0.016534874215722084,0.016534874215722084,0.10233208537101746,0.38155517578125,0.1494750678539276,0.9288074374198914,0.50483154296875,0.1593204140663147,0.8582167029380798,0.77295,,,,,,
233,240,12000,-56.56325429502745,0.011780538596212864,0.011780538596212864,0.06676891446113586,0.3624307632446289,0.1355101317167282,0.8263427019119263,0.46609336853027344,0.13823899626731873,0.7912032604217529,0.772,,,,,,
234,241,12050,-50.869042953241134,0.014695393852889538,0.014695393852889538,0.22249697148799896,0.3768830108642578,0.1402868926525116,0.898870587348938,0.5332735443115234,0.19133798778057098,1.0133663415908813,0.77105,,,,,,
235,242,12100,-46.64956192174327,0.018391931429505348,0.018391931429505348,0.2306877076625824,0.41796875,0.1679265797138214,1.043394923210144,0.6001176452636718,0.21417032182216644,1.2285760641098022,0.7701,,,,,,
236,243,12150,-50.95245303396464,0.012346362695097923,0.012346362695097923,0.08063451945781708,0.38213855743408204,0.14368973672389984,0.88608717918396,0.5024505615234375,0.13673090934753418,0.8139073848724365,0.76915,,,,,,
237,244,12200,-50.44565889325621,0.01254256721585989,0.01254256721585989,0.09958254545927048,0.3977606201171875,0.127017542719841,0.7566474080085754,0.5257442855834961,0.13514338433742523,0.8617678880691528,0.7682,,,,,,
238,245,12250,-74.89397399712087,0.00996448379009962,0.00996448379009962,0.0894821286201477,0.3256399154663086,0.1297948807477951,0.8377571105957031,0.41064235687255857,0.12047894299030304,0.7946355938911438,0.76725,,,,,,
239,246,12300,-35.98534973929617,0.012556836940348148,0.012556836940348148,0.1523187756538391,0.33820404052734376,0.12461566179990768,0.6946220397949219,0.4824479293823242,0.14249494671821594,0.8726832866668701,0.7663,,,,,,
240,247,12350,-40.911941797897946,0.015238732099533081,0.015238732099533081,0.1269976943731308,0.3829106521606445,0.12561215460300446,0.8309237957000732,0.5189814376831055,0.1479939967393875,0.8704860210418701,0.76535,,,,,,
241,248,12400,-50.99528484908093,0.016598474234342575,0.016598474234342575,0.15325911343097687,0.4152926254272461,0.129448801279068,0.8728557825088501,0.5568318176269531,0.13646891713142395,0.8904662132263184,0.7644,,,,,,
242,249,12450,-70.69828777376193,0.012345608323812485,0.012345608323812485,0.14017674326896667,0.3727433776855469,0.12835527956485748,0.8438124060630798,0.512681999206543,0.15123029053211212,0.7879232168197632,0.76345,,,,,,
243,250,12500,-44.271573404987365,0.009811324067413807,0.009811324067413807,0.06347998231649399,0.3636989974975586,0.11166882514953613,0.7246525287628174,0.4586071014404297,0.1142907366156578,0.7588916420936584,0.7625,1.516044653749019,5,0.3532,0.6024,-128.63922906942472,-128.63922906942472
244,251,12550,-91.84876880289846,0.011355672962963581,0.011355672962963581,0.09293538331985474,0.3786076736450195,0.10393550246953964,0.7252942323684692,0.47180614471435545,0.11024938523769379,0.7398451566696167,0.76155,,,,,,
245,252,12600,-59.09233359381574,0.010902122594416142,0.010902122594416142,0.1212502270936966,0.3329914093017578,0.12002899497747421,0.7651304006576538,0.46140804290771487,0.12297274172306061,0.8237736225128174,0.7605999999999999,,,,,,
246,253,12650,-52.73111993310437,0.014502448961138725,0.014502448961138725,0.1095886081457138,0.3964517593383789,0.1469334363937378,0.934922456741333,0.49886398315429686,0.15173189342021942,0.9035452008247375,0.75965,,,,,,
247,254,12700,-44.573445658256624,0.014308926649391651,0.014308926649391651,0.19414900243282318,0.3772610855102539,0.15847374498844147,0.8386350870132446,0.5435302352905274,0.17764519155025482,0.8679958581924438,0.7587,,,,,,
248,255,12750,-79.13774628196066,0.014864346943795681,0.014864346943795681,0.14599645137786865,0.35969551086425783,0.12111090868711472,0.8279901742935181,0.49932022094726564,0.12375396490097046,0.761815071105957,0.75775,,,,,,
249,256,12800,-63.058109122030785,0.011386598460376263,0.011386598460376263,0.0750005915760994,0.40601932525634765,0.1237810030579567,0.7282743453979492,0.485980339050293,0.1342514306306839,0.8827030658721924,0.7568,,,,,,
250,257,12850,-41.09719953241702,0.01151156984269619,0.01151156984269619,0.07755012065172195,0.3844089889526367,0.1301179975271225,0.9566134214401245,0.4789790344238281,0.13924552500247955,0.8907198905944824,0.75585,,,,,,
251,258,12900,-52.68226849649091,0.011954185552895069,0.011954185552895069,0.08226945251226425,0.4022241973876953,0.11071160435676575,0.7335647940635681,0.5187137222290039,0.12688925862312317,0.8876426219940186,0.7549,,,,,,
252,259,12950,-92.5689539996581,0.015044811181724072,0.015044811181724072,0.12982270121574402,0.41296321868896485,0.14492005109786987,0.9397327303886414,0.5452493286132812,0.1785048246383667,1.0221794843673706,0.75395,,,,,,
253,260,13000,-35.306803006170725,0.011235855519771576,0.011235855519771576,0.06772292405366898,0.40160594940185546,0.13675232231616974,1.1043198108673096,0.5052130126953125,0.1275068074464798,0.9334233999252319,0.753,,,,,,
254,261,13050,-44.773638251447025,0.012255586683750153,0.012255586683750153,0.13326939940452576,0.38997257232666016,0.13731174170970917,0.8338044881820679,0.5192189407348633,0.14982280135154724,0.8334301114082336,0.75205,,,,,,
255,262,13100,-73.30817926237968,0.01047853846102953,0.01047853846102953,0.08512726426124573,0.3751165771484375,0.14702340960502625,1.1011817455291748,0.48144622802734377,0.13728192448616028,0.9353777766227722,0.7511,,,,,,
256,263,13150,-147.7539727122976,0.01203093770891428,0.01203093770891428,0.07801192998886108,0.4029252243041992,0.13961121439933777,0.7835025191307068,0.5003861999511718,0.12196975201368332,0.7638295888900757,0.75015,,,,,,
257,264,13200,-77.30940786820821,0.011340729892253876,0.011340729892253876,0.09400787949562073,0.39577953338623045,0.13147948682308197,0.7524598836898804,0.5228161239624023,0.1525006890296936,0.8662917613983154,0.7492,,,,,,
258,265,13250,-82.7709622434982,0.013170686550438404,0.013170686550438404,0.12561887502670288,0.36531600952148435,0.12949888408184052,0.7200793623924255,0.5006266021728516,0.12565739452838898,0.8063609004020691,0.7482500000000001,,,,,,
259,266,13300,-82.76295818480042,0.00968217384070158,0.00968217384070158,0.05505487695336342,0.32676666259765624,0.10159141570329666,0.6004390716552734,0.41282661437988283,0.08720684796571732,0.6109862327575684,0.7473000000000001,,,,,,
260,267,13350,-105.96661699910092,0.01394791342318058,0.01394791342318058,0.18447542190551758,0.428079719543457,0.15723614394664764,0.926803469657898,0.5986884689331055,0.16102634370326996,1.026374101638794,0.7463500000000001,,,,,,
261,268,13400,-64.27131717290584,0.012273069471120834,0.012273069471120834,0.08276917785406113,0.43408660888671874,0.14382316172122955,0.9354473352432251,0.5632705688476562,0.09937980771064758,0.872559130191803,0.7454000000000001,,,,,,
262,269,13450,-44.83261294194514,0.010371698997914791,0.010371698997914791,0.16160519421100616,0.3712302780151367,0.10615220665931702,0.6898272037506104,0.5168370819091797,0.09556306898593903,0.7455664873123169,0.7444500000000001,,,,,,
263,270,13500,-48.45119068313794,0.01194186881184578,0.01194186881184578,0.08285493403673172,0.4195645141601563,0.13191372156143188,0.8476075530052185,0.5471109390258789,0.126092329621315,0.8735171556472778,0.7435,,,,,,
264,271,13550,-70.67025898440855,0.011662131175398827,0.011662131175398827,0.10912327468395233,0.4421368408203125,0.12040748447179794,0.8179545998573303,0.52718505859375,0.12424734234809875,0.8745885491371155,0.74255,,,,,,
265,272,13600,-40.6748147219675,0.009951155632734299,0.009951155632734299,0.09734928607940674,0.3915961456298828,0.10747141391038895,0.7099428772926331,0.5141461181640625,0.1001986712217331,0.7314251661300659,0.7416,,,,,,
266,273,13650,-47.78197798837276,0.014985848218202591,0.014985848218202591,0.12517160177230835,0.462800407409668,0.17750294506549835,1.0053350925445557,0.5929405212402343,0.20920777320861816,1.0295331478118896,0.74065,,,,,,
267,274,13700,-83.32639653190769,0.009744822047650814,0.009744822047650814,0.10348739475011826,0.37251163482666017,0.11400861293077469,0.8411943912506104,0.4346192932128906,0.10350915789604187,0.6980389952659607,0.7397,,,,,,
268,275,13750,-38.3639509720468,0.014838977716863155,0.014838977716863155,0.0824442058801651,0.4386328125,0.16197507083415985,1.0821013450622559,0.5665202713012696,0.2089589238166809,1.212350845336914,0.73875,1.533135018333893,5,0.3728,0.5904,-114.22217344408037,-114.22217344408037
269,276,13800,-69.87045444540126,0.009103887714445591,0.009103887714445591,0.06819548457860947,0.37003494262695313,0.10758484154939651,0.6553057432174683,0.46601402282714843,0.09984920918941498,0.7339378595352173,0.7378,,,,,,
270,277,13850,-51.1891661311781,0.01001614611595869,0.01001614611595869,0.07336444407701492,0.39617286682128905,0.10574065893888474,0.7720882892608643,0.49430007934570314,0.123136505484581,0.8848272562026978,0.73685,,,,,,
271,278,13900,-84.30204278438632,0.008471416309475899,0.008471416309475899,0.07906557619571686,0.4301706314086914,0.12444084137678146,0.9994765520095825,0.5150308227539062,0.11225082725286484,0.8534210920333862,0.7359,,,,,,
272,279,13950,-59.24857442976348,0.012761592864990234,0.012761592864990234,0.11925697326660156,0.3860189056396484,0.12743954360485077,0.7480728626251221,0.5221315383911133,0.14105084538459778,1.019278883934021,0.73495,,,,,,
273,280,14000,-71.34634718478593,0.010392963886260986,0.010392963886260986,0.06034408509731293,0.4000718688964844,0.13986235857009888,0.915948748588562,0.49816062927246096,0.13607849180698395,0.8856853246688843,0.734,,,,,,
274,281,14050,-107.13155215768442,0.009134629741311073,0.009134629741311073,0.0698908269405365,0.37404159545898436,0.10566335916519165,0.8095656633377075,0.45608245849609375,0.09550411254167557,0.7984483242034912,0.73305,,,,,,
275,282,14100,-67.64920695301365,0.009332967922091484,0.009332967922091484,0.06468981504440308,0.4077265167236328,0.1310124695301056,0.9477910995483398,0.5069386291503907,0.1370163857936859,0.9766267538070679,0.7321,,,,,,
276,283,14150,-89.38431363667699,0.010085560381412506,0.010085560381412506,0.07939954847097397,0.4156959533691406,0.1404295563697815,1.0693126916885376,0.5100192642211914,0.13957050442695618,1.0346579551696777,0.73115,,,,,,
277,284,14200,-57.41093220062282,0.008414785377681255,0.008414785377681255,0.06363153457641602,0.4136965560913086,0.11667118966579437,0.9089717864990234,0.507322769165039,0.10747827589511871,0.8167134523391724,0.7302,,,,,,
278,285,14250,-51.42386934089646,0.012431143783032894,0.012431143783032894,0.08156895637512207,0.4511928176879883,0.13293471932411194,0.8996309041976929,0.5391695404052734,0.12285720556974411,0.9234853982925415,0.72925,,,,,,
279,286,14300,-49.77140259940605,0.009840157814323902,0.009840157814323902,0.07015126198530197,0.40015228271484377,0.14554111659526825,0.8889036178588867,0.5120183944702148,0.16490638256072998,0.8683813810348511,0.7283000000000001,,,,,,
280,287,14350,-53.58695685659243,0.010930018499493599,0.010930018499493599,0.09348718076944351,0.39112354278564454,0.1277925819158554,0.7735154628753662,0.5114664840698242,0.1589786857366562,0.8876502513885498,0.72735,,,,,,
281,288,14400,-69.76780613451653,0.014267431572079659,0.014267431572079659,0.08785980939865112,0.44318206787109377,0.18549643456935883,1.0777921676635742,0.5725370788574219,0.2126416563987732,1.2074456214904785,0.7264,,,,,,
282,289,14450,-54.74051101839751,0.01337206270545721,0.01337206270545721,0.10076478868722916,0.42534961700439455,0.14010001718997955,0.9245090484619141,0.5499612808227539,0.12362982332706451,0.8909336924552917,0.72545,,,,,,
283,290,14500,-55.28477148509442,0.009222924709320068,0.009222924709320068,0.08835642784833908,0.3989183807373047,0.112978495657444,0.7237950563430786,0.48434627532958985,0.11197701841592789,0.785092830657959,0.7245,,,,,,
284,291,14550,-71.84924277552288,0.009389802813529968,0.009389802813529968,0.08068819344043732,0.388558464050293,0.12472283095121384,0.7154099345207214,0.4950998687744141,0.13005897402763367,0.8213484287261963,0.72355,,,,,,
285,292,14600,-63.35379360087678,0.011821976862847805,0.011821976862847805,0.05793187767267227,0.4333701324462891,0.12388303130865097,0.8920523524284363,0.5382159423828125,0.126643106341362,0.9263947010040283,0.7226,,,,,,
286,293,14650,-63.51375974570701,0.011222673580050468,0.011222673580050468,0.08552426099777222,0.4558922576904297,0.13478660583496094,0.8721892237663269,0.5478755950927734,0.11019323766231537,0.835663378238678,0.72165,,,,,,
287,294,14700,-76.12709834692038,0.011170633137226105,0.011170633137226105,0.08236071467399597,0.40685192108154294,0.1336914300918579,0.844322144985199,0.49843372344970704,0.11192600429058075,0.8609479665756226,0.7207,,,,,,
288,295,14750,-39.56712938451843,0.00955272652208805,0.00955272652208805,0.07882019132375717,0.3930677032470703,0.14677101373672485,0.8877953290939331,0.5148326873779296,0.15985463559627533,0.994160532951355,0.71975,,,,,,
289,296,14800,-68.5380675259471,0.011998480185866356,0.011998480185866356,0.09992855042219162,0.4339840698242188,0.1618078649044037,0.9414194226264954,0.5346786880493164,0.16123807430267334,0.8855721354484558,0.7188000000000001,,,,,,
290,297,14850,-114.66869994571913,0.012800437398254871,0.012800437398254871,0.18664507567882538,0.434903564453125,0.1345106065273285,0.9166454672813416,0.5957149124145508,0.14430421590805054,1.041162371635437,0.7178500000000001,,,,,,
291,298,14900,-82.39204923423034,0.010419457219541073,0.010419457219541073,0.09848123788833618,0.40494564056396487,0.13148781657218933,0.9491747617721558,0.5298662567138672,0.12367025017738342,0.8680618405342102,0.7169000000000001,,,,,,
292,299,14950,-32.88059539971805,0.007030297536402941,0.007030297536402941,0.05936487391591072,0.3644402313232422,0.11149972677230835,0.7439810037612915,0.446470947265625,0.1184425875544548,0.849565863609314,0.7159500000000001,,,,,,
293,300,15000,-42.537561185676516,0.00909697636961937,0.00909697636961937,0.05503038689494133,0.43123645782470704,0.10723712295293808,0.8975263833999634,0.5147916412353516,0.10421459376811981,0.8228663206100464,0.7150000000000001,1.5356941788415224,5,0.3752,0.5704,-126.17119988175229,-126.17119988175229
294,301,15050,-88.39370883459807,0.012271547690033913,0.012271547690033913,0.07110141217708588,0.38832138061523436,0.14002612233161926,0.9229697585105896,0.5012039184570313,0.11168746650218964,0.8971520662307739,0.7140500000000001,,,,,,
295,302,15100,-64.62592443620711,0.01375016663223505,0.01375016663223505,0.1338111311197281,0.4008536529541016,0.13705769181251526,0.7886828184127808,0.5444914245605469,0.11701864004135132,0.8191213607788086,0.7131000000000001,,,,,,
296,303,15150,-106.08695224247487,0.010150868445634842,0.010150868445634842,0.06047555431723595,0.44882099151611327,0.13429787755012512,0.9166918396949768,0.5583898162841797,0.13350129127502441,0.9097434282302856,0.7121500000000001,,,,,,
297,304,15200,-64.96741944035536,0.00912443082779646,0.00912443082779646,0.08415006101131439,0.38250740051269533,0.1135091707110405,0.7068620920181274,0.49155296325683595,0.11354976147413254,0.7627215385437012,0.7112,,,,,,
298,305,15250,-130.3904382866893,0.013611850328743458,0.013611850328743458,0.1313362717628479,0.46799884796142577,0.1513909250497818,0.9072201251983643,0.6107936859130859,0.15449555218219757,1.0441805124282837,0.71025,,,,,,
299,306,15300,-71.36217050378296,0.0115787573158741,0.0115787573158741,0.07757152616977692,0.425064697265625,0.13104863464832306,0.8228929042816162,0.5473381423950195,0.14065340161323547,0.8361680507659912,0.7093,,,,,,
300,307,15350,-65.97041936421083,0.01229065377265215,0.01229065377265215,0.12361277639865875,0.4198721313476563,0.12747587263584137,0.7860400676727295,0.5162869262695312,0.12799018621444702,0.8610997796058655,0.70835,,,,,,
301,308,15400,-48.459812030634566,0.01212251279503107,0.01212251279503107,0.09108390659093857,0.3814276885986328,0.14438939094543457,0.7274520993232727,0.49895774841308593,0.13604788482189178,0.8524623513221741,0.7074,,,,,,
302,309,15450,-39.68593138239125,0.011036201380193233,0.011036201380193233,0.08155837655067444,0.42263545989990237,0.1207386776804924,0.8414310216903687,0.5132987976074219,0.0855424627661705,0.7571091055870056,0.70645,,,,,,
303,310,15500,-99.52538589690971,0.012140720151364803,0.012140720151364803,0.10409576445817947,0.43079662322998047,0.13684819638729095,0.8123317956924438,0.5491268157958984,0.13166387379169464,0.9167677760124207,0.7055,,,,,,
304,311,15550,-147.28731337138387,0.012950142845511436,0.012950142845511436,0.11014804244041443,0.45923484802246095,0.1382577270269394,0.8137462735176086,0.5685121536254882,0.12736864387989044,0.8552738428115845,0.70455,,,,,,
305,312,15600,-49.46834949484311,0.015960579738020897,0.015960579738020897,0.27027949690818787,0.4591730880737305,0.1398162543773651,0.7869914174079895,0.5246383666992187,0.12247265875339508,0.8282129168510437,0.7036,,,,,,
306,313,15650,-49.279642483761776,0.011032943613827229,0.011032943613827229,0.060510698705911636,0.4325579071044922,0.13658401370048523,0.8335466384887695,0.5562994384765625,0.09878379851579666,0.8275902271270752,0.70265,,,,,,
307,314,15700,-65.23538931742763,0.010588535107672215,0.010588535107672215,0.12397998571395874,0.3995536422729492,0.12148170918226242,0.7573782205581665,0.5260086822509765,0.1087578684091568,0.8024090528488159,0.7017,,,,,,
308,315,15750,-41.90811939414382,0.007189092691987753,0.007189092691987753,0.0646597221493721,0.4116357421875,0.12172405421733856,0.7445123791694641,0.4989468002319336,0.1011529490351677,0.8012176156044006,0.70075,,,,,,
309,316,15800,-44.25685874203839,0.008330309763550758,0.008330309763550758,0.05301891267299652,0.3798695755004883,0.1170225590467453,0.7542070150375366,0.4796353530883789,0.13038544356822968,0.8931982517242432,0.6998,,,,,,
310,317,15850,-41.30188861818788,0.011235704645514488,0.011235704645514488,0.06396682560443878,0.4616960906982422,0.12829110026359558,0.8501498699188232,0.5897425079345703,0.11819588392972946,0.8641561269760132,0.69885,,,,,,
311,318,15900,-60.36213053475182,0.010039866901934147,0.010039866901934147,0.056146688759326935,0.38742427825927733,0.12068020552396774,0.7043683528900146,0.4926530075073242,0.096833236515522,0.7423988580703735,0.6979,,,,,,
312,319,15950,-58.722330419641004,0.012296400964260101,0.012296400964260101,0.14253780245780945,0.44921096801757815,0.14228762686252594,0.9153620004653931,0.5906923294067383,0.1588456630706787,1.048093318939209,0.69695,,,,,,
313,320,16000,-60.71287959772586,0.015470346435904503,0.015470346435904503,0.18660402297973633,0.3874918746948242,0.11500409990549088,0.6781513690948486,0.5460729217529297,0.13866259157657623,0.8761524558067322,0.696,,,,,,
314,321,16050,-56.39209303927357,0.011172700673341751,0.011172700673341751,0.06203734502196312,0.42426509857177735,0.12927775084972382,0.9306375980377197,0.5281992340087891,0.16497543454170227,1.0103646516799927,0.69505,,,,,,
315,322,16100,-46.06861734367866,0.010368767194449902,0.010368767194449902,0.07683451473712921,0.4176775360107422,0.13108742237091064,0.8193823099136353,0.5135025024414063,0.09890588372945786,0.7476402521133423,0.6940999999999999,,,,,,
316,323,16150,-86.30830959511903,0.011220871470868587,0.011220871470868587,0.15368980169296265,0.37619613647460937,0.12088387459516525,0.7172527313232422,0.5251606369018554,0.13304224610328674,0.8167498707771301,0.6931499999999999,,,,,,
317,324,16200,-39.27342861251629,0.012089734897017479,0.012089734897017479,0.07402138411998749,0.427835578918457,0.13406497240066528,0.8659517168998718,0.5348139953613281,0.13298462331295013,0.8258294463157654,0.6921999999999999,,,,,,
318,325,16250,-75.07419514572962,0.01110859028995037,0.01110859028995037,0.10313741862773895,0.4251974487304688,0.1305544376373291,0.7678297758102417,0.558177719116211,0.12715855240821838,0.8550807237625122,0.69125,1.5615291082017462,5,0.3024,0.5416,-120.55097992385282,-120.55097992385281
319,326,16300,-59.67657224565299,0.013657019473612309,0.013657019473612309,0.08885335922241211,0.4503148651123047,0.15047667920589447,0.9301369786262512,0.5622977066040039,0.13076019287109375,0.8956804275512695,0.6903,,,,,,
320,327,16350,-54.91930532052307,0.011030194349586964,0.011030194349586964,0.1031096950173378,0.41805362701416016,0.14113664627075195,0.9187685251235962,0.5398619079589844,0.10006050765514374,0.8839952349662781,0.68935,,,,,,
321,328,16400,-101.00324822609355,0.013173217885196209,0.013173217885196209,0.10921525210142136,0.439423713684082,0.1346910148859024,0.8411448001861572,0.5700028228759766,0.12109848111867905,0.8229695558547974,0.6884,,,,,,
322,329,16450,-102.23277413657442,0.010762292891740799,0.010762292891740799,0.07521795481443405,0.4244779968261719,0.1399877667427063,0.9161688089370728,0.5465229034423829,0.12901775538921356,0.9346755743026733,0.68745,,,,,,
323,330,16500,-80.98156529870234,0.011832766234874725,0.011832766234874725,0.11343365162611008,0.3938391494750977,0.12402266263961792,0.8057824373245239,0.5208297729492187,0.12304376810789108,0.8934670686721802,0.6865,,,,,,
324,331,16550,-56.32294511108348,0.01088282372802496,0.01088282372802496,0.06854238361120224,0.43287124633789065,0.1343604028224945,0.8107010722160339,0.5434360504150391,0.11765630543231964,0.9185265898704529,0.68555,,,,,,
325,332,16600,-65.26416027950856,0.010493654757738113,0.010493654757738113,0.06613949686288834,0.4630680465698242,0.13620725274085999,0.848991334438324,0.5783671951293945,0.11050544679164886,0.8374289274215698,0.6846,,,,,,
326,333,16650,-58.174090516172335,0.01095706969499588,0.01095706969499588,0.13732509315013885,0.42316661834716796,0.1228904277086258,0.7439538240432739,0.5595214080810547,0.13936854898929596,0.8687361478805542,0.68365,,,,,,
327,334,16700,-50.40109644885725,0.010083776898682117,0.010083776898682117,0.08710900694131851,0.3980663299560547,0.1334521770477295,0.9166041612625122,0.5098232650756835,0.11234334856271744,0.8164302110671997,0.6827,,,,,,
328,335,16750,-55.365072942501,0.008955474942922592,0.008955474942922592,0.12498106807470322,0.39031330108642576,0.1154940277338028,0.6631495356559753,0.518358383178711,0.10607583820819855,0.7232539057731628,0.6817500000000001,,,,,,
329,336,16800,-70.02607520524992,0.010786949656903744,0.010786949656903744,0.08809800446033478,0.43289398193359374,0.1297985464334488,0.7849467992782593,0.5691363143920899,0.1191711500287056,0.8507641553878784,0.6808000000000001,,,,,,
330,337,16850,-54.133177937351995,0.009415733627974987,0.009415733627974987,0.07813951373100281,0.43428462982177735,0.13189947605133057,0.9151868224143982,0.5430401229858398,0.12248080968856812,0.9416698217391968,0.6798500000000001,,,,,,
331,338,16900,-58.75037882933659,0.009881981648504734,0.009881981648504734,0.05821256712079048,0.41156944274902346,0.13862654566764832,0.8497979044914246,0.5159370040893555,0.12734122574329376,0.8385661840438843,0.6789000000000001,,,,,,
332,339,16950,-43.27009856281086,0.010187430307269096,0.010187430307269096,0.07199501991271973,0.4239754867553711,0.11540637165307999,0.771167516708374,0.541263313293457,0.11827827990055084,0.8496482372283936,0.67795,,,,,,
333,340,17000,-65.20394705777007,0.00992203876376152,0.00992203876376152,0.06235046684741974,0.4341180038452148,0.12210509926080704,0.7958885431289673,0.5501824188232421,0.11200136691331863,0.8490930199623108,0.677,,,,,,
334,341,17050,-66.99971298501659,0.015107260085642338,0.015107260085642338,0.08750083297491074,0.5036087036132812,0.14797288179397583,0.8849191665649414,0.619190788269043,0.15175801515579224,1.0518192052841187,0.67605,,,,,,
335,342,17100,-65.62904370969915,0.010009562596678734,0.010009562596678734,0.19184324145317078,0.395577392578125,0.1581466645002365,0.8493540287017822,0.46462795257568357,0.1532503068447113,0.8393609523773193,0.6751,,,,,,
336,343,17150,-47.65008206307113,0.009288793429732323,0.009288793429732323,0.06433584541082382,0.43462371826171875,0.13823455572128296,0.8370092511177063,0.527274398803711,0.136148139834404,0.8405933380126953,0.67415,,,,,,
337,344,17200,-60.40099806537228,0.009509832598268986,0.009509832598268986,0.15467657148838043,0.4130747985839844,0.1165003553032875,0.8443422317504883,0.4687566375732422,0.09807278960943222,0.7890558838844299,0.6732,,,,,,
338,345,17250,-74.79671180271463,0.007070561870932579,0.007070561870932579,0.051366545259952545,0.36132938385009766,0.11898532509803772,0.7690972685813904,0.45302864074707033,0.10065346211194992,0.7098046541213989,0.67225,,,,,,
339,346,17300,-78.93173381844066,0.013538193888962269,0.013538193888962269,0.11829651147127151,0.4986552047729492,0.13668192923069,0.8490930795669556,0.6049082946777343,0.1172124370932579,0.872231125831604,0.6713,,,,,,
340,347,17350,-93.98967233417086,0.009692898020148277,0.009692898020148277,0.09877065569162369,0.3786724853515625,0.128276064991951,0.7876830101013184,0.49684585571289064,0.12678681313991547,0.8715802431106567,0.67035,,,,,,
341,348,17400,-40.219772496200505,0.012494022957980633,0.012494022957980633,0.08749376982450485,0.45516727447509764,0.18145616352558136,1.0958888530731201,0.5707556915283203,0.2230621725320816,1.2680832147598267,0.6694,,,,,,
342,349,17450,-116.9195937770419,0.011967391707003117,0.011967391707003117,0.08165112882852554,0.4486370849609375,0.14146050810813904,1.0307409763336182,0.5724857330322266,0.13329292833805084,1.0402958393096924,0.66845,,,,,,
343,350,17500,-99.23057840598283,0.01115307118743658,0.01115307118743658,0.1577572226524353,0.4630486297607422,0.12366437166929245,0.7826657295227051,0.5397508621215821,0.0936785489320755,0.8695507049560547,0.6675,1.5109421702040304,5,0.4372,0.604,-118.27938951337603,-118.27938951337603
344,351,17550,-68.06944046836564,0.010217986069619656,0.010217986069619656,0.06703394651412964,0.4134783172607422,0.12018205225467682,0.7673590183258057,0.5159074401855469,0.12045041471719742,0.8286314606666565,0.66655,,,,,,
345,352,17600,-94.2132808719548,0.010509359650313854,0.010509359650313854,0.0988192930817604,0.4010188293457031,0.13601788878440857,0.7941849231719971,0.5226403045654296,0.12768742442131042,0.8493422269821167,0.6656,,,,,,
346,353,17650,-39.910911109926566,0.008970662020146847,0.008970662020146847,0.1033000499010086,0.3927254486083984,0.10842188447713852,0.7650943994522095,0.4735478210449219,0.09160127490758896,0.6991842985153198,0.66465,,,,,,
347,354,17700,-53.11807882761604,0.010523993521928787,0.010523993521928787,0.11064712703227997,0.441273193359375,0.11373388022184372,0.841916024684906,0.5687101745605468,0.11792277544736862,0.9858189821243286,0.6637,,,,,,
348,355,17750,-70.94825518578392,0.011715630069375038,0.011715630069375038,0.10236142575740814,0.4623686218261719,0.13701467216014862,0.839908242225647,0.6049053192138671,0.1503898799419403,0.9855510592460632,0.66275,,,,,,
349,356,17800,-52.014275661175844,0.013719934970140457,0.013719934970140457,0.11328452825546265,0.43197944641113284,0.14263702929019928,1.0146487951278687,0.5768254852294922,0.1507960855960846,1.0400131940841675,0.6618,,,,,,
350,357,17850,-89.02219937185443,0.01028392557054758,0.01028392557054758,0.10039659589529037,0.41854038238525393,0.11684660613536835,0.7911933660507202,0.5426763916015624,0.11681821942329407,0.8241854310035706,0.66085,,,,,,
351,358,17900,-62.32673865452742,0.008056603372097015,0.008056603372097015,0.09816490113735199,0.3651388549804688,0.11187884211540222,0.6333291530609131,0.42942955017089846,0.09521656483411789,0.6703441143035889,0.6599,,,,,,
352,359,17950,-86.29183799242381,0.012723042629659176,0.012723042629659176,0.11741949617862701,0.4184295272827148,0.16387979686260223,1.1354191303253174,0.5297104644775391,0.20480579137802124,1.3035634756088257,0.65895,,,,,,
353,360,18000,-35.65549569448463,0.005834704730659723,0.005834704730659723,0.03998630493879318,0.4082963180541992,0.11461781710386276,0.7777512669563293,0.51550048828125,0.10357818007469177,0.7062820196151733,0.658,,,,,,
354,361,18050,-88.237786868329,0.010231010615825653,0.010231010615825653,0.05191108211874962,0.40628643035888673,0.11415151506662369,0.8792991638183594,0.49382713317871096,0.11437780410051346,0.8877317905426025,0.65705,,,,,,
355,362,18100,-66.61378953681516,0.012553529813885689,0.012553529813885689,0.13858969509601593,0.45319892883300783,0.1287337988615036,0.7617623805999756,0.5402352142333985,0.12691661715507507,0.8683995008468628,0.6561,,,,,,
356,363,18150,-83.2957050614883,0.007029135245829821,0.007029135245829821,0.06774985790252686,0.4282232666015625,0.13386671245098114,0.7829599380493164,0.5190564346313477,0.11485287547111511,0.8535460233688354,0.65515,,,,,,
357,364,18200,-56.90518210916803,0.00955345667898655,0.00955345667898655,0.11661254614591599,0.4620648956298828,0.1463819295167923,0.9411166310310364,0.5582265472412109,0.13166674971580505,1.0787441730499268,0.6542,,,,,,
358,365,18250,-41.31537964377149,0.010121336206793785,0.010121336206793785,0.12572608888149261,0.40096622467041015,0.12461940199136734,0.8199799060821533,0.5447286987304687,0.1148960143327713,0.8035413026809692,0.65325,,,,,,
359,366,18300,-50.87836232670658,0.00846768543124199,0.00846768543124199,0.11911126226186752,0.38266395568847655,0.11189580708742142,0.7611492276191711,0.5109965896606445,0.10174991935491562,0.7832833528518677,0.6523000000000001,,,,,,
360,367,18350,-79.68708301073035,0.0086203096434474,0.0086203096434474,0.11426003277301788,0.39899803161621095,0.10428276658058167,0.6160459518432617,0.47773521423339843,0.07158303260803223,0.6324714422225952,0.6513500000000001,,,,,,
361,368,18400,-53.14173978207591,0.008552406914532185,0.008552406914532185,0.1257821023464203,0.4309215545654297,0.1284731775522232,0.819124162197113,0.5037417602539063,0.11566737294197083,0.8813779354095459,0.6504000000000001,,,,,,
362,369,18450,-53.7629030560637,0.011104041710495949,0.011104041710495949,0.1093883216381073,0.4536997604370117,0.127607062458992,0.8734158277511597,0.5437410354614258,0.12467823177576065,0.8886542320251465,0.6494500000000001,,,,,,
363,370,18500,-59.653635959383976,0.008916834369301796,0.008916834369301796,0.07684753835201263,0.41564666748046875,0.1402065008878708,0.9343598484992981,0.5431174087524414,0.13419175148010254,1.079379677772522,0.6485000000000001,,,,,,
364,371,18550,-52.62019938529776,0.009062664583325386,0.009062664583325386,0.0982585996389389,0.3871382522583008,0.11080927401781082,0.6707273125648499,0.5037533569335938,0.1189502477645874,0.8138628005981445,0.6475500000000001,,,,,,
365,372,18600,-78.96653555200214,0.009935886599123478,0.009935886599123478,0.11117181181907654,0.4479661560058594,0.1395564079284668,0.8810773491859436,0.5421549606323243,0.09325039386749268,0.7501754760742188,0.6466000000000001,,,,,,
366,373,18650,-55.50846509623671,0.01219065673649311,0.01219065673649311,0.12686872482299805,0.435941162109375,0.1378786712884903,0.8359102010726929,0.5796223068237305,0.12976928055286407,0.980022668838501,0.6456500000000001,,,,,,
367,374,18700,-49.58018749197438,0.009060385636985302,0.009060385636985302,0.078143410384655,0.4159988021850586,0.133184552192688,0.8091083765029907,0.4979137420654297,0.0995306596159935,0.7944896817207336,0.6447,,,,,,
368,375,18750,-59.974602099106306,0.009782139211893082,0.009782139211893082,0.09030584245920181,0.4131955337524414,0.11999421566724777,0.7517183423042297,0.5245577621459961,0.11336313933134079,0.87882399559021,0.64375,1.5458136280133188,5,0.3884,0.5968,-104.0027603571025,-104.0027603571025
369,376,18800,-71.81624089882754,0.008651972748339176,0.008651972748339176,0.06502370536327362,0.4550268936157227,0.12177972495555878,0.8459678888320923,0.5444702911376953,0.10398951917886734,0.8459555506706238,0.6428,,,,,,
370,377,18850,-96.26987380788132,0.008234454318881035,0.008234454318881035,0.052862368524074554,0.35058074951171875,0.09720869362354279,0.6314427852630615,0.4440727615356445,0.07600568234920502,0.6038179397583008,0.64185,,,,,,
371,378,18900,-77.48679396580957,0.013188264332711697,0.013188264332711697,0.15219470858573914,0.4744509506225586,0.12617504596710205,0.8098291754722595,0.6340742111206055,0.14951719343662262,0.9928615093231201,0.6409,,,,,,
372,379,18950,-40.75807850556251,0.008990242145955563,0.008990242145955563,0.05836270749568939,0.4187746047973633,0.13144554197788239,0.828511118888855,0.5155740737915039,0.11718328297138214,0.7810935974121094,0.63995,,,,,,
373,380,19000,-54.08888852551677,0.008474634028971195,0.008474634028971195,0.06391245871782303,0.4137157440185547,0.12460022419691086,0.7251391410827637,0.5140171051025391,0.09923858195543289,0.8689192533493042,0.639,,,,,,
374,381,19050,-75.36013014330378,0.00908383447676897,0.00908383447676897,0.060841429978609085,0.4304867935180664,0.11748006939888,0.7344476580619812,0.5450919723510742,0.11016190052032471,0.8688751459121704,0.63805,,,,,,
375,382,19100,-68.83196804355879,0.010108238086104393,0.010108238086104393,0.10248583555221558,0.4504633712768555,0.14114540815353394,0.8152629137039185,0.5876647186279297,0.13225683569908142,0.8794475197792053,0.6371,,,,,,
376,383,19150,-51.2674264912148,0.011702511459589005,0.011702511459589005,0.1670321822166443,0.4705393981933594,0.13315577805042267,0.8169965744018555,0.6253385925292969,0.13575232028961182,0.9765745401382446,0.63615,,,,,,
377,384,19200,-73.36088404415975,0.010729308240115643,0.010729308240115643,0.058192621916532516,0.44694057464599607,0.1186257004737854,0.7357602119445801,0.550544204711914,0.11007890105247498,0.8110438585281372,0.6352,,,,,,
378,385,19250,-49.44336890797919,0.009595022536814213,0.009595022536814213,0.04980176314711571,0.4116736602783203,0.1335947960615158,0.760651171207428,0.5196861267089844,0.12536492943763733,0.833220362663269,0.63425,,,,,,
379,386,19300,-65.39259078426358,0.010210023261606693,0.010210023261606693,0.09509488940238953,0.4138750839233398,0.11312083899974823,0.7500690817832947,0.5505895233154297,0.08548475801944733,0.7394073009490967,0.6333,,,,,,
380,387,19350,-113.13887146258675,0.010480058379471302,0.010480058379471302,0.07745248079299927,0.426815071105957,0.13172253966331482,0.8398264646530151,0.545587158203125,0.10285105556249619,0.814497172832489,0.63235,,,,,,
381,388,19400,-85.14210007238151,0.0091784056276083,0.0091784056276083,0.09207502007484436,0.4059514617919922,0.12070593237876892,0.6955933570861816,0.5241063690185547,0.08826792240142822,0.7665034532546997,0.6314,,,,,,
382,389,19450,-59.41128742529447,0.01346941851079464,0.01346941851079464,0.12797453999519348,0.515682487487793,0.14224103093147278,0.9218119978904724,0.6270378112792969,0.13549242913722992,1.0791696310043335,0.63045,,,,,,
383,390,19500,-42.74977543212441,0.007374048698693514,0.007374048698693514,0.050553902983665466,0.4030144500732422,0.11609817296266556,0.7276356816291809,0.5071627426147461,0.08824916929006577,0.7381733655929565,0.6295,,,,,,
384,391,19550,-69.92482720171127,0.00855262205004692,0.00855262205004692,0.06938339024782181,0.4360191345214844,0.13287848234176636,0.8723961114883423,0.5463860321044922,0.1057935580611229,0.876200795173645,0.6285499999999999,,,,,,
385,392,19600,-89.90342546721185,0.007668242324143648,0.007668242324143648,0.06860318034887314,0.39370285034179686,0.10670067369937897,0.7098335027694702,0.5053426361083985,0.1143910139799118,0.8474222421646118,0.6275999999999999,,,,,,
386,393,19650,-78.05282742548867,0.010397288016974926,0.010397288016974926,0.07717843353748322,0.44219223022460935,0.14250917732715607,0.8612319827079773,0.5560994338989258,0.12181619554758072,0.8845095634460449,0.6266499999999999,,,,,,
387,394,19700,-64.31433232481027,0.00798888225108385,0.00798888225108385,0.04246671497821808,0.423676643371582,0.11866863816976547,0.7524884939193726,0.5314719772338867,0.11288182437419891,0.7598872184753418,0.6256999999999999,,,,,,
388,395,19750,-44.995689524146215,0.010388456284999847,0.010388456284999847,0.10042364150285721,0.41254966735839843,0.14128661155700684,0.8874086141586304,0.5528047943115234,0.13190558552742004,0.9335540533065796,0.62475,,,,,,
389,396,19800,-81.27250476920295,0.008265960030257702,0.008265960030257702,0.06589403003454208,0.4459621810913086,0.11729326844215393,0.7432371973991394,0.5629406356811524,0.11254717409610748,0.8592724800109863,0.6238,,,,,,
390,397,19850,-56.27029068712952,0.012268513441085815,0.012268513441085815,0.12808053195476532,0.47469161987304687,0.15901945531368256,1.0403313636779785,0.6256404495239258,0.20986659824848175,1.2590534687042236,0.62285,,,,,,
391,398,19900,-36.909251093397714,0.00927057210355997,0.00927057210355997,0.09637711197137833,0.40855064392089846,0.12256819754838943,0.7898803949356079,0.5375128936767578,0.10611886531114578,0.8475124835968018,0.6219,,,,,,
392,399,19950,-43.81147397865876,0.009481590241193771,0.009481590241193771,0.09974493086338043,0.47013671875,0.141211599111557,0.9417805671691895,0.5654813385009766,0.1448672115802765,1.0310471057891846,0.62095,,,,,,
393,400,20000,-55.09901326509379,0.007201718166470528,0.007201718166470528,0.07624071091413498,0.40083465576171873,0.1145821213722229,0.768089771270752,0.5128665161132813,0.10989794880151749,0.8461542725563049,0.62,1.556259819980456,5,0.3488,0.5904,-104.00155332220959,-104.0015533222096
394,401,20050,-60.87935384423423,0.007378654554486275,0.007378654554486275,0.043373387306928635,0.44960311889648436,0.12673348188400269,0.8566806316375732,0.5534794998168945,0.113036148250103,0.9231081008911133,0.61905,,,,,,
395,402,20100,-77.46311976889423,0.01112549938261509,0.01112549938261509,0.09723053872585297,0.4182706832885742,0.1693652719259262,1.0482358932495117,0.5251704025268554,0.20451143383979797,1.284790277481079,0.6181,,,,,,
396,403,20150,-59.590484069330486,0.01271144114434719,0.01271144114434719,0.15218620002269745,0.4502053070068359,0.17326517403125763,1.036590337753296,0.6197596740722656,0.21375495195388794,1.2564750909805298,0.61715,,,,,,
397,404,20200,-54.37082951383132,0.009398802183568478,0.009398802183568478,0.09355371445417404,0.42666786193847656,0.1189705953001976,0.8340485095977783,0.5571081161499023,0.10954788327217102,0.8244978189468384,0.6162,,,,,,
398,405,20250,-65.53132751766402,0.009268632158637047,0.009268632158637047,0.06506195664405823,0.39937969207763674,0.12464812397956848,0.8096559047698975,0.49512428283691406,0.09186404198408127,0.8683609962463379,0.6152500000000001,,,,,,
399,406,20300,-59.189659514988065,0.009538408368825912,0.009538408368825912,0.0689556673169136,0.4597231674194336,0.12274038046598434,0.866192102432251,0.5803826522827148,0.10944358259439468,0.8772940635681152,0.6143000000000001,,,,,,
400,407,20350,-65.1446340648701,0.008032684214413166,0.008032684214413166,0.08197037875652313,0.4263037109375,0.13190220296382904,0.913125216960907,0.5160249328613281,0.12627588212490082,1.0764267444610596,0.6133500000000001,,,,,,
401,408,20400,-66.48714385578852,0.0090623265132308,0.0090623265132308,0.056722722947597504,0.4304027938842773,0.14314013719558716,0.8385376334190369,0.5476885223388672,0.14746975898742676,0.9693891406059265,0.6124,,,,,,
402,409,20450,-51.722200540683225,0.00963947456330061,0.00963947456330061,0.1183929368853569,0.46312957763671875,0.12598437070846558,0.8460140228271484,0.5535754013061523,0.10407416522502899,0.873227596282959,0.61145,,,,,,
403,410,20500,-55.172312438891105,0.009141667746007442,0.009141667746007442,0.07636703550815582,0.4452992630004883,0.1366138607263565,0.8010871410369873,0.5713277435302735,0.12643998861312866,0.8502084016799927,0.6105,,,,,,
404,411,20550,-37.98425204485711,0.009382043965160847,0.009382043965160847,0.07527615129947662,0.4385387420654297,0.1177835687994957,0.7049474716186523,0.5480690765380859,0.08514703065156937,0.7359484434127808,0.60955,,,,,,
405,412,20600,-52.630705299291705,0.008464557118713856,0.008464557118713856,0.07347635924816132,0.46593360900878905,0.12276961654424667,0.8744588494300842,0.5440607452392578,0.1033320352435112,0.8912866115570068,0.6086,,,,,,
406,413,20650,-52.76593360798311,0.008809052407741547,0.008809052407741547,0.05599827319383621,0.4429974365234375,0.14000199735164642,0.8998730778694153,0.5438131713867187,0.14394687116146088,0.9322164058685303,0.60765,,,,,,
407,414,20700,-48.393747614987895,0.012754226103425026,0.012754226103425026,0.17210547626018524,0.4704818344116211,0.13577991724014282,0.881109893321991,0.6255910110473633,0.1642783284187317,1.0548535585403442,0.6067,,,,,,
408,415,20750,-61.861426416348095,0.010296735912561417,0.010296735912561417,0.08611899614334106,0.4772713088989258,0.12941722571849823,0.8351314663887024,0.6092304611206054,0.11245738714933395,0.9211595058441162,0.60575,,,,,,
409,416,20800,-101.5328524601463,0.008290044963359833,0.008290044963359833,0.10365743190050125,0.46363731384277346,0.1370094120502472,0.8739069700241089,0.5451568603515625,0.11483504623174667,0.8915802836418152,0.6048,,,,,,
410,417,20850,-59.64306288791426,0.0074226283468306065,0.0074226283468306065,0.042551297694444656,0.3906255722045898,0.09431370347738266,0.6351991891860962,0.48927562713623046,0.08378861099481583,0.6964204907417297,0.60385,,,,,,
411,418,20900,-63.521370769283855,0.011393764987587929,0.011393764987587929,0.11263306438922882,0.43480453491210935,0.12612025439739227,0.7988768815994263,0.5649066162109375,0.1254439502954483,0.9388022422790527,0.6029,,,,,,
412,419,20950,-59.265188194952415,0.008671648800373077,0.008671648800373077,0.06759454309940338,0.43823436737060545,0.12325579673051834,0.7477104067802429,0.5530159759521485,0.12311943620443344,0.8472544550895691,0.60195,,,,,,
413,420,21000,-86.78533777465428,0.00834607146680355,0.00834607146680355,0.06848346441984177,0.4100391387939453,0.09957985579967499,0.6951712369918823,0.508094482421875,0.10532869398593903,0.8256572484970093,0.601,,,,,,
414,421,21050,-73.9984902264585,0.009078717790544033,0.009078717790544033,0.07042165845632553,0.4250676345825195,0.128404900431633,0.7643751502037048,0.5515776062011719,0.12067265808582306,0.8838534355163574,0.60005,,,,,,
415,422,21100,-43.63223218948197,0.00734069524332881,0.00734069524332881,0.06172646954655647,0.3919462585449219,0.10093004256486893,0.6737813353538513,0.50539306640625,0.07699237763881683,0.8395402431488037,0.5991,,,,,,
416,423,21150,-84.10419748579693,0.008521712385118008,0.008521712385118008,0.1301768571138382,0.4335384750366211,0.10595361888408661,0.7240122556686401,0.510529899597168,0.08433926105499268,0.7371065616607666,0.59815,,,,,,
417,424,21200,-43.03762195927236,0.007218665909022093,0.007218665909022093,0.053581394255161285,0.3894020080566406,0.1249675452709198,0.7073913812637329,0.48841323852539065,0.11317072063684464,0.8186323642730713,0.5972,,,,,,
418,425,21250,-55.981184247155,0.00964355282485485,0.00964355282485485,0.07138719409704208,0.4692812347412109,0.13852079212665558,0.8580462336540222,0.592251091003418,0.15306098759174347,0.9758821725845337,0.59625,1.53408451175466,5,0.3636,0.6276,-115.59727388827223,-115.59727388827223
419,426,21300,-51.81642830616573,0.008895967155694962,0.008895967155694962,0.058419547975063324,0.44674537658691404,0.12765537202358246,0.833164632320404,0.5392862701416016,0.10614295303821564,0.9193435907363892,0.5953,,,,,,
420,427,21350,-159.00251095272813,0.008684775792062283,0.008684775792062283,0.06670166552066803,0.44332386016845704,0.10740970820188522,0.7626113891601562,0.5569670104980469,0.09292539954185486,0.8401474356651306,0.59435,,,,,,
421,428,21400,-106.00605105299854,0.010907599702477455,0.010907599702477455,0.09029612690210342,0.41295921325683593,0.1336369812488556,0.8055862188339233,0.5017523956298828,0.1298723816871643,0.8298478126525879,0.5934,,,,,,
422,429,21450,-52.04194271140052,0.0073355273343622684,0.0073355273343622684,0.06456758826971054,0.41656333923339844,0.11501581221818924,0.7537219524383545,0.5128646469116211,0.11099289357662201,0.7736613750457764,0.59245,,,,,,
423,430,21500,-81.54203441774408,0.0079299071803689,0.0079299071803689,0.05743580311536789,0.44836284637451174,0.1256125271320343,0.7808365821838379,0.5639392471313477,0.10755304992198944,0.8010656237602234,0.5915,,,,,,
424,431,21550,-57.4066224945353,0.008878516964614391,0.008878516964614391,0.057875700294971466,0.4511017990112305,0.1098935604095459,0.7999614477157593,0.5509786987304688,0.11712849885225296,0.9352747797966003,0.59055,,,,,,
425,432,21600,-35.233743190353685,0.009728223085403442,0.009728223085403442,0.0502009354531765,0.45228302001953125,0.13662950694561005,0.8380767107009888,0.5613151931762695,0.13517074286937714,0.8404979109764099,0.5896,,,,,,
426,433,21650,-51.3837188909223,0.009742231108248234,0.009742231108248234,0.07146474719047546,0.41957042694091795,0.11890774965286255,0.7608358860015869,0.529807357788086,0.12238829582929611,0.8873359560966492,0.58865,,,,,,
427,434,21700,-47.44803561115166,0.011683193035423756,0.011683193035423756,0.07148142904043198,0.4601984405517578,0.12079985439777374,0.7274042367935181,0.5922262573242187,0.11594179272651672,0.8569556474685669,0.5877,,,,,,
428,435,21750,-98.71480782037277,0.010871265083551407,0.010871265083551407,0.09661155939102173,0.5083112716674805,0.15527477860450745,1.035474181175232,0.6393780136108398,0.17994119226932526,1.2410180568695068,0.58675,,,,,,
429,436,21800,-79.2010151476328,0.010504440404474735,0.010504440404474735,0.11271942406892776,0.40674331665039065,0.12167231738567352,0.7914395332336426,0.5347087860107422,0.10479328036308289,0.8291470408439636,0.5858000000000001,,,,,,
430,437,21850,-58.54372308882367,0.00913294404745102,0.00913294404745102,0.06278258562088013,0.4786990737915039,0.15780040621757507,0.8874651789665222,0.5898828125,0.1460922807455063,0.946664035320282,0.5848500000000001,,,,,,
431,438,21900,-49.40017435802991,0.00984506867825985,0.00984506867825985,0.09833016991615295,0.4889483261108398,0.11157029122114182,0.862714409828186,0.6153981399536133,0.09814238548278809,0.8784059882164001,0.5839000000000001,,,,,,
432,439,21950,-59.13390592909721,0.008163063786923885,0.008163063786923885,0.06084074452519417,0.3901194381713867,0.12007037550210953,0.7249760627746582,0.4937958908081055,0.11737416684627533,0.7778491973876953,0.5829500000000001,,,,,,
433,440,22000,-66.13561405242041,0.00818165298551321,0.00818165298551321,0.05743478611111641,0.41903095245361327,0.12274440377950668,0.76580411195755,0.5403549194335937,0.12096256017684937,0.8392229080200195,0.5820000000000001,,,,,,
434,441,22050,-64.61129169344095,0.01039318460971117,0.01039318460971117,0.11255306005477905,0.4354598617553711,0.12877140939235687,0.8361551761627197,0.5715353775024414,0.15868060290813446,0.9622458815574646,0.5810500000000001,,,,,,
435,442,22100,-47.69677534165112,0.009746046736836433,0.009746046736836433,0.15616080164909363,0.4572845458984375,0.1294116973876953,0.8283456563949585,0.5514776611328125,0.11144556850194931,0.8633567094802856,0.5801000000000001,,,,,,
436,443,22150,-60.18683100221627,0.009854953736066818,0.009854953736066818,0.0797126293182373,0.46374805450439455,0.12504281103610992,0.8714577555656433,0.5709041595458985,0.11102793365716934,0.8858829140663147,0.57915,,,,,,
437,444,22200,-64.85541543790474,0.011157491244375706,0.011157491244375706,0.075283482670784,0.4657452392578125,0.12691478431224823,0.8873396515846252,0.6013692474365234,0.13404229283332825,0.9349313974380493,0.5782,,,,,,
438,445,22250,-44.21601302417621,0.00834711268544197,0.00834711268544197,0.056787874549627304,0.4303474426269531,0.11865603178739548,0.7523298263549805,0.5342456817626953,0.11864498257637024,0.819753110408783,0.57725,,,,,,
439,446,22300,-60.19789964556235,0.009389849379658699,0.009389849379658699,0.08161474019289017,0.44189140319824216,0.11798496544361115,0.858045756816864,0.548822021484375,0.12297919392585754,0.9986205697059631,0.5763,,,,,,
440,447,22350,-47.054896141682974,0.010530767031013966,0.010530767031013966,0.06456567347049713,0.4443769836425781,0.1268942654132843,0.9205930829048157,0.5686083221435547,0.1223413273692131,1.0152384042739868,0.57535,,,,,,
