FS-tar/marl-mpe-learning/outputs/qmix_mpe/simple_spread/run009/train_log.csv
update,episode,total_steps,train_team_return,td_loss,grad_norm,q_tot_mean,target_q_tot_mean,epsilon,eval_team_return,eval_mean_agent_return
0,25,2500,-68.82205602976747,,,,,0.9625,-312.56929532837285,-312.5692953283729
1,30,3000,-173.7130629260108,1.7901322841644287,12.538226127624512,1.6426942348480225,3.79483699798584,0.955,,
2,31,3020,-21.434609806557937,1.4821289777755737,11.691798210144043,1.4534951448440552,3.3314476013183594,0.9547,,
3,31,3040,-32.80386493813431,1.4511381387710571,12.436100959777832,1.7856345176696777,3.587675094604492,0.9544,,
4,31,3060,-44.42542670319075,1.2779121398925781,10.950428009033203,1.9931647777557373,3.5566792488098145,0.9541,,
5,31,3080,-77.96186712510882,1.2627577781677246,11.092727661132812,1.988670825958252,3.5778279304504395,0.9538,,
6,31,3100,-116.85723598271453,1.0697550773620605,10.578226089477539,2.3367762565612793,3.618687629699707,0.9535,,
7,32,3120,-20.069353121967115,0.948157012462616,9.131752014160156,2.3632915019989014,3.5546603202819824,0.9532,,
8,32,3140,-46.843602399268406,0.8831562995910645,8.028192520141602,3.0377259254455566,3.9954278469085693,0.9529,,
9,32,3160,-64.03243328707465,0.800253689289093,8.395195960998535,2.8061487674713135,3.649341344833374,0.9526,,
10,32,3180,-82.63954596291651,0.6877801418304443,6.595008373260498,2.8455777168273926,3.538348436355591,0.9523,,
11,32,3200,-99.35234528265134,0.6184888482093811,6.634177207946777,3.170898675918579,3.7842960357666016,0.952,,
12,33,3220,-30.067782825104047,0.5934766530990601,4.485509872436523,3.2929201126098633,3.5375161170959473,0.9517,,
13,33,3240,-63.37619492872474,0.5664107799530029,4.299350738525391,3.2926769256591797,3.2756927013397217,0.9514,,
14,33,3260,-103.60979467918831,0.4027453362941742,3.5352447032928467,2.56618070602417,2.711871385574341,0.9511000000000001,,
15,33,3280,-153.68062434792645,0.568906307220459,4.847580432891846,3.2730963230133057,3.3657405376434326,0.9508,,
16,33,3300,-191.69786038367278,0.38425758481025696,4.617068290710449,3.5633113384246826,3.425873041152954,0.9505,,
17,34,3320,-23.564817212468053,0.410465806722641,4.961963176727295,3.7767324447631836,3.5555334091186523,0.9502,,
18,34,3340,-46.08446337389881,0.41715091466903687,3.4814884662628174,3.415341377258301,3.232288122177124,0.9499,,
19,34,3360,-70.3244578028856,0.27868780493736267,4.479958534240723,3.2524280548095703,3.0366859436035156,0.9496,,
20,34,3380,-100.83041053332902,0.3871840536594391,6.229165554046631,3.7374446392059326,3.434072494506836,0.9493,,
21,34,3400,-134.092884683491,0.37232983112335205,6.810471057891846,4.133746147155762,3.7458157539367676,0.949,,
22,35,3420,-15.444929844081129,0.39077454805374146,5.035262584686279,3.703986644744873,3.4195303916931152,0.9487,,
23,35,3440,-37.32304202450845,0.327673077583313,4.8511505126953125,3.9507973194122314,3.67720103263855,0.9484,,
24,35,3460,-60.66412802857996,0.3193455934524536,5.0733489990234375,3.963505983352661,3.736171245574951,0.9480999999999999,,
25,35,3480,-96.65333119009355,0.5091168880462646,4.501336097717285,4.232547283172607,3.913078784942627,0.9478,,
26,35,3500,-144.89150593405418,0.22272881865501404,3.492978811264038,3.6370348930358887,3.502573013305664,0.9475,,
27,36,3520,-22.590810089039145,0.33398836851119995,3.4576475620269775,3.6989150047302246,3.5977635383605957,0.9472,,
28,36,3540,-46.04062592631784,0.3487865626811981,3.170532703399658,3.4707751274108887,3.3185787200927734,0.9469,,
29,36,3560,-77.37712424490996,0.2552487552165985,3.723130702972412,3.770987033843994,3.7691550254821777,0.9466,,
30,36,3580,-107.7193674940255,0.3766946792602539,3.8858532905578613,4.145991802215576,4.020561218261719,0.9463,,
31,36,3600,-138.31716082515672,0.2612706422805786,4.748175621032715,3.4724249839782715,3.4400973320007324,0.946,,
32,37,3620,-20.232328121534252,0.2582436800003052,3.4443678855895996,3.9868645668029785,4.029922962188721,0.9457,,
33,37,3640,-51.38732569344993,0.24777694046497345,4.191924571990967,3.3900718688964844,3.5435233116149902,0.9454,,
34,37,3660,-76.86183549917548,0.30437612533569336,4.319925308227539,3.9508275985717773,4.0284576416015625,0.9451,,
35,37,3680,-102.99189495687703,0.1945367008447647,4.327870845794678,3.832432270050049,3.9771060943603516,0.9448,,
36,37,3700,-125.80549464167488,0.20531854033470154,4.339788436889648,3.4753928184509277,3.677570104598999,0.9445,,
37,38,3720,-18.347518161363386,0.3831064701080322,3.5075972080230713,4.162820816040039,4.055397033691406,0.9442,,
38,38,3740,-42.91879091355044,0.21051748096942902,3.9271976947784424,3.9978771209716797,4.151257038116455,0.9439,,
39,38,3760,-70.74884631228848,0.17946991324424744,4.470489025115967,3.4491798877716064,3.65216326713562,0.9436,,
40,38,3780,-106.26176765382253,0.3022462725639343,2.9316749572753906,3.529099464416504,3.5526046752929688,0.9433,,
41,38,3800,-146.42607730478093,0.26409801840782166,2.5474324226379395,3.772006034851074,3.8186635971069336,0.943,,
42,39,3820,-24.649380245412676,0.2959597408771515,2.8034331798553467,4.122352600097656,4.038273811340332,0.9427,,
43,39,3840,-45.16936683282961,0.17252764105796814,2.756216526031494,3.3143651485443115,3.3903284072875977,0.9424,,
44,39,3860,-69.5520149713638,0.1861095279455185,2.1887784004211426,3.4046339988708496,3.414119243621826,0.9420999999999999,,
45,39,3880,-98.10960358568806,0.19956505298614502,2.493124485015869,3.7682948112487793,3.8148460388183594,0.9418,,
46,39,3900,-128.47214622840966,0.17949745059013367,3.983797073364258,4.036810874938965,3.9194211959838867,0.9415,,
47,40,3920,-13.064953580727117,0.1435476392507553,2.977620840072632,3.8147592544555664,3.814526081085205,0.9412,,
48,40,3940,-33.459865116357534,0.2186702936887741,2.8129477500915527,3.594935894012451,3.433004379272461,0.9409,,
49,40,3960,-50.99185554862255,0.16634702682495117,2.2399299144744873,3.673060655593872,3.5706357955932617,0.9406,,
50,40,3980,-75.69123233941085,0.15239115059375763,2.804222822189331,3.9554896354675293,3.9457759857177734,0.9403,,
51,40,4000,-98.95424813388881,0.1522778421640396,2.5167174339294434,3.532954692840576,3.479234457015991,0.94,,
52,41,4020,-18.272324776476683,0.15203718841075897,3.343257188796997,3.5940544605255127,3.648165702819824,0.9397,,
53,41,4040,-44.03410359091532,0.13767561316490173,2.5419297218322754,3.648986577987671,3.636000156402588,0.9394,,
54,41,4060,-63.80866020488785,0.11304424703121185,2.5155539512634277,3.880981922149658,3.9341235160827637,0.9391,,
55,41,4080,-88.68381271992129,0.17123782634735107,2.566105604171753,3.464315891265869,3.3950490951538086,0.9388,,
56,41,4100,-117.5208454811347,0.10948494076728821,2.669966697692871,3.3875062465667725,3.442326068878174,0.9385,,
57,42,4120,-23.190209267638878,0.15538401901721954,2.8063154220581055,3.3566927909851074,3.316751003265381,0.9382,,
58,42,4140,-50.15508325322794,0.2820053994655609,1.792981505393982,3.307112216949463,3.0763938426971436,0.9379,,
59,42,4160,-86.52417913230728,0.1944347620010376,2.3381104469299316,4.0189738273620605,3.937028169631958,0.9376,,
60,42,4180,-126.65485683621033,0.11762060225009918,2.4894702434539795,3.8468027114868164,3.828120231628418,0.9373,,
61,42,4200,-172.17120975231126,0.15766441822052002,1.6576563119888306,3.729421854019165,3.667079210281372,0.9369999999999999,,
62,43,4220,-29.6456512544009,0.22631391882896423,2.324652671813965,4.063700199127197,3.98209285736084,0.9367,,
63,43,4240,-56.18496178369082,0.2165699452161789,2.3237156867980957,3.6760964393615723,3.5400190353393555,0.9364,,
64,43,4260,-78.49818154137697,0.17858004570007324,2.643545150756836,3.969731330871582,3.8899424076080322,0.9361,,
65,43,4280,-108.62283079599945,0.26880887150764465,3.7171313762664795,4.509742736816406,4.332229137420654,0.9358,,
66,43,4300,-131.15201006470147,0.16092456877231598,2.1086888313293457,3.604361057281494,3.5666651725769043,0.9355,,
67,44,4320,-8.694413779912008,0.10127875953912735,2.2406005859375,3.5629725456237793,3.507998466491699,0.9352,,
68,44,4340,-20.15283543842105,0.10627040266990662,2.2070634365081787,3.899928331375122,3.9278550148010254,0.9349,,
69,44,4360,-32.76858961961833,0.17776772379875183,2.7008121013641357,4.380505084991455,4.322072505950928,0.9346,,
70,44,4380,-47.436443276960766,0.17624032497406006,2.142449140548706,3.813258171081543,3.7800021171569824,0.9343,,
71,44,4400,-66.2224501874242,0.07371736317873001,1.5859105587005615,3.8900816440582275,3.9050137996673584,0.9339999999999999,,
72,45,4420,-29.185953668574825,0.10020464658737183,3.9253475666046143,3.8171844482421875,3.8873891830444336,0.9337,,
73,45,4440,-60.81209575688938,0.105072982609272,2.496961832046509,3.4836337566375732,3.5568313598632812,0.9334,,
74,45,4460,-114.216830159343,0.25641047954559326,1.9535470008850098,4.179026126861572,4.050652027130127,0.9331,,
75,45,4480,-181.74664884540803,0.25853896141052246,2.639012098312378,3.978235960006714,3.8649260997772217,0.9328,,
76,45,4500,-244.08266236540223,0.11585496366024017,2.7458627223968506,4.455777168273926,4.475170135498047,0.9325,,
77,46,4520,-17.498795477945457,0.1266196221113205,2.705376625061035,4.245647430419922,4.259838104248047,0.9322,,
78,46,4540,-37.99721756420849,0.263809472322464,1.9591304063796997,4.143993377685547,3.9538912773132324,0.9319,,
79,46,4560,-57.296131668272196,0.1296658217906952,2.910978078842163,3.816041946411133,3.8009257316589355,0.9316,,
80,46,4580,-76.84290131187129,0.08301141113042831,2.7370736598968506,4.025258541107178,4.048449516296387,0.9313,,
81,46,4600,-99.69072998485323,0.14056146144866943,3.3727970123291016,4.0518107414245605,3.938581943511963,0.931,,
82,47,4620,-23.345396368105586,0.16523653268814087,1.7784197330474854,3.7437033653259277,3.651317596435547,0.9307,,
83,47,4640,-48.85546040816363,0.1524129956960678,2.3393824100494385,4.008541107177734,3.935891628265381,0.9304,,
84,47,4660,-81.3556911297435,0.1753261834383011,2.6667323112487793,3.6102547645568848,3.544268846511841,0.9301,,
85,47,4680,-115.44690219765045,0.1891607791185379,1.7084376811981201,3.9269325733184814,3.821643352508545,0.9298,,
86,47,4700,-134.33935242580347,0.07959824055433273,1.7666435241699219,4.087582588195801,4.0888261795043945,0.9295,,
87,48,4720,-18.54878163679737,0.13103428483009338,2.2170701026916504,4.411153793334961,4.372813701629639,0.9292,,
88,48,4740,-44.508301901309885,0.12970876693725586,2.777235507965088,3.9171152114868164,3.8681094646453857,0.9289000000000001,,
89,48,4760,-71.10934615918111,0.1389988362789154,2.4647951126098633,3.879819393157959,3.860462188720703,0.9286,,
90,48,4780,-99.36633592165845,0.1383402943611145,1.6085423231124878,3.8143279552459717,3.8064980506896973,0.9283,,
91,48,4800,-124.22513685281722,0.07791292667388916,2.0928168296813965,3.7887537479400635,3.844630241394043,0.9279999999999999,,
92,49,4820,-28.50393430015323,0.12901388108730316,1.972106695175171,4.197890281677246,4.160961151123047,0.9277,,
93,49,4840,-59.85465717186018,0.1397320181131363,2.2294654846191406,4.05246114730835,4.011139869689941,0.9274,,
94,49,4860,-82.30074308216125,0.12259571254253387,1.9010587930679321,3.8510358333587646,3.8015146255493164,0.9271,,
95,49,4880,-105.09944296618987,0.19079509377479553,1.7190704345703125,3.578047752380371,3.4594497680664062,0.9268,,
96,49,4900,-130.6154360149725,0.11860015988349915,2.0336356163024902,4.140339374542236,4.098908424377441,0.9265,,
97,50,4920,-22.1912420374038,0.1055571585893631,2.5651845932006836,4.325771331787109,4.310074806213379,0.9262,,
98,50,4940,-48.95494203114574,0.1350027322769165,1.5532608032226562,4.042098045349121,3.979823112487793,0.9259,,
99,50,4960,-89.09438146271881,0.0735870897769928,1.526453971862793,3.8421950340270996,3.8190014362335205,0.9256,,
100,50,4980,-138.73578588365413,0.07424220442771912,1.6270571947097778,4.446001052856445,4.405008316040039,0.9253,,
101,50,5000,-209.3627280382429,0.14162921905517578,3.339458703994751,4.233226299285889,4.218378067016602,0.925,-430.56446133293196,-430.56446133293196
102,51,5020,-18.623854101741294,0.09987179189920425,1.4535847902297974,3.802978277206421,3.761592149734497,0.9247,,
103,51,5040,-34.95420145504889,0.18039727210998535,1.6912444829940796,3.7234280109405518,3.6418797969818115,0.9244,,
104,51,5060,-58.835902465218716,0.17485693097114563,2.2999508380889893,4.119933128356934,4.017580986022949,0.9241,,
105,51,5080,-89.77826648699761,0.11354503035545349,1.9516783952713013,4.272609710693359,4.258123397827148,0.9238,,
106,51,5100,-123.61661346244142,0.06266339123249054,2.246562957763672,4.204528331756592,4.168498992919922,0.9235,,
107,52,5120,-35.272262459456684,0.13534212112426758,1.82388436794281,3.266455888748169,3.2054426670074463,0.9232,,
108,52,5140,-67.12511213605758,0.21061073243618011,3.3972156047821045,4.232710361480713,4.083305358886719,0.9229,,
109,52,5160,-92.05466194269802,0.06775613874197006,1.9462683200836182,3.6336441040039062,3.6868982315063477,0.9226,,
110,52,5180,-120.95308480800949,0.06632058322429657,1.798740267753601,3.5661027431488037,3.6248929500579834,0.9223,,
111,52,5200,-155.0056277632447,0.12330213934183121,2.3977036476135254,4.101476669311523,4.097567081451416,0.922,,
112,53,5220,-35.50288055519942,0.14625325798988342,2.276689291000366,4.245755672454834,4.239255428314209,0.9217,,
113,53,5240,-60.18962023055331,0.1043006181716919,2.466909408569336,4.009554862976074,4.016313552856445,0.9214,,
114,53,5260,-90.22808291619921,0.10015689581632614,1.5971637964248657,3.6126248836517334,3.5809693336486816,0.9211,,
115,53,5280,-123.15232051422366,0.12278445065021515,1.739051342010498,3.6956098079681396,3.6361474990844727,0.9208000000000001,,
116,53,5300,-165.74320508677266,0.12157350778579712,1.8515291213989258,3.8931994438171387,3.840564012527466,0.9205,,
117,54,5320,-14.100914743331776,0.17203553020954132,1.91025972366333,4.054418087005615,3.97582745552063,0.9202,,
118,54,5340,-31.182538553371085,0.10381145775318146,2.89341139793396,4.046807765960693,4.010493278503418,0.9198999999999999,,
119,54,5360,-44.700032542415336,0.09629576653242111,2.532893180847168,4.350471496582031,4.348609924316406,0.9196,,
120,54,5380,-59.546921059647936,0.11514102667570114,1.9198228120803833,3.8904378414154053,3.7974307537078857,0.9193,,
121,54,5400,-91.91673254972468,0.1960565596818924,2.098599672317505,3.962000608444214,3.8134820461273193,0.919,,
122,55,5420,-19.718356603684988,0.1304795891046524,2.223439931869507,4.441035747528076,4.422231674194336,0.9187,,
123,55,5440,-36.18447851399982,0.2543674111366272,1.9814343452453613,4.37407922744751,4.1823320388793945,0.9184,,
124,55,5460,-59.75863678757345,0.10077539086341858,2.8745832443237305,4.1143083572387695,4.1808671951293945,0.9181,,
125,55,5480,-81.52637874668386,0.10987858474254608,1.8163366317749023,3.845608711242676,3.844364881515503,0.9178,,
126,55,5500,-101.4387551671252,0.06864134222269058,1.2412127256393433,3.8268353939056396,3.8344058990478516,0.9175,,
127,56,5520,-18.189601184641205,0.17542755603790283,2.7944321632385254,4.518982887268066,4.480959415435791,0.9172,,
128,56,5540,-56.815769590974185,0.3039734959602356,2.439781427383423,4.681868553161621,4.459147930145264,0.9169,,
129,56,5560,-103.65066064916623,0.06068359687924385,2.0524888038635254,4.474973678588867,4.482421398162842,0.9166,,
130,56,5580,-160.5511730223055,0.14563563466072083,2.042104482650757,4.028435230255127,3.9414689540863037,0.9163,,
131,56,5600,-221.7100846617791,0.3573192358016968,3.0615293979644775,4.635966777801514,4.374955177307129,0.916,,
132,57,5620,-15.9115777734628,0.28152304887771606,2.8333969116210938,4.877065658569336,4.683155059814453,0.9157,,
133,57,5640,-38.49613388871628,0.08978154510259628,1.878705382347107,4.517683029174805,4.460239410400391,0.9154,,
134,57,5660,-62.87617123150736,0.10243549942970276,3.2737462520599365,4.640330791473389,4.630242824554443,0.9151,,
135,57,5680,-88.81222650997083,0.1865263134241104,2.8020167350769043,4.213781833648682,4.1486616134643555,0.9148000000000001,,
136,57,5700,-114.41880316352388,0.12718380987644196,2.037170648574829,4.041810512542725,3.948160409927368,0.9145,,
137,58,5720,-19.5282587872402,0.1097179725766182,1.851418375968933,4.431356430053711,4.42767858505249,0.9142,,
138,58,5740,-42.01626850446373,0.10324181616306305,2.9154584407806396,4.465959548950195,4.46366548538208,0.9139,,
139,58,5760,-63.874229471404654,0.17074114084243774,3.1539993286132812,4.556515693664551,4.486749649047852,0.9136,,
140,58,5780,-84.82905809323778,0.06810663640499115,1.9763654470443726,4.043889045715332,4.047092914581299,0.9133,,
141,58,5800,-118.0406435078205,0.10773929208517075,2.2566356658935547,4.252945899963379,4.230757236480713,0.913,,
142,59,5820,-20.701986315821948,0.10909797996282578,2.2509825229644775,3.973912239074707,3.911820888519287,0.9127,,
143,59,5840,-46.34217045986036,0.21242769062519073,2.023329019546509,4.082143783569336,3.9457204341888428,0.9124,,
144,59,5860,-80.8374092943125,0.05497974157333374,1.726941466331482,3.907278299331665,3.9299845695495605,0.9121,,
145,59,5880,-111.78096863076848,0.1108596920967102,2.8851003646850586,4.417529106140137,4.46972131729126,0.9117999999999999,,
146,59,5900,-147.4750024653413,0.10925409942865372,2.9597911834716797,4.703566074371338,4.639963150024414,0.9115,,
147,60,5920,-14.124203685048016,0.11945035308599472,2.316993236541748,4.495472431182861,4.460473537445068,0.9112,,
148,60,5940,-32.34684640607319,0.12443806231021881,2.425105571746826,4.588298320770264,4.544674873352051,0.9109,,
149,60,5960,-54.021450125229386,0.18480008840560913,2.20223069190979,4.637996196746826,4.498484134674072,0.9106,,
150,60,5980,-87.48452359503504,0.34601277112960815,2.0352957248687744,4.416950702667236,4.116422176361084,0.9103,,
151,60,6000,-131.57866149642015,0.11062724888324738,2.0221848487854004,4.082285404205322,4.019271373748779,0.91,,
152,61,6020,-16.37729497314823,0.047387294471263885,1.9231184720993042,3.8920483589172363,3.8921542167663574,0.9097,,
153,61,6040,-37.110383125412056,0.13389772176742554,3.5173470973968506,4.592397212982178,4.565153121948242,0.9094,,
154,61,6060,-55.34456099789274,0.18477220833301544,3.1427628993988037,4.777007102966309,4.664271354675293,0.9091,,
155,61,6080,-78.08072433313068,0.062161073088645935,1.7488212585449219,4.604101657867432,4.607996940612793,0.9088,,
156,61,6100,-113.60290662761774,0.08679420500993729,1.760543704032898,3.95615553855896,3.925077438354492,0.9085,,
157,62,6120,-14.270266901798312,0.12750343978405,2.5667617321014404,4.318926811218262,4.283982276916504,0.9082,,
158,62,6140,-32.53521948961677,0.19390368461608887,3.2787787914276123,4.786794662475586,4.663279056549072,0.9079,,
159,62,6160,-58.26344578696201,0.04379885643720627,1.7513301372528076,3.8858132362365723,3.8879218101501465,0.9076,,
160,62,6180,-79.95809725826152,0.13425007462501526,2.372469663619995,3.8421101570129395,3.777848482131958,0.9073,,
161,62,6200,-103.48908218906215,0.04809238389134407,1.5677272081375122,3.9058196544647217,3.9413938522338867,0.907,,
162,63,6220,-21.83956826995137,0.05205986648797989,2.384795665740967,4.324618816375732,4.314167022705078,0.9067,,
163,63,6240,-58.19708000624247,0.13782189786434174,2.44834566116333,4.720831394195557,4.652420997619629,0.9064,,
164,63,6260,-102.95413584038133,0.17015574872493744,1.4910433292388916,4.1851396560668945,4.078057289123535,0.9061,,
165,63,6280,-157.5759109599116,0.08550017327070236,1.7050806283950806,3.7950093746185303,3.8115432262420654,0.9057999999999999,,
166,63,6300,-216.21601104963798,0.20074060559272766,2.053426742553711,4.700495719909668,4.625028610229492,0.9055,,
167,64,6320,-17.810569823800503,0.09014534950256348,2.8058900833129883,4.53997278213501,4.580417156219482,0.9052,,
168,64,6340,-29.900551143572518,0.2530190348625183,2.625061511993408,4.344836711883545,4.161174774169922,0.9049,,
169,64,6360,-45.24477936524154,0.1457858383655548,2.157857656478882,4.669615745544434,4.552536964416504,0.9046,,
170,64,6380,-80.24838113624197,0.062225449830293655,2.440631866455078,5.050493240356445,5.076891899108887,0.9043,,
171,64,6400,-127.52880443014364,0.15152989327907562,2.535310745239258,4.593067169189453,4.549571514129639,0.904,,
172,65,6420,-11.553617665413263,0.2488902509212494,2.6854636669158936,4.421525001525879,4.216938495635986,0.9037,,
173,65,6440,-28.20572284120856,0.13593712449073792,2.7040674686431885,4.450104713439941,4.302106857299805,0.9034,,
174,65,6460,-49.0682739738756,0.07780465483665466,1.8291690349578857,5.017753601074219,4.977498531341553,0.9031,,
175,65,6480,-71.61813724107739,0.08994676917791367,1.8124727010726929,4.223862648010254,4.196137428283691,0.9028,,
176,65,6500,-96.22257360128822,0.13322913646697998,2.1749203205108643,4.214059829711914,4.120927810668945,0.9025,,
177,66,6520,-21.33325603175778,0.09422909468412399,1.963014841079712,4.037757873535156,3.959691286087036,0.9022,,
178,66,6540,-43.346574949476235,0.08010610938072205,1.7598930597305298,4.291626453399658,4.264689922332764,0.9019,,
179,66,6560,-67.88864103829252,0.04720247909426689,1.8076249361038208,3.8960723876953125,3.9092788696289062,0.9016,,
180,66,6580,-94.29612322314857,0.11540928483009338,1.8554012775421143,4.2149577140808105,4.171607494354248,0.9013,,
181,66,6600,-129.66073522574283,0.07517295330762863,1.4103875160217285,3.727206230163574,3.70192813873291,0.901,,
182,67,6620,-24.159028599340164,0.08571922779083252,1.8280088901519775,4.477661609649658,4.452776908874512,0.9007,,
183,67,6640,-56.686683358195175,0.12312932312488556,2.8164210319519043,4.3617377281188965,4.325894355773926,0.9004,,
184,67,6660,-97.64678286259388,0.1720687597990036,2.0477981567382812,4.580856800079346,4.513496398925781,0.9001,,
185,67,6680,-153.71481598059594,0.17418479919433594,2.4603829383850098,4.270735740661621,4.141839027404785,0.8997999999999999,,
186,67,6700,-204.72512851294573,0.1317381113767624,2.5400404930114746,4.418496131896973,4.394071578979492,0.8995,,
187,68,6720,-21.518432125394327,0.06291252374649048,2.715658664703369,3.9528489112854004,3.9001357555389404,0.8992,,
188,68,6740,-43.08247499431072,0.05297800153493881,2.3552589416503906,4.532896518707275,4.546481609344482,0.8989,,
189,68,6760,-68.80169395726271,0.1487048864364624,4.034595966339111,4.714287757873535,4.738535404205322,0.8986,,
190,68,6780,-96.75526179170431,0.05430515855550766,1.9036054611206055,4.376801013946533,4.394818305969238,0.8983,,
191,68,6800,-131.93695575058717,0.07170765846967697,2.232132911682129,4.25597620010376,4.2730183601379395,0.898,,
192,69,6820,-22.536669878469798,0.058104097843170166,2.088061571121216,4.7710723876953125,4.8040947914123535,0.8976999999999999,,
193,69,6840,-47.22259301635341,0.11948307603597641,1.5396887063980103,4.1473917961120605,4.051629066467285,0.8974,,
194,69,6860,-94.45861562680638,0.12738916277885437,1.8372238874435425,4.270244598388672,4.171154499053955,0.8971,,
195,69,6880,-152.69359702709656,0.11918787658214569,2.1812140941619873,4.525760173797607,4.4495954513549805,0.8968,,
196,69,6900,-213.67476608783508,0.0704699158668518,2.163637399673462,4.801018238067627,4.74529504776001,0.8965,,
197,70,6920,-15.120691011682212,0.1965552121400833,1.8373557329177856,4.328172206878662,4.170100688934326,0.8962,,
198,70,6940,-26.068135639269457,0.142075777053833,2.394434928894043,4.198821067810059,4.118782043457031,0.8959,,
199,70,6960,-45.275750351191064,0.11955665051937103,1.8802292346954346,4.20778751373291,4.1273040771484375,0.8956,,
200,70,6980,-77.25753114474395,0.187176913022995,2.1125969886779785,4.252942085266113,4.114258766174316,0.8953,,
201,70,7000,-117.2098730373833,0.06127189099788666,1.6978228092193604,4.1116623878479,4.116937637329102,0.895,,
202,71,7020,-23.133825497844214,0.14752931892871857,2.212723731994629,4.730659484863281,4.682559967041016,0.8947,,
203,71,7040,-44.05809759866825,0.11410630494356155,2.3717215061187744,4.626500606536865,4.579535007476807,0.8944,,
204,71,7060,-65.51518563416938,0.1133623719215393,1.6707127094268799,4.719476222991943,4.668212890625,0.8941,,
205,71,7080,-95.87786861965992,0.06156516447663307,1.7319960594177246,4.081149101257324,4.095151424407959,0.8938,,
206,71,7100,-135.766466649164,0.10436850041151047,1.6953204870224,4.669442653656006,4.635197162628174,0.8935,,
207,72,7120,-26.49427877838328,0.15635161101818085,1.8368278741836548,4.159934997558594,4.08296012878418,0.8932,,
208,72,7140,-51.8157814319514,0.23403871059417725,2.295138120651245,4.701489448547363,4.494455337524414,0.8929,,
209,72,7160,-83.0125638788434,0.06846671551465988,1.2829089164733887,4.153507709503174,4.136944770812988,0.8926000000000001,,
210,72,7180,-110.5209144705728,0.04218321666121483,1.8387142419815063,3.807236433029175,3.82438325881958,0.8923,,
211,72,7200,-137.53039227704056,0.13676857948303223,2.150683641433716,4.521937847137451,4.465242385864258,0.892,,
212,73,7220,-25.787344629179813,0.11373313516378403,1.93520188331604,4.138554096221924,4.106670379638672,0.8916999999999999,,
213,73,7240,-48.62399809107705,0.20350061357021332,2.222215175628662,4.435188293457031,4.2982330322265625,0.8914,,
214,73,7260,-72.79554765156054,0.0763978585600853,1.622170090675354,4.311702251434326,4.297221660614014,0.8911,,
215,73,7280,-96.09319021865964,0.25811484456062317,2.1225993633270264,4.078813552856445,3.921759843826294,0.8908,,
216,73,7300,-119.3490068743895,0.15586669743061066,2.152118444442749,4.871797561645508,4.8124494552612305,0.8905,,
217,74,7320,-25.80853000938543,0.0775870531797409,1.6209228038787842,4.353696346282959,4.359250545501709,0.8902,,
218,74,7340,-56.72318707848622,0.060014791786670685,1.9850263595581055,4.612046718597412,4.610576629638672,0.8899,,
219,74,7360,-88.7316088721104,0.05508773773908615,1.52809739112854,3.9973599910736084,3.9621434211730957,0.8896,,
220,74,7380,-120.084657568919,0.15277943015098572,2.503422737121582,4.60145378112793,4.470706939697266,0.8893,,
221,74,7400,-148.46401339746672,0.11445065587759018,1.8442035913467407,4.328571319580078,4.2272491455078125,0.889,,
222,75,7420,-19.940737827424133,0.07823449373245239,2.089188575744629,4.712539196014404,4.693897724151611,0.8887,,
223,75,7440,-57.984510601480906,0.27376747131347656,2.109199047088623,5.004122257232666,4.788115501403809,0.8884,,
224,75,7460,-108.27335553775767,0.18977384269237518,2.524174451828003,4.9126787185668945,4.769870758056641,0.8881,,
225,75,7480,-168.42474182950573,0.07135133445262909,3.085808753967285,4.767496109008789,4.826144695281982,0.8878,,
226,75,7500,-231.4657718110807,0.20019087195396423,2.5216023921966553,4.6322407722473145,4.542510986328125,0.8875,-426.86071060049153,-426.86071060049153
227,76,7520,-16.842747000688096,0.14705190062522888,2.4242115020751953,5.083223342895508,5.0285844802856445,0.8872,,
228,76,7540,-52.5965807777581,0.06879818439483643,1.9716994762420654,4.744333744049072,4.732608318328857,0.8869,,
229,76,7560,-94.86404084863621,0.05583652853965759,1.7059077024459839,4.7371745109558105,4.744789123535156,0.8866,,
230,76,7580,-159.01087326520843,0.09183129668235779,3.024905204772949,4.88476037979126,4.833199501037598,0.8863,,
231,76,7600,-226.29002571476641,0.06817124038934708,2.2419791221618652,4.56879997253418,4.562204360961914,0.886,,
232,77,7620,-20.611150115762438,0.16744467616081238,3.033504009246826,4.953677654266357,4.858829498291016,0.8857,,
233,77,7640,-42.41190516186566,0.2846046984195709,4.0026021003723145,5.567729473114014,5.488536834716797,0.8854,,
234,77,7660,-59.85352783430238,0.11251065135002136,1.7065025568008423,4.623326778411865,4.5361785888671875,0.8851,,
235,77,7680,-84.78859037359146,0.16021323204040527,4.067317008972168,5.046083450317383,5.040999412536621,0.8848,,
236,77,7700,-125.48014060921307,0.2721339464187622,2.6759800910949707,5.256514072418213,5.1222453117370605,0.8845000000000001,,
237,78,7720,-38.86751481731527,0.14258477091789246,2.3490703105926514,4.912420749664307,4.861913681030273,0.8842,,
238,78,7740,-87.15781205741145,0.18878187239170074,3.136101245880127,5.0039262771606445,4.876130104064941,0.8839,,
239,78,7760,-151.5336909047948,0.07287994027137756,2.769165515899658,5.395041465759277,5.4148101806640625,0.8835999999999999,,
240,78,7780,-220.4840903164319,0.15422852337360382,3.083643913269043,5.586989402770996,5.538822650909424,0.8833,,
241,78,7800,-301.37927863184643,0.19763050973415375,3.0918362140655518,5.112583160400391,5.0158514976501465,0.883,,
242,79,7820,-18.42331078817775,0.06205996870994568,2.639970541000366,4.481345176696777,4.460663318634033,0.8827,,
243,79,7840,-36.34149149839381,0.11785589158535004,6.151790618896484,6.610723972320557,6.544186115264893,0.8824,,
244,79,7860,-51.357261910743624,0.12247457355260849,2.0624067783355713,4.857303142547607,4.837544918060303,0.8821,,
245,79,7880,-67.82281767767746,0.18484026193618774,2.620119094848633,4.970917701721191,4.879095554351807,0.8818,,
246,79,7900,-88.42331490367786,0.10887455195188522,3.7657811641693115,5.251677513122559,5.272315979003906,0.8815,,
247,80,7920,-7.882233324567188,0.1685914844274521,2.7618064880371094,5.51536750793457,5.400175094604492,0.8812,,
248,80,7940,-19.291915296235565,0.09261777997016907,7.466619968414307,5.7999372482299805,5.766168117523193,0.8809,,
249,80,7960,-36.8367535603503,0.0992860347032547,2.8158187866210938,5.089883804321289,5.086993217468262,0.8806,,
250,80,7980,-59.80145831289359,0.16791237890720367,1.902845025062561,4.645634174346924,4.534280776977539,0.8803,,
251,80,8000,-90.57720502007116,0.11489134281873703,4.352416515350342,5.9112677574157715,5.98291540145874,0.88,,
252,81,8020,-40.07935144211966,0.05524401366710663,3.686605215072632,5.093537330627441,5.167733669281006,0.8797,,
253,81,8040,-72.08474967756705,0.147539883852005,2.1414287090301514,4.993936538696289,4.91526460647583,0.8794,,
254,81,8060,-90.58526031665579,0.11926335096359253,2.981931447982788,5.207731246948242,5.156781196594238,0.8791,,
255,81,8080,-110.51696442458682,0.12662430107593536,2.1710541248321533,4.723750114440918,4.66440486907959,0.8788,,
256,81,8100,-141.55014081100478,0.18913601338863373,2.570250988006592,5.262212753295898,5.180776119232178,0.8785,,
257,82,8120,-20.654906168110234,0.09795106947422028,1.9498701095581055,4.9955830574035645,4.960862159729004,0.8782,,
258,82,8140,-44.0663707374338,0.368687242269516,4.347632884979248,5.877414703369141,5.593032360076904,0.8779,,
259,82,8160,-70.93484777754624,0.07049544900655746,4.201869010925293,5.790698528289795,5.826916217803955,0.8775999999999999,,
260,82,8180,-109.8559351585354,0.10829240083694458,4.9557085037231445,4.953421592712402,4.9905548095703125,0.8773,,
261,82,8200,-172.1072976137724,0.17636817693710327,2.482041358947754,5.450826644897461,5.337813377380371,0.877,,
262,83,8220,-20.767530295360555,0.11398842930793762,2.4784419536590576,4.918205738067627,4.864809036254883,0.8767,,
263,83,8240,-42.52208351849025,0.11181756854057312,3.2494096755981445,5.034526348114014,4.919290065765381,0.8764,,
264,83,8260,-69.46493447026226,0.16413064301013947,3.399129867553711,5.387802600860596,5.2261881828308105,0.8761,,
265,83,8280,-99.09247748136741,0.0533355176448822,2.0082273483276367,4.982001304626465,4.958559036254883,0.8758,,
266,83,8300,-132.12290316698682,0.12926051020622253,2.990830421447754,5.482781887054443,5.391043663024902,0.8755,,
267,84,8320,-8.863117765366674,0.06714576482772827,1.6072419881820679,4.628279685974121,4.625664710998535,0.8752,,
268,84,8340,-19.562097467645508,0.04346393793821335,1.9453808069229126,4.777097225189209,4.8065032958984375,0.8749,,
269,84,8360,-31.120597653625868,0.10222022235393524,2.8099422454833984,5.123077392578125,5.076293468475342,0.8746,,
270,84,8380,-54.518116596833856,0.17212936282157898,4.632119178771973,5.885379791259766,5.827887058258057,0.8743,,
271,84,8400,-70.32731025834241,0.1904628425836563,6.2598371505737305,5.789666652679443,5.7742719650268555,0.874,,
272,85,8420,-21.582576881214916,0.4480188190937042,3.4916155338287354,5.546767234802246,5.139705181121826,0.8737,,
273,85,8440,-60.532946606470574,0.15374675393104553,2.4493677616119385,5.331581115722656,5.270153045654297,0.8734,,
274,85,8460,-111.5418893846171,0.19456747174263,5.233434200286865,6.143381595611572,6.065029144287109,0.8731,,
275,85,8480,-153.7714964064882,0.15256333351135254,3.7615320682525635,4.906430721282959,4.759273052215576,0.8728,,
276,85,8500,-191.78801386295746,0.1414915770292282,3.764688014984131,5.486493110656738,5.378666877746582,0.8725,,
277,86,8520,-24.43140489460747,0.368161678314209,4.942462921142578,5.8996686935424805,5.559344291687012,0.8722,,
278,86,8540,-55.673944279994025,0.11440106481313705,4.036466121673584,5.362991809844971,5.291784286499023,0.8719,,
279,86,8560,-80.0465274242107,0.0818413496017456,4.556013584136963,5.552766799926758,5.572948455810547,0.8715999999999999,,
280,86,8580,-105.1171435147069,0.21054142713546753,2.092479944229126,4.840180397033691,4.718160629272461,0.8713,,
281,86,8600,-128.77429456005953,0.05476636439561844,2.903048038482666,5.574692726135254,5.571771621704102,0.871,,
282,87,8620,-22.62002671665045,0.1633310168981552,4.8897552490234375,5.8803629875183105,5.820436000823975,0.8707,,
283,87,8640,-38.77131610000203,0.25817954540252686,2.9665677547454834,5.374499320983887,5.2207770347595215,0.8704000000000001,,
284,87,8660,-57.92335306763138,0.13377262651920319,1.8080347776412964,5.243377208709717,5.200422763824463,0.8701,,
285,87,8680,-94.75282896250815,0.35989341139793396,2.5118985176086426,5.663975238800049,5.41193151473999,0.8698,,
286,87,8700,-128.07402115063323,0.10009343922138214,3.641880989074707,5.831756591796875,5.82474946975708,0.8694999999999999,,
287,88,8720,-20.528428067055334,0.0642813965678215,3.8277251720428467,5.045043468475342,5.116916179656982,0.8692,,
288,88,8740,-47.798679647044985,0.06172332167625427,2.876084566116333,4.942470073699951,4.966712951660156,0.8689,,
289,88,8760,-82.89951151296127,0.20993509888648987,2.2732932567596436,4.9909491539001465,4.835338592529297,0.8686,,
290,88,8780,-127.92208781625469,0.4340539872646332,3.6233394145965576,5.265163421630859,4.859562873840332,0.8683,,
291,88,8800,-175.0970852007803,0.1302998811006546,3.4435079097747803,5.587738990783691,5.473078727722168,0.868,,
292,89,8820,-23.608048705059723,0.16568106412887573,2.668473243713379,5.3140788078308105,5.171998500823975,0.8677,,
293,89,8840,-44.671588111273586,0.14467839896678925,2.468576669692993,5.425783634185791,5.289229869842529,0.8674,,
294,89,8860,-57.14351408613193,0.17355598509311676,4.618216514587402,6.086670875549316,5.918562889099121,0.8671,,
295,89,8880,-75.94869194135616,0.2527852952480316,3.325222969055176,5.49183464050293,5.327180862426758,0.8668,,
296,89,8900,-99.70307723929761,0.08819958567619324,2.9784886837005615,5.427128791809082,5.409325122833252,0.8665,,
297,90,8920,-9.22252830652166,0.05193132534623146,4.1495890617370605,5.468418121337891,5.485902786254883,0.8662,,
298,90,8940,-25.829922604394422,0.2670406401157379,2.376673460006714,5.786723613739014,5.62310791015625,0.8659,,
299,90,8960,-47.469442039579754,0.1982658952474594,1.7571663856506348,5.034674167633057,4.872229099273682,0.8655999999999999,,
300,90,8980,-80.11239991439838,0.1486990749835968,3.157594680786133,5.539934158325195,5.444738388061523,0.8653,,
301,90,9000,-132.86295463460405,0.25657352805137634,2.411489248275757,5.243237495422363,5.089828014373779,0.865,,
302,91,9020,-15.882715744709081,0.1330253928899765,2.1816158294677734,5.219948768615723,5.184178352355957,0.8647,,
303,91,9040,-39.02613809069424,0.07984450459480286,3.845437526702881,5.24489164352417,5.298912525177002,0.8644000000000001,,
304,91,9060,-58.41032507253641,0.07374171912670135,1.6549246311187744,4.9344682693481445,4.922217845916748,0.8641,,
305,91,9080,-92.22498911375268,0.06275546550750732,1.898761510848999,5.072144508361816,5.040577411651611,0.8638,,
306,91,9100,-128.25618163742269,0.05011671781539917,3.1818177700042725,5.133667469024658,5.148488521575928,0.8634999999999999,,
307,92,9120,-19.46500517236659,0.21625548601150513,3.2271523475646973,6.034064292907715,5.8868842124938965,0.8632,,
308,92,9140,-44.811667371623344,0.2689269185066223,3.09498929977417,5.3650617599487305,5.117975234985352,0.8629,,
309,92,9160,-80.68992161381293,0.05604810267686844,1.9730250835418701,5.190074443817139,5.1788506507873535,0.8626,,
310,92,9180,-116.05873272694487,0.10679548978805542,2.8870351314544678,5.53326940536499,5.415932655334473,0.8623000000000001,,
311,92,9200,-168.3269787448982,0.10459434986114502,2.4661166667938232,5.8424763679504395,5.71696662902832,0.862,,
312,93,9220,-11.16951856396592,0.286720335483551,3.082488775253296,5.5210747718811035,5.26760196685791,0.8617,,
313,93,9240,-40.64428396467049,0.18196389079093933,2.5417301654815674,5.6491289138793945,5.518370151519775,0.8613999999999999,,
314,93,9260,-55.51259374958955,0.14942851662635803,2.8399155139923096,6.064760684967041,6.006351470947266,0.8611,,
315,93,9280,-66.18307678420165,0.04507797211408615,1.8325167894363403,4.603298187255859,4.633973598480225,0.8608,,
316,93,9300,-83.24554373475289,0.04925302788615227,2.924454927444458,5.848090171813965,5.918332099914551,0.8605,,
317,94,9320,-16.01450285971354,0.07806846499443054,2.4386684894561768,5.9655585289001465,5.960202217102051,0.8602,,
318,94,9340,-34.894548815860254,0.3009193241596222,4.168829917907715,5.610573768615723,5.411932945251465,0.8599,,
319,94,9360,-62.73858103122003,0.10995586961507797,2.1627328395843506,5.255624294281006,5.187312126159668,0.8596,,
320,94,9380,-85.96107281097686,0.04084150120615959,1.4542055130004883,5.319126129150391,5.323081016540527,0.8593,,
321,94,9400,-123.43156105274578,0.13914665579795837,2.1292850971221924,5.237929821014404,5.161684036254883,0.859,,
322,95,9420,-21.966910717954573,0.10840898752212524,4.220335006713867,5.279821395874023,5.180092811584473,0.8587,,
323,95,9440,-44.89775621492692,0.29848814010620117,3.271068811416626,5.879413604736328,5.625981330871582,0.8584,,
324,95,9460,-84.30174523570763,0.20349322259426117,3.1038999557495117,5.306151390075684,5.159201145172119,0.8581,,
325,95,9480,-141.82700487777285,0.12482094764709473,1.4470186233520508,4.991888999938965,4.895482540130615,0.8578,,
326,95,9500,-203.51131782782585,0.09447600692510605,2.7956511974334717,5.288021087646484,5.232058048248291,0.8575,,
327,96,9520,-25.394316360306444,0.19445282220840454,2.370957612991333,4.658422946929932,4.567608833312988,0.8572,,
328,96,9540,-45.54318685065449,0.04864382743835449,2.7771105766296387,4.93416166305542,5.006684303283691,0.8569,,
329,96,9560,-72.19127764639468,0.09692296385765076,3.623493194580078,5.377660274505615,5.430046081542969,0.8566,,
330,96,9580,-105.17920843261766,0.048736244440078735,3.1189727783203125,5.412113666534424,5.493073463439941,0.8563,,
331,96,9600,-145.45597963965903,0.1925232708454132,2.1657583713531494,5.741195201873779,5.616309642791748,0.856,,
332,97,9620,-44.171126488200706,0.455710768699646,4.2463154792785645,5.903756618499756,5.462723255157471,0.8557,,
333,97,9640,-95.47515828115394,0.1431054323911667,3.6221234798431396,6.244472026824951,6.1277995109558105,0.8553999999999999,,
334,97,9660,-147.36723638657207,0.40039724111557007,3.3489830493927,5.6735615730285645,5.292204856872559,0.8551,,
335,97,9680,-204.5720405873006,0.07374605536460876,3.5508549213409424,5.615915298461914,5.563511371612549,0.8548,,
336,97,9700,-280.0355265816456,0.061502665281295776,2.935938596725464,4.893232822418213,4.915462493896484,0.8545,,
337,98,9720,-17.184735682271405,0.07244841009378433,4.259519577026367,5.938441276550293,5.9737324714660645,0.8542,,
338,98,9740,-37.55215992477065,0.3073408305644989,2.243194341659546,5.14840030670166,4.8999342918396,0.8539,,
339,98,9760,-57.917801274171524,0.11412467062473297,3.204533576965332,6.181034088134766,6.132408142089844,0.8536,,
340,98,9780,-77.59488384984736,0.050395991653203964,1.9894187450408936,5.25875186920166,5.249492645263672,0.8533,,
341,98,9800,-96.99701481619577,0.13300450146198273,2.4611494541168213,5.4604573249816895,5.335022926330566,0.853,,
342,99,9820,-22.315896220482944,0.26883646845817566,1.9974792003631592,5.143552780151367,4.911098003387451,0.8527,,
343,99,9840,-49.81772627846321,0.35379430651664734,2.621210813522339,5.8859543800354,5.559231281280518,0.8524,,
344,99,9860,-77.72484728199115,0.11035291105508804,3.1427338123321533,5.184645652770996,5.171761512756348,0.8521,,
345,99,9880,-108.3512222381123,0.16451646387577057,2.670931339263916,5.403018951416016,5.332656383514404,0.8518,,
346,99,9900,-145.42825998348084,0.2233671247959137,2.6935689449310303,5.207247257232666,5.055649757385254,0.8514999999999999,,
347,100,9920,-13.527215524538786,0.04054639860987663,1.681628942489624,5.055533409118652,5.1074113845825195,0.8512,,
348,100,9940,-35.86583268255927,0.05028738081455231,1.7683231830596924,5.430534839630127,5.442016124725342,0.8509,,
349,100,9960,-63.219591931016595,0.13031738996505737,1.8179152011871338,5.129096508026123,5.083627700805664,0.8506,,
350,100,9980,-107.31347537470268,0.1770443618297577,1.7812451124191284,5.160338878631592,5.014090538024902,0.8503000000000001,,
351,100,10000,-154.49483969079608,0.1482396125793457,2.4745826721191406,5.90006685256958,5.780243396759033,0.85,-438.00803592074334,-438.00803592074334
352,101,10020,-18.642459686843182,0.13253656029701233,2.333979845046997,5.7208356857299805,5.588625907897949,0.8497,,
353,101,10040,-43.76057506444179,0.15753521025180817,2.5505828857421875,5.852829933166504,5.7250165939331055,0.8493999999999999,,
354,101,10060,-89.03159247360443,0.1495838165283203,4.445481777191162,5.85994815826416,5.717206001281738,0.8491,,
355,101,10080,-123.80744388552864,0.14624449610710144,3.0463531017303467,5.649555683135986,5.526566028594971,0.8488,,
356,101,10100,-146.8239178868844,0.07746836543083191,3.049656629562378,5.72079610824585,5.688918590545654,0.8485,,
357,102,10120,-27.20595133131362,0.18744748830795288,1.543142318725586,4.850235462188721,4.726199626922607,0.8482000000000001,,
358,102,10140,-77.91284649217458,0.23482432961463928,1.891509771347046,5.660229682922363,5.507396221160889,0.8479,,
359,102,10160,-139.34136916469032,0.12554360926151276,3.263516902923584,5.868655204772949,5.852651119232178,0.8476,,
360,102,10180,-208.85368581016675,0.18249453604221344,2.7004528045654297,5.701912879943848,5.575862884521484,0.8472999999999999,,
361,102,10200,-274.22256885665917,0.06010965630412102,2.6814417839050293,5.596426010131836,5.6322340965271,0.847,,
362,103,10220,-17.98948740972086,0.08309527486562729,3.5091440677642822,5.776020050048828,5.722816467285156,0.8467,,
363,103,10240,-38.0160627969798,0.08471033722162247,3.2007715702056885,6.16953182220459,6.141854763031006,0.8464,,
364,103,10260,-62.699756356268544,0.038172390311956406,2.2012643814086914,5.382515907287598,5.382932662963867,0.8461,,
365,103,10280,-108.10843719483871,0.49204546213150024,3.407745122909546,6.867628574371338,6.385712623596191,0.8458,,
366,103,10300,-161.3360254991557,0.31115347146987915,1.9351149797439575,4.912777423858643,4.665861129760742,0.8455,,
367,104,10320,-30.813742269612145,0.21142105758190155,2.687927007675171,5.44118595123291,5.261684417724609,0.8452,,
368,104,10340,-66.02185299925061,0.45626652240753174,2.5720999240875244,5.662801742553711,5.288302421569824,0.8449,,
369,104,10360,-110.78995965951061,0.16092899441719055,3.186527967453003,5.279047012329102,5.223638534545898,0.8446,,
370,104,10380,-149.88594185330498,0.09138139337301254,7.265260696411133,6.108153343200684,6.203395843505859,0.8443,,
371,104,10400,-172.04183649523003,0.22341413795948029,4.414270877838135,6.2297682762146,6.122379779815674,0.844,,
372,105,10420,-17.935120654078812,0.133439838886261,2.0122995376586914,5.529836654663086,5.485040664672852,0.8437,,
373,105,10440,-47.74207058730559,0.035268574953079224,2.214614152908325,5.409305572509766,5.386537075042725,0.8434,,
374,105,10460,-91.66272507541703,0.10329478979110718,4.115363121032715,5.5901265144348145,5.448520660400391,0.8431,,
375,105,10480,-115.19112429440571,0.12064408510923386,5.977673530578613,6.372956275939941,6.236324787139893,0.8428,,
376,105,10500,-141.13694621476301,0.2412579357624054,4.237730979919434,5.909389972686768,5.633487224578857,0.8425,,
377,106,10520,-22.710190556960193,0.12392289191484451,2.6042182445526123,5.664682388305664,5.578805446624756,0.8422,,
378,106,10540,-48.846175848731455,0.10032012313604355,3.5271852016448975,5.923098564147949,5.921020030975342,0.8419,,
379,106,10560,-77.89159744724832,0.40677517652511597,3.842724084854126,6.369836807250977,6.076292037963867,0.8416,,
380,106,10580,-109.33646578520921,0.17002400755882263,2.9475057125091553,6.361198425292969,6.316320896148682,0.8412999999999999,,
381,106,10600,-134.4520059145106,0.16321784257888794,3.498729944229126,5.591689586639404,5.532768249511719,0.841,,
382,107,10620,-35.63810300417822,0.07785981893539429,3.0554187297821045,6.051196575164795,6.069508075714111,0.8407,,
383,107,10640,-88.98996697587545,0.10019383579492569,5.914492607116699,6.327943325042725,6.399449825286865,0.8404,,
384,107,10660,-153.5723962521493,0.13129501044750214,2.8160159587860107,5.6159257888793945,5.553104400634766,0.8401,,
385,107,10680,-231.4203965129936,0.08696213364601135,4.011163711547852,6.529916286468506,6.459316253662109,0.8398,,
386,107,10700,-316.6199887405854,0.11422677338123322,3.8778486251831055,5.873565673828125,5.708441257476807,0.8395,,
387,108,10720,-22.255001712836382,0.053851380944252014,3.581968069076538,5.9817094802856445,5.937885284423828,0.8392,,
388,108,10740,-38.29930028062287,0.15004019439220428,4.228598594665527,6.500400543212891,6.360949993133545,0.8389,,
389,108,10760,-53.92477676239621,0.15357449650764465,3.201225757598877,5.466958999633789,5.301206588745117,0.8386,,
390,108,10780,-84.07421863054459,0.19024713337421417,6.150453090667725,6.456392765045166,6.348352909088135,0.8383,,
391,108,10800,-118.2163100506225,0.18967165052890778,2.963247299194336,5.696951389312744,5.57482385635376,0.838,,
392,109,10820,-15.041802222542865,0.05760286748409271,3.793154001235962,6.369106769561768,6.384759902954102,0.8377,,
393,109,10840,-24.89216665357311,0.10408813506364822,3.779500722885132,6.065560340881348,6.015636444091797,0.8374,,
394,109,10860,-49.670969517294154,0.31322139501571655,2.214916706085205,5.659343719482422,5.439721584320068,0.8371,,
395,109,10880,-70.87982027455874,0.38297200202941895,4.540156364440918,6.110939025878906,5.7991414070129395,0.8368,,
396,109,10900,-99.06477853256067,0.13815516233444214,4.6554646492004395,5.783317565917969,5.778899192810059,0.8365,,
397,110,10920,-21.773290764610763,0.06433552503585815,2.1289966106414795,6.555294990539551,6.558074474334717,0.8362,,
398,110,10940,-54.67873352536767,0.19036994874477386,2.3712387084960938,5.203638553619385,5.043635368347168,0.8359,,
399,110,10960,-76.9483538039194,0.11833389848470688,2.2138075828552246,5.330834865570068,5.298671722412109,0.8356,,
400,110,10980,-108.80077072752988,0.3183710277080536,3.2310214042663574,6.2931623458862305,6.004863739013672,0.8352999999999999,,
401,110,11000,-147.95413812445437,0.07933599501848221,3.875678300857544,6.8952436447143555,6.865109443664551,0.835,,
402,111,11020,-18.203212227038744,0.0793229267001152,2.340151071548462,6.388075351715088,6.339432239532471,0.8347,,
403,111,11040,-45.65116867689192,0.2021918147802353,2.4623336791992188,5.1891770362854,5.0481276512146,0.8344,,
404,111,11060,-81.7024036958733,0.14523006975650787,2.1779768466949463,5.908698081970215,5.7983808517456055,0.8341000000000001,,
405,111,11080,-136.30084482615342,0.16037766635417938,2.670922040939331,6.02304744720459,5.885589122772217,0.8338,,
406,111,11100,-211.3358389142563,0.14660342037677765,3.1798505783081055,6.314908981323242,6.232161998748779,0.8335,,
407,112,11120,-21.386766612419528,0.08885927498340607,1.5597268342971802,5.3526411056518555,5.323007106781006,0.8331999999999999,,
408,112,11140,-45.443842473278366,0.16555528342723846,2.976855516433716,6.0288920402526855,5.995265483856201,0.8329,,
409,112,11160,-89.14241546636936,0.29700323939323425,3.358275890350342,6.122921466827393,5.940702438354492,0.8326,,
410,112,11180,-157.3760854763593,0.19961988925933838,2.6704001426696777,6.294726371765137,6.184926986694336,0.8323,,
411,112,11200,-248.59470473231687,0.1822337955236435,1.8579938411712646,5.982224941253662,5.886384963989258,0.832,,
412,113,11220,-19.898341928963468,0.0487525574862957,2.529604434967041,6.155177116394043,6.171601295471191,0.8317,,
413,113,11240,-32.30545134279707,0.10277413576841354,2.5074565410614014,5.690559387207031,5.651612281799316,0.8314,,
414,113,11260,-55.57104177446701,0.1974983811378479,2.5005462169647217,5.7694268226623535,5.6001691818237305,0.8311,,
415,113,11280,-79.93150114913452,0.0815892219543457,2.058873176574707,5.534217834472656,5.472359657287598,0.8308,,
416,113,11300,-110.68497312426675,0.2070269137620926,4.596261978149414,6.208639144897461,5.99542760848999,0.8305,,
417,114,11320,-13.606487834849933,0.04310504347085953,3.5447754859924316,5.89907169342041,5.855612754821777,0.8302,,
418,114,11340,-39.1856129495555,0.17942936718463898,2.191926956176758,6.360478401184082,6.238927841186523,0.8299,,
419,114,11360,-62.753390911095266,0.03464426472783089,1.7685620784759521,5.623720169067383,5.661109924316406,0.8296,,
420,114,11380,-85.58162008634032,0.10555455088615417,4.218008995056152,6.142826080322266,6.175473690032959,0.8292999999999999,,
421,114,11400,-114.2050417776263,0.27958810329437256,2.8985893726348877,6.253336429595947,6.033549785614014,0.829,,
422,115,11420,-11.06968385205159,0.08489999175071716,2.3112423419952393,5.245112895965576,5.224035739898682,0.8287,,
423,115,11440,-32.56203872959054,0.22891876101493835,2.939152956008911,7.052387714385986,6.884564399719238,0.8284,,
424,115,11460,-70.7684955503636,0.16440635919570923,2.6422243118286133,6.636412620544434,6.531530857086182,0.8281000000000001,,
425,115,11480,-127.29371934226882,0.09931790083646774,4.035121917724609,6.268067836761475,6.176692962646484,0.8278,,
426,115,11500,-183.81845218668852,0.20721741020679474,2.6472854614257812,5.963319301605225,5.776331901550293,0.8275,,
427,116,11520,-20.848631172393326,0.04465457797050476,2.639122247695923,5.965038299560547,5.968912601470947,0.8271999999999999,,
428,116,11540,-56.100619923168225,0.19627967476844788,1.9349709749221802,5.689302921295166,5.537319183349609,0.8269,,
429,116,11560,-101.17937291757502,0.22374388575553894,4.699449062347412,6.371039390563965,6.163079738616943,0.8266,,
430,116,11580,-164.51526420224866,0.09449146687984467,2.4075191020965576,6.0384321212768555,6.020317554473877,0.8263,,
431,116,11600,-249.16976113580105,0.04233049973845482,2.751702308654785,5.963071346282959,5.9899396896362305,0.8260000000000001,,
432,117,11620,-33.023658907272264,0.08187336474657059,1.5693109035491943,5.062080383300781,5.031850814819336,0.8257,,
433,117,11640,-80.79981878376779,0.053403258323669434,2.137453079223633,5.96757173538208,5.964024543762207,0.8254,,
434,117,11660,-135.58590495184313,0.1498142033815384,2.747260093688965,5.453866958618164,5.344337463378906,0.8251,,
435,117,11680,-194.2853283439904,0.19607681035995483,3.5596251487731934,6.445149898529053,6.270358562469482,0.8248,,
436,117,11700,-261.3111655540366,0.3424477279186249,3.554354190826416,6.097815036773682,5.825488090515137,0.8245,,
437,118,11720,-32.18018626658656,0.05769345909357071,1.8296335935592651,5.416861057281494,5.400971412658691,0.8242,,
438,118,11740,-63.495803147309736,0.10986095666885376,3.076301097869873,6.057943820953369,6.030393123626709,0.8239,,
439,118,11760,-125.22361207013866,0.2928270101547241,3.440953254699707,6.594651699066162,6.379204750061035,0.8236,,
440,118,11780,-202.46796968511595,0.12177761644124985,2.6958394050598145,5.67081356048584,5.668652534484863,0.8233,,
441,118,11800,-284.56451361402475,0.2160596251487732,2.217033863067627,6.477699279785156,6.318841457366943,0.823,,
442,119,11820,-19.47171049223945,0.15126515924930573,4.091294765472412,6.501736640930176,6.4482316970825195,0.8227,,
443,119,11840,-56.73874646311128,0.06379372626543045,2.900773525238037,6.454401016235352,6.403514862060547,0.8224,,
444,119,11860,-90.75368187503099,0.4086613357067108,3.4105465412139893,5.891876697540283,5.465570449829102,0.8221,,
445,119,11880,-120.76867454225874,0.1575905978679657,2.7118849754333496,5.765685081481934,5.5828423500061035,0.8218,,
446,119,11900,-175.93503694805915,0.20471391081809998,4.719470024108887,6.824029922485352,6.625275135040283,0.8215,,
447,120,11920,-16.522109810517666,0.31822216510772705,3.5162699222564697,6.388169765472412,6.094559669494629,0.8212,,
448,120,11940,-43.9202227420479,0.08687718957662582,3.2024848461151123,6.270610332489014,6.258559703826904,0.8209,,
449,120,11960,-74.3399344265701,0.17975543439388275,3.9253838062286377,7.069643497467041,6.983220100402832,0.8206,,
450,120,11980,-102.04637401010211,0.12265019863843918,3.832411766052246,6.539756774902344,6.5437517166137695,0.8203,,
451,120,12000,-138.63510020587677,0.05093992501497269,3.0836715698242188,5.416080951690674,5.496163845062256,0.82,,
452,121,12020,-24.842564166608295,0.09166468679904938,3.442312240600586,6.932573318481445,6.961536407470703,0.8197,,
453,121,12040,-50.52817140524824,0.16274338960647583,4.7184014320373535,7.066183567047119,7.05571174621582,0.8194,,
454,121,12060,-87.52428194421329,0.20951837301254272,2.5593161582946777,6.3357720375061035,6.119316101074219,0.8190999999999999,,
455,121,12080,-130.20948279363938,0.049684781581163406,2.504605531692505,6.111290454864502,6.082404136657715,0.8188,,
456,121,12100,-189.5293541708665,0.06966723501682281,3.7490527629852295,6.572065353393555,6.511508464813232,0.8185,,
457,122,12120,-33.9792858751441,0.07546932250261307,2.4645590782165527,7.452734470367432,7.409870147705078,0.8182,,
458,122,12140,-82.89386686186592,0.09356720000505447,3.1362392902374268,6.665041446685791,6.576427459716797,0.8179,,
459,122,12160,-146.24683851433358,0.12501810491085052,3.9065775871276855,6.6714301109313965,6.544771671295166,0.8176,,
460,122,12180,-204.07044994647657,0.2612985670566559,4.940555095672607,6.964554786682129,6.7241387367248535,0.8172999999999999,,
461,122,12200,-254.13363045723037,0.2842632234096527,2.0397849082946777,5.817925453186035,5.597384452819824,0.817,,
462,123,12220,-34.91065701820666,0.12010965496301651,2.347295045852661,6.583220481872559,6.56538724899292,0.8167,,
463,123,12240,-78.59842485906553,0.07711607217788696,7.1971964836120605,6.821060657501221,6.901604175567627,0.8164,,
464,123,12260,-132.4216108020338,0.11785058677196503,3.711775541305542,6.99275541305542,6.96340274810791,0.8161,,
465,123,12280,-211.15739345480284,0.20834149420261383,4.392281532287598,6.110344409942627,5.999660015106201,0.8158,,
466,123,12300,-303.3531711570195,0.268180251121521,4.168495178222656,6.834424018859863,6.639530658721924,0.8155,,
467,124,12320,-21.537014213506396,0.16575667262077332,3.211945056915283,6.903236389160156,6.801031589508057,0.8151999999999999,,
468,124,12340,-56.46632140407791,0.08913762867450714,2.8644700050354004,6.434317111968994,6.392421722412109,0.8149,,
469,124,12360,-107.308504469958,0.20503108203411102,2.9992902278900146,6.9385786056518555,6.737766742706299,0.8146,,
470,124,12380,-168.1361816761284,0.13684280216693878,4.085423469543457,7.445331573486328,7.389864921569824,0.8143,,
471,124,12400,-234.07128884604668,0.21049344539642334,2.9451122283935547,7.186184406280518,7.0207014083862305,0.8140000000000001,,
472,125,12420,-41.669776756667616,0.12807664275169373,3.9498302936553955,6.366265296936035,6.227748870849609,0.8137,,
473,125,12440,-90.22571738829463,0.1512928456068039,3.261876344680786,6.460372447967529,6.346016883850098,0.8134,,
474,125,12460,-128.1851728289651,0.15735489130020142,4.223581790924072,6.612415790557861,6.450948238372803,0.8130999999999999,,
475,125,12480,-172.1920197949688,0.08413257449865341,5.2921905517578125,6.88038444519043,6.794285774230957,0.8128,,
476,125,12500,-245.52853675567377,0.20857363939285278,2.9595999717712402,6.32485294342041,6.123431205749512,0.8125,-682.9824166370261,-682.9824166370262
477,126,12520,-28.88396983784628,0.1623692512512207,5.114334583282471,6.728616714477539,6.692411422729492,0.8122,,
478,126,12540,-80.22776914484608,0.06366942077875137,2.934103488922119,6.270058631896973,6.294258117675781,0.8119000000000001,,
479,126,12560,-136.78753391674164,0.1246093288064003,5.635777950286865,7.871009826660156,7.843201160430908,0.8116,,
480,126,12580,-200.61135999689333,0.10302083194255829,2.353947877883911,7.867187023162842,7.830308437347412,0.8113,,
481,126,12600,-241.18741008030366,0.1415930688381195,2.858198642730713,6.531672954559326,6.529294013977051,0.8109999999999999,,
482,127,12620,-21.10300183470726,0.14629793167114258,4.359459400177002,7.541390419006348,7.5299811363220215,0.8107,,
483,127,12640,-50.412314285598256,0.2894788682460785,3.502786636352539,7.114243030548096,6.866783618927002,0.8104,,
484,127,12660,-103.93107430533504,0.11768899112939835,5.417490482330322,7.717203140258789,7.609414100646973,0.8101,,
485,127,12680,-172.69327306172943,0.14152884483337402,6.105893611907959,6.92930269241333,6.771246910095215,0.8098,,
486,127,12700,-248.62318045793532,0.2509155869483948,2.8246994018554688,7.134209632873535,6.929330825805664,0.8095,,
487,128,12720,-26.988613331601538,0.04529796168208122,3.3490116596221924,7.14624547958374,7.1532392501831055,0.8092,,
488,128,12740,-49.939180240023184,0.06104200333356857,5.065744876861572,7.168268203735352,7.231203556060791,0.8089,,
489,128,12760,-87.11893181972897,0.08007418364286423,4.148793697357178,6.289172172546387,6.308011054992676,0.8086,,
490,128,12780,-140.3256421997364,0.08404318243265152,4.048607349395752,6.962239742279053,6.94181489944458,0.8083,,
491,128,12800,-208.1983606776255,0.20463642477989197,2.6165788173675537,6.952939510345459,6.8177595138549805,0.808,,
492,129,12820,-22.315398153830976,0.3181058168411255,3.6911721229553223,7.121628761291504,6.867588520050049,0.8077,,
493,129,12840,-54.745849003648864,0.06773205101490021,4.410864353179932,7.284915924072266,7.3574371337890625,0.8074,,
494,129,12860,-94.05812211329692,0.1574137806892395,3.512026786804199,6.711968421936035,6.655341625213623,0.8071,,
495,129,12880,-132.85492174861895,0.1007196232676506,3.7281572818756104,7.124309539794922,7.050713539123535,0.8068,,
496,129,12900,-170.33857727776663,0.07903289049863815,2.4020183086395264,7.21773624420166,7.147874355316162,0.8065,,
497,130,12920,-14.883418849909214,0.46449851989746094,3.038555860519409,7.471386909484863,7.072935104370117,0.8062,,
498,130,12940,-32.01457057495112,0.16955789923667908,5.256587982177734,7.852563858032227,7.691816329956055,0.8059,,
499,130,12960,-51.70412277057064,0.1224353238940239,2.360596179962158,6.513732433319092,6.447238445281982,0.8056,,
500,130,12980,-73.90589338080652,0.032408956438302994,2.3702824115753174,6.362774848937988,6.384823322296143,0.8053,,
501,130,13000,-90.13208902279302,0.06950972229242325,3.13415265083313,6.909581184387207,6.926172256469727,0.8049999999999999,,
502,131,13020,-19.639166486934634,0.17407697439193726,4.6189141273498535,7.860207557678223,7.796231269836426,0.8047,,
503,131,13040,-43.97694711711644,0.3854649066925049,3.9092867374420166,7.4183478355407715,7.139100551605225,0.8044,,
504,131,13060,-85.6678018756052,0.07817929983139038,2.8899197578430176,6.42695426940918,6.407684803009033,0.8041,,
505,131,13080,-125.43418279749336,0.05606640875339508,5.966877460479736,7.65072774887085,7.5914740562438965,0.8038,,
506,131,13100,-157.7440828817827,0.040215637534856796,3.3868231773376465,7.151637554168701,7.170495986938477,0.8035,,
507,132,13120,-11.86689320525798,0.14864200353622437,3.097578287124634,7.176243782043457,7.070537090301514,0.8032,,
508,132,13140,-30.42860467974432,0.24412478506565094,3.074162483215332,7.422443866729736,7.253391265869141,0.8029,,
509,132,13160,-54.15614959674716,0.13699209690093994,3.515031099319458,6.883383274078369,6.766563415527344,0.8026,,
510,132,13180,-90.94297202856617,0.35311374068260193,2.619046926498413,7.183658599853516,6.893490791320801,0.8023,,
511,132,13200,-128.69681488188152,0.1721881628036499,2.6987109184265137,7.356014251708984,7.2467803955078125,0.802,,
512,133,13220,-25.206909210025078,0.3992070257663727,3.3468194007873535,7.475149154663086,7.170734405517578,0.8017,,
513,133,13240,-63.822822056558344,0.22620496153831482,3.6815109252929688,6.457540035247803,6.3490495681762695,0.8014,,
514,133,13260,-122.14889678760629,0.09992928057909012,2.6363306045532227,7.499125957489014,7.472543716430664,0.8011,,
515,133,13280,-181.18207731723362,0.29335281252861023,3.2309248447418213,7.039885520935059,6.831945896148682,0.8008,,
516,133,13300,-247.6900791651192,0.38375169038772583,3.666419506072998,7.6872358322143555,7.338923454284668,0.8005,,
517,134,13320,-19.958690082094705,0.2677980661392212,5.195596694946289,7.644963264465332,7.410248756408691,0.8002,,
518,134,13340,-41.18081993607568,0.5243001580238342,6.648094177246094,7.888302803039551,7.3838348388671875,0.7999,,
519,134,13360,-77.64135449628789,0.18647311627864838,3.1268839836120605,8.313559532165527,8.1758451461792,0.7996,,
520,134,13380,-147.14169796475048,0.18664145469665527,3.223189115524292,7.378023147583008,7.2687859535217285,0.7993,,
521,134,13400,-236.4293900052404,0.1155979260802269,2.966444969177246,6.214260101318359,6.1748881340026855,0.7989999999999999,,
522,135,13420,-26.039631254213393,0.46523165702819824,3.6434648036956787,6.919386386871338,6.543003559112549,0.7987,,
523,135,13440,-52.44987397333563,0.34874898195266724,4.783755779266357,7.07910680770874,6.829994201660156,0.7984,,
524,135,13460,-76.52770526468268,0.2901213467121124,4.205114841461182,7.441093444824219,7.233062744140625,0.7981,,
525,135,13480,-131.4837328380991,0.24062401056289673,4.2302350997924805,7.9900994300842285,7.834719657897949,0.7978000000000001,,
526,135,13500,-210.5578365483765,0.11919184774160385,4.600846290588379,8.283854484558105,8.205166816711426,0.7975,,
527,136,13520,-21.5088515920478,0.57985520362854,3.4290199279785156,7.1967644691467285,6.652640342712402,0.7972,,
528,136,13540,-47.424665644007696,0.5729478597640991,4.553501129150391,7.399269104003906,6.851955413818359,0.7968999999999999,,
529,136,13560,-98.52210422945882,0.11298052966594696,7.389365196228027,8.108899116516113,7.986365795135498,0.7966,,
530,136,13580,-179.95904532238782,0.10060974210500717,4.461043357849121,8.385374069213867,8.353194236755371,0.7963,,
531,136,13600,-272.8682290727916,0.6013036966323853,2.9946727752685547,7.297468185424805,6.763545513153076,0.796,,
532,137,13620,-25.7025857323286,0.2640659213066101,6.073840141296387,8.089605331420898,7.948033809661865,0.7957,,
533,137,13640,-44.48604610009496,0.3116951882839203,6.897462368011475,7.574406623840332,7.3794450759887695,0.7954,,
534,137,13660,-64.83554111465104,0.25446587800979614,7.4035258293151855,8.376485824584961,8.271074295043945,0.7951,,
535,137,13680,-99.00477833159763,0.24771720170974731,3.469813108444214,7.584264278411865,7.3347272872924805,0.7948,,
536,137,13700,-157.30326607126023,0.11274746060371399,5.368724822998047,9.653467178344727,9.569147109985352,0.7945,,
537,138,13720,-19.800029372378738,0.44252148270606995,7.7099761962890625,8.543370246887207,8.08433723449707,0.7942,,
538,138,13740,-47.67367926468463,0.15576709806919098,8.324137687683105,7.78864860534668,7.614782333374023,0.7939,,
539,138,13760,-80.98440408800975,0.10253896564245224,4.465529441833496,7.331859588623047,7.293644905090332,0.7936,,
540,138,13780,-107.03664900464572,0.1006067544221878,4.050771713256836,7.811094284057617,7.831611156463623,0.7933,,
541,138,13800,-141.18804781695084,0.19443179666996002,5.209907531738281,7.647579669952393,7.59082555770874,0.7929999999999999,,
542,139,13820,-26.72300744388857,0.3267965316772461,11.211091995239258,8.801674842834473,8.653825759887695,0.7927,,
543,139,13840,-67.10261876781803,0.14020061492919922,3.782160758972168,7.246481895446777,7.22595739364624,0.7924,,
544,139,13860,-119.36856974963672,0.32925838232040405,3.5079100131988525,7.315895080566406,7.000662326812744,0.7921,,
545,139,13880,-182.06800413776227,0.4806922972202301,6.594964504241943,9.570680618286133,9.06859016418457,0.7918000000000001,,
546,139,13900,-247.22917836102772,0.29291054606437683,4.328315734863281,7.965526103973389,7.723950386047363,0.7915,,
547,140,13920,-22.828224784055525,0.2507368326187134,4.760812282562256,7.596185207366943,7.373072624206543,0.7912,,
548,140,13940,-61.37036538121464,0.3784148097038269,4.081419467926025,7.079071044921875,6.826460361480713,0.7908999999999999,,
549,140,13960,-137.03639525773676,0.31504347920417786,4.162425994873047,7.815249919891357,7.558167457580566,0.7906,,
550,140,13980,-227.72599245360738,0.2672797739505768,3.9618172645568848,7.284510135650635,7.0760064125061035,0.7903,,
551,140,14000,-327.2409664609427,0.08827219903469086,6.889387130737305,7.355266094207764,7.455231189727783,0.79,,
552,141,14020,-20.30853606915426,0.2725081145763397,6.632418155670166,7.938879489898682,7.8556718826293945,0.7897000000000001,,
553,141,14040,-40.906067816441166,0.09077335149049759,4.979398250579834,8.023274421691895,8.036334037780762,0.7894,,
554,141,14060,-78.88326928256353,0.2703605592250824,2.4675450325012207,7.559823989868164,7.359816074371338,0.7891,,
555,141,14080,-125.89410731598633,0.07211533188819885,6.305478572845459,8.790581703186035,8.740699768066406,0.7888,,
556,141,14100,-188.1226842858753,0.4029284715652466,8.569649696350098,8.397146224975586,7.966911315917969,0.7885,,
557,142,14120,-24.7265653845281,0.11732403934001923,3.2212767601013184,7.760961532592773,7.645016193389893,0.7882,,
558,142,14140,-48.82075018481089,0.04260684549808502,3.165081262588501,6.6707892417907715,6.661309242248535,0.7879,,
559,142,14160,-71.94131900883923,0.4671950936317444,4.958378314971924,7.565042972564697,7.196726322174072,0.7876,,
560,142,14180,-110.64186470738888,0.08825862407684326,6.575326442718506,7.596738338470459,7.651036262512207,0.7873,,
561,142,14200,-152.82612561307928,0.2664912939071655,5.37322998046875,8.149689674377441,7.983295440673828,0.787,,
562,143,14220,-28.03728444764393,0.12879441678524017,3.129847764968872,7.3655805587768555,7.344130039215088,0.7867,,
563,143,14240,-77.4137665008586,0.23134294152259827,3.3293890953063965,7.539712905883789,7.369400978088379,0.7864,,
564,143,14260,-146.79704102920016,0.09170762449502945,5.715691566467285,7.690793991088867,7.634061336517334,0.7861,,
565,143,14280,-235.60797619806772,0.15688234567642212,4.725077152252197,8.000656127929688,7.814621925354004,0.7858,,
566,143,14300,-336.9396061421127,0.155386283993721,5.2038798332214355,8.982015609741211,8.867866516113281,0.7855,,
567,144,14320,-32.07937384381289,0.23099757730960846,4.290711402893066,7.981850624084473,7.80190372467041,0.7852,,
568,144,14340,-74.11224299905207,0.2536132335662842,4.522030830383301,8.37021255493164,8.240337371826172,0.7849,,
569,144,14360,-121.5401780938802,0.12199290096759796,4.214560031890869,8.094919204711914,8.042818069458008,0.7846,,
570,144,14380,-170.28749466493164,0.07487590610980988,6.643324375152588,7.914296627044678,7.983190536499023,0.7843,,
571,144,14400,-246.6206851064087,0.07941974699497223,5.6875176429748535,7.651845932006836,7.6605730056762695,0.784,,
572,145,14420,-25.619471793678947,0.09038417041301727,5.200692176818848,8.521636009216309,8.505285263061523,0.7837,,
573,145,14440,-64.00650412004981,0.1273431032896042,3.199791431427002,8.037975311279297,7.925730228424072,0.7834,,
574,145,14460,-107.47928813837869,0.29963353276252747,7.947068691253662,8.689770698547363,8.362405776977539,0.7831,,
575,145,14480,-170.24492669325574,0.051741261035203934,5.330066680908203,7.562627792358398,7.514362335205078,0.7827999999999999,,
576,145,14500,-227.4457516300393,0.053792040795087814,5.407941818237305,8.285107612609863,8.244699478149414,0.7825,,
577,146,14520,-21.79757155264377,0.05021445453166962,4.2965521812438965,7.32037353515625,7.334230899810791,0.7822,,
578,146,14540,-63.72003946824215,0.18641847372055054,5.298159599304199,7.962418556213379,7.8506059646606445,0.7819,,
579,146,14560,-115.04235323339412,0.41799765825271606,6.081326961517334,8.152120590209961,7.896363258361816,0.7816,,
580,146,14580,-170.2010073031803,0.06518895924091339,6.744909763336182,8.401139259338379,8.502782821655273,0.7813,,
581,146,14600,-234.59978515573468,0.36409854888916016,4.740068435668945,7.992297172546387,7.762232780456543,0.7809999999999999,,
582,147,14620,-18.528139866337597,0.21103829145431519,3.168548107147217,7.08498477935791,6.957462310791016,0.7807,,
583,147,14640,-45.232418525012385,0.18775510787963867,7.321307182312012,8.25615406036377,8.078056335449219,0.7804,,
584,147,14660,-71.87974126463673,0.1641787737607956,6.116422653198242,8.178184509277344,8.018346786499023,0.7801,,
585,147,14680,-111.80009334654984,0.14733551442623138,3.985775947570801,7.432919025421143,7.293416500091553,0.7798,,
586,147,14700,-155.1978367447295,0.09203951060771942,5.760181427001953,7.875612735748291,7.785424709320068,0.7795,,
587,148,14720,-24.039628916343087,0.10004842281341553,7.436075687408447,8.369587898254395,8.366507530212402,0.7792,,
588,148,14740,-47.54169931456908,0.4132879972457886,4.968570709228516,7.7853169441223145,7.5417327880859375,0.7788999999999999,,
589,148,14760,-64.86643632441961,0.09457063674926758,5.566867828369141,8.273770332336426,8.28271198272705,0.7786,,
590,148,14780,-85.67329768720433,0.3553841710090637,3.9098503589630127,8.373047828674316,8.109006881713867,0.7783,,
591,148,14800,-115.919358386118,0.3890986144542694,5.237792015075684,7.345959186553955,6.970715522766113,0.778,,
592,149,14820,-17.817746540431116,0.2985367774963379,4.855247974395752,7.681303024291992,7.438497066497803,0.7777000000000001,,
593,149,14840,-44.691356498036676,0.5626728534698486,3.5439982414245605,7.448685169219971,6.948808193206787,0.7774,,
594,149,14860,-66.28556434912477,0.172733873128891,3.808626413345337,7.903543949127197,7.831106185913086,0.7771,,
595,149,14880,-87.32603234901885,0.5057620406150818,3.6294517517089844,8.536357879638672,8.142363548278809,0.7767999999999999,,
596,149,14900,-127.26150828453464,0.046900853514671326,5.018551349639893,8.548314094543457,8.5986967086792,0.7765,,
597,150,14920,-23.439770482886694,0.20054468512535095,4.28259801864624,9.754840850830078,9.605917930603027,0.7762,,
598,150,14940,-39.32711082112401,0.1005365401506424,7.211278438568115,8.996284484863281,8.983209609985352,0.7759,,
599,150,14960,-73.73745883673709,0.10209577530622482,2.6619250774383545,7.799139976501465,7.721912384033203,0.7756000000000001,,
600,150,14980,-151.72340445573653,0.4854109585285187,5.825021266937256,8.9053955078125,8.40399169921875,0.7753,,
601,150,15000,-249.89338805744538,0.09001083672046661,3.746708393096924,8.527023315429688,8.431053161621094,0.775,-774.2371169566441,-774.2371169566441
602,151,15020,-29.023529847608156,0.09712239354848862,5.296148777008057,8.043618202209473,7.950570583343506,0.7746999999999999,,
603,151,15040,-69.37871646314129,0.38078176975250244,5.057844161987305,9.635522842407227,9.253093719482422,0.7744,,
604,151,15060,-112.221512324297,0.060797832906246185,3.3168692588806152,7.833176136016846,7.864616394042969,0.7741,,
605,151,15080,-170.2087935106774,0.1876177340745926,3.0609724521636963,8.078197479248047,8.002366065979004,0.7738,,
606,151,15100,-253.9293974317573,0.07047925889492035,5.674872875213623,8.727726936340332,8.798759460449219,0.7735000000000001,,
607,152,15120,-28.46674966575619,0.2635493278503418,4.963628768920898,8.564353942871094,8.436936378479004,0.7732,,
608,152,15140,-58.58027389770232,0.20877587795257568,2.887240409851074,8.889037132263184,8.758719444274902,0.7728999999999999,,
609,152,15160,-92.85151909558193,0.3338387608528137,5.4928741455078125,9.214381217956543,8.912378311157227,0.7726,,
610,152,15180,-144.33386482516596,0.039688240736722946,2.0909011363983154,6.611108779907227,6.617155075073242,0.7723,,
611,152,15200,-212.10717618938324,0.545981228351593,3.645956516265869,9.051201820373535,8.514215469360352,0.772,,
612,153,15220,-12.37912521108205,0.39388176798820496,3.965930938720703,8.668242454528809,8.35985279083252,0.7717,,
613,153,15240,-31.508220492748514,0.4201289415359497,3.7767903804779053,7.608455657958984,7.243102073669434,0.7714,,
614,153,15260,-57.181471332651014,0.26133251190185547,2.8372459411621094,8.210030555725098,7.999995231628418,0.7711,,
615,153,15280,-93.943546393217,0.22087951004505157,2.957738161087036,7.869460105895996,7.725008010864258,0.7708,,
616,153,15300,-140.2019813410826,0.2794667184352875,6.048703670501709,8.547113418579102,8.372114181518555,0.7705,,
617,154,15320,-19.257612047402656,0.13492657244205475,3.0914602279663086,8.543807029724121,8.455588340759277,0.7702,,
618,154,15340,-43.51963336712574,0.33564162254333496,6.208012580871582,9.742719650268555,9.405135154724121,0.7699,,
619,154,15360,-61.49778212617419,0.08275778591632843,4.47931432723999,9.056382179260254,9.038729667663574,0.7696,,
620,154,15380,-86.74037308774597,0.06178327649831772,5.4357008934021,7.949904918670654,7.968430995941162,0.7693,,
621,154,15400,-143.66701689146726,0.07739369571208954,3.661628246307373,8.556010246276855,8.532278060913086,0.769,,
622,155,15420,-36.671323753738044,0.17936401069164276,3.3956522941589355,9.10204792022705,9.044608116149902,0.7686999999999999,,
623,155,15440,-78.10363925795144,0.23388586938381195,2.867713451385498,7.640414714813232,7.500334739685059,0.7684,,
624,155,15460,-151.68017383021865,0.34777113795280457,8.08173656463623,9.197431564331055,9.017163276672363,0.7681,,
625,155,15480,-251.93759506737436,0.13837496936321259,4.145050525665283,9.585396766662598,9.519296646118164,0.7678,,
626,155,15500,-381.6714788755297,0.0896674171090126,2.4658043384552,8.182621002197266,8.13144302368164,0.7675,,
627,156,15520,-18.535239175173917,0.22937221825122833,8.889302253723145,9.48875904083252,9.285984992980957,0.7672,,
628,156,15540,-44.490098235441245,0.6746293902397156,5.2580766677856445,9.886760711669922,9.244194984436035,0.7669,,
629,156,15560,-81.39245501442448,0.4419665038585663,2.9982404708862305,8.347081184387207,7.969531059265137,0.7666,,
630,156,15580,-112.85959260093203,0.10700145363807678,4.901583671569824,8.583250999450684,8.568526268005371,0.7663,,
631,156,15600,-161.4911239934031,0.16100464761257172,3.738725185394287,8.680274963378906,8.602970123291016,0.766,,
632,157,15620,-19.672455622926748,0.14048849046230316,3.788912534713745,9.15040111541748,9.08304500579834,0.7656999999999999,,
633,157,15640,-41.61617368374115,0.195531964302063,6.732459545135498,10.361631393432617,10.286669731140137,0.7654,,
634,157,15660,-79.79476805262514,0.2873546779155731,4.658304691314697,9.2160005569458,9.011285781860352,0.7651,,
635,157,15680,-129.71028240243356,0.12835846841335297,3.248776912689209,8.237482070922852,8.146932601928711,0.7648,,
636,157,15700,-166.53316166455943,0.3642265796661377,9.846803665161133,11.645404815673828,11.28705883026123,0.7645,,
637,158,15720,-18.66766933255419,0.41779908537864685,4.755792617797852,8.416708946228027,8.028675079345703,0.7642,,
638,158,15740,-58.81269246254159,0.27150601148605347,5.317600250244141,7.877546310424805,7.736137866973877,0.7639,,
639,158,15760,-131.79451954525342,0.17219099402427673,5.730407238006592,8.718375205993652,8.649456024169922,0.7636000000000001,,
640,158,15780,-217.9334726898714,0.08430320769548416,6.750180721282959,8.361165046691895,8.432886123657227,0.7633,,
641,158,15800,-311.726781939337,0.1986013799905777,8.43370246887207,9.637596130371094,9.594569206237793,0.763,,
642,159,15820,-19.92563470903495,0.2045135796070099,8.808181762695312,9.09947681427002,8.89350700378418,0.7626999999999999,,
643,159,15840,-40.17710725649757,0.46894150972366333,6.348763942718506,9.467284202575684,9.003276824951172,0.7624,,
644,159,15860,-69.32488862088343,0.23947766423225403,4.795150279998779,8.121505737304688,7.886496543884277,0.7621,,
645,159,15880,-139.67158267442343,0.29035484790802,6.773072719573975,9.75780200958252,9.504895210266113,0.7618,,
646,159,15900,-221.35271087818458,0.09014344960451126,9.862070083618164,10.029363632202148,10.142356872558594,0.7615,,
647,160,15920,-17.594175970956645,0.09195315837860107,6.444112300872803,10.078669548034668,10.090865135192871,0.7612,,
648,160,15940,-39.83019714130707,0.07758338004350662,5.23828649520874,9.991239547729492,10.009724617004395,0.7609,,
649,160,15960,-92.98904081669232,0.3249341547489166,7.492839336395264,11.256864547729492,11.042222023010254,0.7605999999999999,,
650,160,15980,-184.2918185971316,0.08912034332752228,6.4325127601623535,9.0140962600708,8.92529582977295,0.7603,,
651,160,16000,-298.0448032734605,0.5278841853141785,4.651388645172119,9.664055824279785,9.148290634155273,0.76,,
652,161,16020,-17.643320162374945,0.18284547328948975,4.811642169952393,8.032820701599121,7.954410552978516,0.7597,,
653,161,16040,-35.92308957928389,0.34918832778930664,6.432618141174316,9.798873901367188,9.50378131866455,0.7594000000000001,,
654,161,16060,-54.84993168238081,0.1747780740261078,6.860538005828857,10.15106201171875,10.090032577514648,0.7591,,
655,161,16080,-92.95862648560086,0.06623338907957077,3.359650135040283,8.038507461547852,8.008904457092285,0.7587999999999999,,
656,161,16100,-154.3280930956817,0.18278324604034424,5.093859672546387,8.252312660217285,8.144081115722656,0.7585,,
657,162,16120,-19.5195519635437,0.06784600764513016,5.046631336212158,8.73898983001709,8.741137504577637,0.7582,,
658,162,16140,-67.07107828910704,0.3626609444618225,7.895170211791992,9.671890258789062,9.347458839416504,0.7579,,
659,162,16160,-136.38266209815703,0.1550571769475937,4.0866475105285645,9.124675750732422,9.042511940002441,0.7576,,
660,162,16180,-216.63528097127883,0.21523010730743408,4.529170513153076,9.873676300048828,9.768802642822266,0.7573,,
661,162,16200,-297.46124640727965,0.9253520965576172,4.85554313659668,9.153837203979492,8.328454971313477,0.757,,
662,163,16220,-13.383532226866985,0.18481510877609253,4.792751789093018,9.60597038269043,9.50267219543457,0.7567,,
663,163,16240,-36.52291708821688,0.31520161032676697,5.949361324310303,9.650552749633789,9.414575576782227,0.7564,,
664,163,16260,-57.97224501774202,0.13496993482112885,7.534092426300049,8.905187606811523,8.917715072631836,0.7561,,
665,163,16280,-83.40220440565938,0.18653081357479095,5.635405540466309,8.611452102661133,8.502374649047852,0.7558,,
666,163,16300,-115.44874172801732,0.12974871695041656,5.715407371520996,9.794890403747559,9.694562911987305,0.7555000000000001,,
667,164,16320,-22.37964255719166,0.33460626006126404,4.013293266296387,9.824024200439453,9.572891235351562,0.7552,,
668,164,16340,-64.57230257527496,0.07732053101062775,5.47511100769043,8.853123664855957,8.822720527648926,0.7549,,
669,164,16360,-131.7777625935433,0.06353229284286499,4.849603652954102,9.107826232910156,9.158979415893555,0.7545999999999999,,
670,164,16380,-221.52606701944902,0.316472589969635,6.113823890686035,9.738310813903809,9.558335304260254,0.7543,,
671,164,16400,-330.2724604733869,0.18594196438789368,4.2347187995910645,9.619688034057617,9.453827857971191,0.754,,
672,165,16420,-23.850093081549613,0.2051117867231369,6.3263020515441895,9.575674057006836,9.418397903442383,0.7537,,
673,165,16440,-55.7618663891701,0.3447004556655884,4.981255531311035,8.418825149536133,8.078322410583496,0.7534,,
674,165,16460,-90.349600380361,0.26793351769447327,5.740533828735352,8.9492826461792,8.858388900756836,0.7531,,
675,165,16480,-122.2218711008288,0.25590255856513977,4.834921360015869,10.242720603942871,10.106400489807129,0.7528,,
676,165,16500,-169.62273886316,0.605252742767334,7.61445426940918,11.494956970214844,10.94605541229248,0.7525,,
677,166,16520,-21.05380403584794,0.360729843378067,7.462069511413574,9.831707954406738,9.551616668701172,0.7522,,
678,166,16540,-46.3468776472912,0.07978354394435883,8.046601295471191,9.001595497131348,9.087963104248047,0.7519,,
679,166,16560,-80.9085095897854,0.3869912922382355,5.37107515335083,9.502325057983398,9.194202423095703,0.7515999999999999,,
680,166,16580,-126.68247496456364,0.5466477870941162,7.057729721069336,9.933070182800293,9.430992126464844,0.7513,,
681,166,16600,-176.9942195276586,0.07116956263780594,5.2198710441589355,10.194466590881348,10.217421531677246,0.751,,
682,167,16620,-22.497632141726356,0.4287237524986267,4.686363697052002,10.569122314453125,10.228287696838379,0.7506999999999999,,
683,167,16640,-48.59594607527431,0.29420748353004456,4.854691505432129,10.42242431640625,10.205345153808594,0.7504,,
684,167,16660,-100.22779303702477,0.07785984873771667,4.2055134773254395,10.237911224365234,10.231581687927246,0.7501,,
685,167,16680,-185.79259124552826,0.17875398695468903,4.636494159698486,8.864532470703125,8.738258361816406,0.7498,,
686,167,16700,-287.5839644738517,0.09618405997753143,6.973485469818115,10.460532188415527,10.426651000976562,0.7495,,
687,168,16720,-36.73696486082711,0.05126691982150078,6.276577472686768,9.210321426391602,9.164327621459961,0.7492,,
688,168,16740,-85.74709369939175,0.3126665949821472,5.556641101837158,10.66256046295166,10.426633834838867,0.7488999999999999,,
689,168,16760,-126.39591006984796,0.09182515740394592,5.421140670776367,9.287296295166016,9.305266380310059,0.7485999999999999,,
690,168,16780,-160.52483330900355,0.11569920182228088,6.3872528076171875,9.991846084594727,9.936607360839844,0.7483,,
691,168,16800,-196.05903942108674,0.7910907864570618,4.673725605010986,8.576622009277344,7.86620569229126,0.748,,
692,169,16820,-29.310210440200525,0.3742733597755432,6.935083389282227,11.324081420898438,11.050621032714844,0.7477,,
693,169,16840,-54.85191422431966,0.05478751286864281,4.2208170890808105,10.272560119628906,10.309267044067383,0.7474000000000001,,
694,169,16860,-91.50115925423233,0.16613274812698364,6.131519794464111,11.48776626586914,11.362937927246094,0.7471,,
695,169,16880,-148.04586355311082,0.0956123024225235,8.366018295288086,10.024956703186035,9.95022201538086,0.7468,,
696,169,16900,-227.52886090370885,0.16095183789730072,4.749708652496338,9.687068939208984,9.583746910095215,0.7464999999999999,,
697,170,16920,-15.42956291324601,0.7708905935287476,5.961390495300293,9.820627212524414,9.205265998840332,0.7462,,
698,170,16940,-43.75038372632033,0.22048920392990112,8.184983253479004,9.489226341247559,9.476188659667969,0.7459,,
699,170,16960,-91.44631298998348,0.6888207197189331,10.249734878540039,11.541776657104492,11.00512981414795,0.7456,,
700,170,16980,-155.4433423378387,0.434259831905365,4.423715591430664,10.691569328308105,10.334632873535156,0.7453000000000001,,
701,170,17000,-211.57349383636355,0.3515641391277313,5.12469482421875,8.8529052734375,8.542728424072266,0.745,,
702,171,17020,-13.681000093745798,0.22265200316905975,7.414766311645508,11.063667297363281,10.856752395629883,0.7446999999999999,,
703,171,17040,-32.79715431099497,0.3465515971183777,7.8785200119018555,9.788235664367676,9.408544540405273,0.7444,,
704,171,17060,-71.3677868653499,0.048045817762613297,4.172913074493408,9.421448707580566,9.400313377380371,0.7441,,
705,171,17080,-148.07530799916262,0.6826911568641663,7.011617660522461,11.389747619628906,10.84285831451416,0.7438,,
706,171,17100,-242.13021163591677,0.20703256130218506,6.3070526123046875,9.659656524658203,9.557265281677246,0.7435,,
707,172,17120,-39.151025112861994,0.18971633911132812,7.8521270751953125,11.689607620239258,11.64705753326416,0.7432,,
708,172,17140,-73.66056696574772,0.46183353662490845,7.35167121887207,9.365921020507812,8.99542236328125,0.7429,,
709,172,17160,-104.71829816854311,0.09413633495569229,7.946352005004883,10.004433631896973,9.898784637451172,0.7426,,
710,172,17180,-132.90705414133328,0.6480702757835388,9.526423454284668,10.496259689331055,9.868572235107422,0.7423,,
711,172,17200,-160.35625010054963,0.3546455502510071,7.83070707321167,10.864670753479004,10.616418838500977,0.742,,
712,173,17220,-18.56369017012925,0.07486100494861603,5.802757263183594,9.791963577270508,9.8552885055542,0.7417,,
713,173,17240,-49.054348374912195,0.24802027642726898,7.454983234405518,10.262286186218262,10.08729362487793,0.7414000000000001,,
714,173,17260,-87.89148604390174,0.11322974413633347,5.0089850425720215,11.627581596374512,11.590707778930664,0.7411,,
715,173,17280,-143.52674463189894,0.18367207050323486,4.975576877593994,10.064961433410645,9.903130531311035,0.7408,,
716,173,17300,-223.3186776213497,0.28376156091690063,7.025983810424805,9.894658088684082,9.637287139892578,0.7404999999999999,,
717,174,17320,-23.391937819495922,0.5792471170425415,5.122024059295654,11.385732650756836,10.835227966308594,0.7402,,
718,174,17340,-64.5003922708007,0.4326828718185425,2.78985857963562,9.085464477539062,8.723686218261719,0.7399,,
719,174,17360,-122.34565677686984,0.09962292015552521,4.063881874084473,9.741024017333984,9.760926246643066,0.7396,,
720,174,17380,-195.58865207540222,1.139384388923645,4.637547492980957,8.772934913635254,7.714984893798828,0.7393,,
721,174,17400,-286.71799279367036,0.16257819533348083,8.639745712280273,10.55381965637207,10.559202194213867,0.739,,
722,175,17420,-21.735869053208994,0.446541965007782,6.173616409301758,10.399782180786133,10.005444526672363,0.7386999999999999,,
723,175,17440,-69.55524084800912,0.37412142753601074,6.661131858825684,10.504413604736328,10.217947959899902,0.7384,,
724,175,17460,-141.2664612430391,0.21878090500831604,4.73689603805542,9.559236526489258,9.402121543884277,0.7381,,
725,175,17480,-231.1205865959616,0.9882633090019226,5.847713470458984,11.151983261108398,10.255234718322754,0.7378,,
726,175,17500,-337.4031890832244,0.6019028425216675,6.964967727661133,9.625359535217285,9.12249755859375,0.7375,-709.4772595914119,-709.4772595914119
727,176,17520,-27.164843483514705,0.7160837650299072,8.31293773651123,11.521347045898438,10.881429672241211,0.7372000000000001,,
728,176,17540,-58.1328681256737,0.29542073607444763,8.58123779296875,11.754430770874023,11.61086368560791,0.7369,,
729,176,17560,-108.31216318555796,0.3068463206291199,3.2586567401885986,8.762077331542969,8.525830268859863,0.7365999999999999,,
730,176,17580,-188.83542957257808,0.31896403431892395,6.257053375244141,9.362964630126953,9.050554275512695,0.7363,,
731,176,17600,-304.76731145113644,0.08691812306642532,5.727418899536133,9.01673412322998,8.948187828063965,0.736,,
732,177,17620,-35.797261701388436,0.4054706394672394,6.31355094909668,11.706802368164062,11.335986137390137,0.7357,,
733,177,17640,-77.18031010262384,0.563222348690033,5.511775970458984,11.994976043701172,11.482894897460938,0.7354,,
734,177,17660,-125.27746392724903,0.335857629776001,6.158753871917725,10.619937896728516,10.339604377746582,0.7351,,
735,177,17680,-195.73642547479724,0.2167331725358963,6.5624165534973145,10.331178665161133,10.201542854309082,0.7347999999999999,,
736,177,17700,-306.85437275826814,0.32748886942863464,6.529112339019775,11.96647834777832,11.733617782592773,0.7344999999999999,,
737,178,17720,-33.86065641045545,0.16283956170082092,5.461657524108887,10.410133361816406,10.350881576538086,0.7342,,
738,178,17740,-89.96942591300959,0.2478487342596054,4.301931381225586,9.327844619750977,9.15230941772461,0.7339,,
739,178,17760,-154.80317207989216,0.4283493757247925,10.506199836730957,11.869344711303711,11.57563304901123,0.7336,,
740,178,17780,-232.08673344667514,0.1473628580570221,5.569633960723877,10.425825119018555,10.394055366516113,0.7333000000000001,,
741,178,17800,-325.0000990644393,0.28880631923675537,5.489858150482178,10.042940139770508,9.824496269226074,0.733,,
742,179,17820,-24.419144037914,0.5623788833618164,8.353639602661133,11.480323791503906,11.020447731018066,0.7327,,
743,179,17840,-63.14561232723656,0.13082514703273773,3.407991886138916,9.259571075439453,9.13055419921875,0.7323999999999999,,
744,179,17860,-115.77875908260268,0.14168067276477814,7.671672821044922,10.374642372131348,10.24032974243164,0.7321,,
745,179,17880,-191.12136064278835,0.10960928350687027,7.211438179016113,9.908199310302734,9.806970596313477,0.7318,,
746,179,17900,-317.27869381497294,0.6231155395507812,5.372100353240967,12.410602569580078,11.878540992736816,0.7315,,
747,180,17920,-19.877840674033077,1.4544928073883057,14.01600170135498,12.141501426696777,10.784907341003418,0.7312,,
748,180,17940,-67.00416101012642,0.5437784790992737,9.700335502624512,11.664612770080566,11.325529098510742,0.7309,,
749,180,17960,-149.31369046632636,0.1413583904504776,8.794629096984863,11.49443531036377,11.535262107849121,0.7305999999999999,,
750,180,17980,-245.5897539458111,0.7277477979660034,11.500941276550293,12.005846977233887,11.501256942749023,0.7303,,
751,180,18000,-343.84839669794826,0.28284531831741333,7.7959885597229,10.291205406188965,10.05237865447998,0.73,,
752,181,18020,-21.72462546939268,0.4464940130710602,12.950995445251465,11.392724990844727,10.939844131469727,0.7297,,
753,181,18040,-51.280871915712616,0.15335163474082947,10.801047325134277,11.202946662902832,11.042699813842773,0.7294,,
754,181,18060,-98.88216137039076,0.26908695697784424,6.80506706237793,10.3433837890625,10.134844779968262,0.7291000000000001,,
755,181,18080,-160.54622789301595,0.40299680829048157,8.706841468811035,11.334746360778809,11.077981948852539,0.7288,,
756,181,18100,-234.24712382084704,0.5610076785087585,10.043243408203125,11.614845275878906,11.217855453491211,0.7284999999999999,,
757,182,18120,-17.68468699567892,0.29851970076560974,5.593846797943115,9.55875015258789,9.304601669311523,0.7282,,
758,182,18140,-41.67503946898061,0.2649507522583008,8.124089241027832,11.299503326416016,11.07327651977539,0.7279,,
759,182,18160,-74.47311979713248,0.2929168939590454,5.793663024902344,10.025032043457031,9.825325012207031,0.7276,,
760,182,18180,-98.1234757991113,1.0875177383422852,7.295546054840088,12.481645584106445,11.465307235717773,0.7273000000000001,,
761,182,18200,-162.51225562301568,0.6619901657104492,10.272046089172363,13.030754089355469,12.636114120483398,0.727,,
762,183,18220,-18.353657338844354,0.480009526014328,10.595745086669922,13.208353996276855,12.933293342590332,0.7267,,
763,183,18240,-56.30060614020683,0.23100121319293976,6.545524597167969,9.072981834411621,8.973163604736328,0.7263999999999999,,
764,183,18260,-107.93008166182784,0.7402640581130981,10.021258354187012,11.177809715270996,10.412105560302734,0.7261,,
765,183,18280,-170.2427969475009,0.12513107061386108,11.006782531738281,12.747915267944336,12.682306289672852,0.7258,,
766,183,18300,-229.9559262974336,0.16038459539413452,6.831671714782715,11.634537696838379,11.560050964355469,0.7255,,
767,184,18320,-24.62892722367648,0.09783290326595306,6.655948162078857,11.489912033081055,11.529844284057617,0.7252,,
768,184,18340,-71.25376922667817,0.35824039578437805,7.894804954528809,11.154020309448242,10.978382110595703,0.7249,,
769,184,18360,-119.14849778058505,0.0927366092801094,7.247351169586182,10.276123046875,10.21242618560791,0.7246,,
770,184,18380,-180.58151418835743,0.0990733876824379,8.795676231384277,9.687052726745605,9.760429382324219,0.7242999999999999,,
771,184,18400,-260.8503093259984,0.06786201149225235,6.103353977203369,9.463616371154785,9.478676795959473,0.724,,
772,185,18420,-16.62028144355586,0.062291476875543594,7.125972270965576,12.022937774658203,11.980086326599121,0.7237,,
773,185,18440,-35.65373243344519,0.6956671476364136,6.40089225769043,12.036624908447266,11.34339427947998,0.7234,,
774,185,18460,-79.64022598350122,0.29101699590682983,6.495711803436279,10.475687980651855,10.187983512878418,0.7231000000000001,,
775,185,18480,-140.95653974564235,0.0751834362745285,9.20184326171875,11.005804061889648,11.032283782958984,0.7228,,
776,185,18500,-241.13755057038733,0.11298530548810959,4.435360431671143,11.537776947021484,11.508244514465332,0.7224999999999999,,
777,186,18520,-16.781470040100462,0.3177081048488617,5.4669318199157715,10.044612884521484,9.876075744628906,0.7222,,
778,186,18540,-44.87199514284119,0.7536623477935791,6.253303527832031,11.590190887451172,10.974383354187012,0.7219,,
779,186,18560,-72.4393651134999,0.31553763151168823,6.222090244293213,10.442278861999512,10.230119705200195,0.7216,,
780,186,18580,-92.76271709872947,0.39413025975227356,11.078205108642578,11.015316009521484,10.788837432861328,0.7213,,
781,186,18600,-123.72853101966493,0.717252254486084,4.558645248413086,12.599565505981445,11.925436019897461,0.721,,
782,187,18620,-12.750152903074708,0.10694658756256104,4.534834861755371,9.534175872802734,9.47237777709961,0.7206999999999999,,
783,187,18640,-32.70482853752442,0.4422553777694702,9.84878158569336,12.331526756286621,11.96746826171875,0.7203999999999999,,
784,187,18660,-74.94427673243156,0.12060938775539398,6.297884941101074,11.615189552307129,11.513510704040527,0.7201,,
785,187,18680,-137.87996481418526,0.08937858045101166,5.647464275360107,12.308307647705078,12.284456253051758,0.7198,,
786,187,18700,-226.04205054893362,0.43708470463752747,5.472589015960693,11.090143203735352,10.674871444702148,0.7195,,
787,188,18720,-21.253443495712684,0.4310198128223419,5.325024127960205,9.840218544006348,9.546854972839355,0.7192000000000001,,
788,188,18740,-61.17540861463871,0.08503593504428864,11.788640975952148,10.422874450683594,10.5634183883667,0.7189,,
789,188,18760,-142.13463814963833,0.14022749662399292,9.510946273803711,11.390955924987793,11.43790340423584,0.7186,,
790,188,18780,-266.31125935879487,0.07756493985652924,6.292140483856201,10.098006248474121,10.11451244354248,0.7182999999999999,,
791,188,18800,-455.6964696551195,0.9256440997123718,9.689790725708008,11.973567962646484,11.053396224975586,0.718,,
792,189,18820,-12.37987449324814,0.4725762903690338,14.327502250671387,11.983715057373047,11.48210334777832,0.7177,,
793,189,18840,-36.54189682823,0.18738435208797455,17.612201690673828,15.828980445861816,15.702889442443848,0.7174,,
794,189,18860,-72.52356239928365,0.18666313588619232,4.536355972290039,9.391639709472656,9.293313026428223,0.7171,,
795,189,18880,-128.94242160865332,0.292030394077301,12.978172302246094,12.086088180541992,12.006646156311035,0.7168,,
796,189,18900,-199.19507148601667,0.2802577316761017,13.83427906036377,11.738565444946289,11.704654693603516,0.7164999999999999,,
797,190,18920,-18.129582189760473,0.1588267832994461,8.037858009338379,8.83301067352295,8.878561973571777,0.7162,,
798,190,18940,-37.44107088584907,0.21322859823703766,7.733882904052734,11.890560150146484,11.834486961364746,0.7159,,
799,190,18960,-74.73150084027331,1.0926296710968018,9.229621887207031,12.223664283752441,11.231119155883789,0.7156,,
800,190,18980,-162.81612310974737,0.08519025892019272,12.493483543395996,12.427490234375,12.314041137695312,0.7153,,
801,190,19000,-272.03223231828787,0.21745218336582184,12.781152725219727,12.801177978515625,12.574318885803223,0.7150000000000001,,
802,191,19020,-27.033270346777055,0.19686545431613922,6.048162460327148,11.604125022888184,11.471765518188477,0.7147,,
803,191,19040,-71.90847533581855,0.41872572898864746,8.662315368652344,12.309329986572266,11.984434127807617,0.7143999999999999,,
804,191,19060,-133.63963551628513,0.07881806045770645,7.385777950286865,11.984890937805176,12.016489028930664,0.7141,,
805,191,19080,-208.84919972899252,0.3109966516494751,11.223177909851074,13.537801742553711,13.448312759399414,0.7138,,
806,191,19100,-275.02973697773984,0.1945398449897766,6.4042463302612305,12.261844635009766,12.173823356628418,0.7135,,
807,192,19120,-22.83994658524901,0.17803896963596344,8.66939640045166,12.355476379394531,12.243797302246094,0.7132000000000001,,
808,192,19140,-52.35451652874148,0.4168078601360321,10.591752052307129,12.265756607055664,11.84151840209961,0.7129,,
809,192,19160,-109.73525336741017,0.5679430365562439,15.261704444885254,14.66831111907959,14.101591110229492,0.7125999999999999,,
810,192,19180,-198.20719165652235,1.0222853422164917,6.3920722007751465,12.234980583190918,11.26024055480957,0.7122999999999999,,
811,192,19200,-301.75147126807303,1.0109707117080688,13.134781837463379,13.110651016235352,12.333993911743164,0.712,,
812,193,19220,-30.065728419645584,0.16838571429252625,10.690291404724121,12.252655982971191,12.319732666015625,0.7117,,
813,193,19240,-59.37533323869837,0.4598025679588318,18.016305923461914,12.382949829101562,12.22697639465332,0.7114,,
814,193,19260,-87.29268284176746,0.33246880769729614,6.795663356781006,10.821589469909668,10.586625099182129,0.7111000000000001,,
815,193,19280,-121.29324718696327,0.3531315326690674,11.05332088470459,13.098063468933105,12.833072662353516,0.7108,,
816,193,19300,-165.2259988144307,0.35913026332855225,11.459005355834961,11.627620697021484,11.213956832885742,0.7105,,
817,194,19320,-24.74300249662597,0.7782621383666992,13.233055114746094,14.923056602478027,14.206655502319336,0.7101999999999999,,
818,194,19340,-52.560702950778115,0.43796780705451965,11.957132339477539,13.426837921142578,13.003978729248047,0.7099,,
819,194,19360,-106.05587012288797,0.4412497282028198,7.017526149749756,12.449482917785645,12.135608673095703,0.7096,,
820,194,19380,-177.3441371319494,0.5071223378181458,10.673209190368652,10.98050308227539,10.69751262664795,0.7093,,
821,194,19400,-264.5588133316002,0.3498450815677643,12.849431991577148,12.21104621887207,12.11749267578125,0.7090000000000001,,
822,195,19420,-40.910822865454556,0.2258698046207428,14.352814674377441,12.27744197845459,12.341862678527832,0.7087,,
823,195,19440,-114.74450580111795,0.1218256726861,5.663219451904297,12.566669464111328,12.510968208312988,0.7083999999999999,,
824,195,19460,-185.99366662430074,0.08688899874687195,7.807308673858643,12.212871551513672,12.173347473144531,0.7081,,
825,195,19480,-265.6075026141114,0.2033463418483734,11.235078811645508,9.949721336364746,9.658194541931152,0.7078,,
826,195,19500,-364.9020650499118,0.3824545741081238,18.482973098754883,14.392271995544434,13.963485717773438,0.7075,,
827,196,19520,-31.976175876736573,0.6764767169952393,14.279166221618652,13.927345275878906,13.325183868408203,0.7072,,
828,196,19540,-75.46589040928369,0.5235103964805603,7.573937892913818,14.433048248291016,13.981640815734863,0.7069,,
829,196,19560,-153.51093934435727,0.23781979084014893,12.466946601867676,13.105348587036133,13.054418563842773,0.7066,,
830,196,19580,-257.0729343132408,0.11161132156848907,8.572042465209961,10.989489555358887,11.148999214172363,0.7063,,
831,196,19600,-388.57303005570003,0.4098649322986603,15.63513469696045,13.820841789245605,13.872638702392578,0.706,,
832,197,19620,-30.47584289443777,0.21504315733909607,10.455137252807617,10.9480619430542,10.934126853942871,0.7057,,
833,197,19640,-67.85544771284843,0.10213220119476318,7.84035062789917,12.232239723205566,12.183277130126953,0.7054,,
834,197,19660,-112.95204569033281,0.11510036885738373,10.783995628356934,12.981667518615723,12.829606056213379,0.7051000000000001,,
835,197,19680,-187.29124985952382,0.1838873326778412,7.2810893058776855,11.95689868927002,11.80074691772461,0.7048,,
836,197,19700,-287.23398600368455,0.7127041816711426,6.202481269836426,12.187856674194336,11.563942909240723,0.7045,,
837,198,19720,-29.86616928325607,0.4571229815483093,7.446291923522949,13.42658805847168,13.044231414794922,0.7041999999999999,,
838,198,19740,-57.82199698265732,0.5819052457809448,6.937506198883057,11.466413497924805,11.026740074157715,0.7039,,
839,198,19760,-105.90619937000034,0.5455440282821655,12.206814765930176,12.025620460510254,11.734756469726562,0.7036,,
840,198,19780,-193.57210747232142,0.5109001994132996,15.214420318603516,12.995292663574219,12.777716636657715,0.7033,,
841,198,19800,-318.7222652564083,0.16465552151203156,8.977411270141602,11.652533531188965,11.655716896057129,0.703,,
842,199,19820,-20.497569348487207,0.9554853439331055,11.250080108642578,12.705410957336426,11.80107593536377,0.7027,,
843,199,19840,-68.1448980547197,0.7335975170135498,12.458768844604492,12.501921653747559,11.80617618560791,0.7023999999999999,,
844,199,19860,-146.73334742161808,1.3245452642440796,8.035713195800781,12.261173248291016,11.015279769897461,0.7021,,
845,199,19880,-263.5830850928374,0.05754128098487854,4.4434332847595215,11.802364349365234,11.822334289550781,0.7018,,
846,199,19900,-400.26519516041225,0.11683247983455658,11.130058288574219,14.088807106018066,14.109678268432617,0.7015,,
847,200,19920,-28.781794148337127,0.699429452419281,7.2138261795043945,13.363131523132324,12.875468254089355,0.7012,,
848,200,19940,-83.00106926764366,0.21541516482830048,17.63844871520996,14.137002944946289,14.283138275146484,0.7009000000000001,,
